(www.cuttingedgecnc.com)
(HELLO)
(Program Name:3D DEMO ONLY)
(Endmill Size: NONE)
(Origin: MIDDLE OF MACHINE)
(Footprint: 75x75x35 mm)
(IN METRIC UNITS)
N40 G21 G90
N50 G92 X0 Y0 Z0
N60 F400
N2140 G92 X1.17 Y65.847 Z6.896
N2150 G1 X1.213 Y65.967 Z6.803
N2160 X1.257 Y66.081 Z6.717
N2170 X1.301 Y66.191 Z6.637
N2180 X1.346 Y66.295 Z6.565
N2190 X1.392 Y66.395 Z6.498
N2200 X1.439 Y66.49 Z6.438
N2210 X1.486 Y66.58 Z6.384
N2220 X1.517 Y66.638 Z6.351
N2230 X1.565 Y66.722 Z6.305
N2240 X1.613 Y66.801 Z6.265
N2250 X1.661 Y66.877 Z6.23
N2260 X1.71 Y66.95 Z6.199
N2270 X1.758 Y67.019 Z6.173
N2280 X1.807 Y67.085 Z6.151
N2290 X1.856 Y67.147 Z6.134
N2300 X1.906 Y67.207 Z6.12
N2310 X1.955 Y67.264 Z6.11
N2320 X2.005 Y67.319 Z6.104
N2330 X2.055 Y67.37 Z6.102
N2340 X2.106 Y67.42 Z6.103
N2350 X2.157 Y67.467 Z6.108
N2360 X2.208 Y67.512 Z6.116
N2370 X2.26 Y67.556 Z6.128
N2380 X2.312 Y67.597 Z6.143
N2390 X2.365 Y67.636 Z6.162
N2400 X2.419 Y67.674 Z6.184
N2410 X2.473 Y67.709 Z6.21
N2420 X2.528 Y67.743 Z6.239
N2430 X2.584 Y67.775 Z6.272
N2440 X2.641 Y67.806 Z6.309
N2450 X2.7 Y67.835 Z6.351
N2460 X2.759 Y67.862 Z6.396
N2470 X2.819 Y67.887 Z6.446
N2480 X2.881 Y67.911 Z6.501
N2490 X2.944 Y67.933 Z6.56
N2500 X3.009 Y67.953 Z6.625
N2510 X3.075 Y67.97 Z6.695
N2520 X3.142 Y67.986 Z6.77
N2530 X3.211 Y68. Z6.851
N2540 X3.281 Y68.011 Z6.939
N2550 X3.353 Y68.02 Z7.032
N2560 X3.427 Y68.027 Z7.133
N2570 X3.502 Y68.031 Z7.24
N2580 X3.579 Y68.033 Z7.355
N2590 X3.657 Y68.031 Z7.477
N2600 X3.738 Y68.027 Z7.607
N2610 X3.819 Y68.02 Z7.745
N2620 X3.902 Y68.01 Z7.892
N2630 X3.987 Y67.996 Z8.047
N2640 X4.073 Y67.979 Z8.211
N2650 X4.161 Y67.958 Z8.385
N2660 X4.25 Y67.934 Z8.568
N2670 X4.341 Y67.906 Z8.761
N2680 X4.433 Y67.875 Z8.964
N2690 X4.526 Y67.839 Z9.178
N2700 X4.62 Y67.799 Z9.402
N2710 X4.715 Y67.755 Z9.637
N2720 X4.812 Y67.707 Z9.884
N2730 X4.909 Y67.655 Z10.141
N2740 X5.007 Y67.598 Z10.41