(www.cuttingedgecnc.com)
(HELLO)
(Program Name:3D DEMO ONLY)
(Endmill Size: NONE)
(Origin: MIDDLE OF MACHINE)
(Footprint: 75x75x35 mm)
(IN METRIC UNITS)
N40 G21 G90
N50 G92 X0 Y0 Z0
N60 F400
N70 G01 X6.317 Y11.209 Z10.859 
N2380 X2.312 Y67.597 Z6.143
N2390 X2.365 Y67.636 Z6.162
N2400 X2.419 Y67.674 Z6.184
N2410 X2.473 Y67.709 Z6.21
N2420 X2.528 Y67.743 Z6.239
N2430 X2.584 Y67.775 Z6.272
N2440 X2.641 Y67.806 Z6.309
N2450 X2.7 Y67.835 Z6.351
N2460 X2.759 Y67.862 Z6.396
N2470 X2.819 Y67.887 Z6.446
N2480 X2.881 Y67.911 Z6.501
N2490 X2.944 Y67.933 Z6.56
N2500 X3.009 Y67.953 Z6.625
N2510 X3.075 Y67.97 Z6.695
N2520 X3.142 Y67.986 Z6.77
N2530 X3.211 Y68. Z6.851
N2540 X3.281 Y68.011 Z6.939
N2550 X3.353 Y68.02 Z7.032
N2560 X3.427 Y68.027 Z7.133
N2570 X3.502 Y68.031 Z7.24
N2580 X3.579 Y68.033 Z7.355
N2590 X3.657 Y68.031 Z7.477
N2600 X3.738 Y68.027 Z7.607
N2610 X3.819 Y68.02 Z7.745
N2620 X3.902 Y68.01 Z7.892
N2630 X3.987 Y67.996 Z8.047
N2640 X4.073 Y67.979 Z8.211
N2650 X4.161 Y67.958 Z8.385
N2660 X4.25 Y67.934 Z8.568
N2670 X4.341 Y67.906 Z8.761
N2680 X4.433 Y67.875 Z8.964
N2690 X4.526 Y67.839 Z9.178
N2700 X4.62 Y67.799 Z9.402
N2710 X4.715 Y67.755 Z9.637
N2720 X4.812 Y67.707 Z9.884
N2730 X4.909 Y67.655 Z10.141
N2740 X5.007 Y67.598 Z10.41