(www.cuttingedgecnc.com)
(HELLO)
(Program Name:3D DEMO ONLY)
(Endmill Size: NONE)
(Origin: MIDDLE OF MACHINE)
(Footprint: 75x75x35 mm)
(IN METRIC UNITS)
N40 G21 G90
N50 G92 X0 Y0 Z0
N60 F400
N70 G01 X6.317 Y11.209 Z10.859 
N80 G01 X6.301 Y11.295 Z11.112 
N90 X6.286 Y11.386 Z11.368
N100 X6.272 Y11.483 Z11.629
N110 X6.258 Y11.586 Z11.894
N120 X6.244 Y11.694 Z12.163
N130 X6.23 Y11.809 Z12.435
N140 X6.217 Y11.929 Z12.711
N150 X6.205 Y12.054 Z12.991
N160 X6.193 Y12.186 Z13.274
N170 X6.181 Y12.324 Z13.56
N180 X6.17 Y12.467 Z13.849
N190 X6.159 Y12.616 Z14.141
N200 X6.149 Y12.771 Z14.435
N210 X6.138 Y12.932 Z14.732
N220 X6.129 Y13.099 Z15.031
N230 X6.119 Y13.271 Z15.332
N240 X6.11 Y13.448 Z15.635
N250 X6.102 Y13.631 Z15.939
N260 X6.093 Y13.82 Z16.245
N270 X6.085 Y14.014 Z16.551
N280 X6.077 Y14.213 Z16.859
N290 X6.07 Y14.417 Z17.166
N300 X6.062 Y14.626 Z17.474
N310 X6.055 Y14.84 Z17.782
N320 X6.049 Y15.059 Z18.09
N330 X6.042 Y15.282 Z18.397
N340 X6.035 Y15.509 Z18.703
N350 X6.029 Y15.741 Z19.008
N360 X6.023 Y15.977 Z19.312
N370 X6.017 Y16.216 Z19.615
N380 X6.011 Y16.46 Z19.915
N390 X6.005 Y16.706 Z20.214
N400 X5.999 Y16.957 Z20.511
N410 X5.993 Y17.21 Z20.804
N420 X5.987 Y17.467 Z21.096
N430 X5.981 Y17.726 Z21.384
N440 X5.975 Y17.988 Z21.67
N450 X5.971 Y18.163 Z21.857
N460 X5.967 Y18.34 Z22.044
N470 X5.961 Y18.607 Z22.321
N480 X5.954 Y18.876 Z22.595
N490 X5.948 Y19.148 Z22.865
N500 X5.942 Y19.421 Z23.132
N510 X5.935 Y19.695 Z23.394
N520 X5.928 Y19.971 Z23.652
N530 X5.921 Y20.249 Z23.905
N540 X5.914 Y20.527 Z24.155
N550 X5.907 Y20.807 Z24.399
N560 X5.899 Y21.087 Z24.64
N570 X5.891 Y21.368 Z24.875
N580 X5.883 Y21.649 Z25.106
N590 X5.875 Y21.931 Z25.332
N600 X5.866 Y22.213 Z25.553
N610 X5.857 Y22.496 Z25.769
N620 X5.848 Y22.778 Z25.98
N630 X5.839 Y23.061 Z26.186
N640 X5.829 Y23.343 Z26.387
N650 X5.819 Y23.625 Z26.583
N660 X5.809 Y23.907 Z26.774
N670 X5.798 Y24.189 Z26.96
N680 X5.787 Y24.47 Z27.141
N690 X5.776 Y24.75 Z27.317
N700 X5.764 Y25.03 Z27.488
N710 X5.752 Y25.309 Z27.653
N720 X5.739 Y25.588 Z27.814
N730 X5.727 Y25.865 Z27.969
N740 X5.714 Y26.142 Z28.12
N750 X5.7 Y26.418 Z28.265
N760 X5.686 Y26.693 Z28.406
N770 X5.672 Y26.967 Z28.541
N780 X5.657 Y27.239 Z28.671
N790 X5.643 Y27.511 Z28.797
N800 X5.627 Y27.782 Z28.917
N810 X5.612 Y28.051 Z29.033
N820 X5.596 Y28.319 Z29.144
N830 X5.579 Y28.586 Z29.25
N840 X5.562 Y28.852 Z29.352
N850 X5.545 Y29.117 Z29.448
N860 X5.528 Y29.38 Z29.54
N870 X5.51 Y29.642 Z29.628
N880 X5.491 Y29.903 Z29.71
N890 X5.473 Y30.163 Z29.788
N900 X5.454 Y30.421 Z29.862
N910 X5.434 Y30.678 Z29.931
N920 X5.414 Y30.933 Z29.996
N930 X5.394 Y31.187 Z30.056
N940 X5.373 Y31.44 Z30.112
N950 X5.352 Y31.692 Z30.163
N960 X5.331 Y31.942 Z30.21
N970 X5.309 Y32.191 Z30.253
N980 X5.287 Y32.439 Z30.292
N990 X5.265 Y32.685 Z30.326
N1000 X5.242 Y32.93 Z30.356
N1010 X5.218 Y33.174 Z30.382
N1020 X5.195 Y33.416 Z30.404
N1030 X5.17 Y33.658 Z30.422
N1040 X5.146 Y33.898 Z30.435
N1050 X5.121 Y34.136 Z30.445
N1060 X5.096 Y34.374 Z30.451
N1070 X5.07 Y34.61 Z30.452
N1080 X5.044 Y34.845 Z30.45
N1090 X5.017 Y35.08 Z30.444
N1100 X4.998 Y35.247 Z30.437
N1110 X4.971 Y35.479 Z30.424
N1120 X4.943 Y35.713 Z30.407
N1130 X4.914 Y35.947 Z30.385
N1140 X4.885 Y36.184 Z30.36
N1150 X4.854 Y36.421 Z30.331
N1160 X4.824 Y36.66 Z30.297
N1170 X4.792 Y36.901 Z30.259
N1180 X4.76 Y37.143 Z30.217
N1190 X4.727 Y37.387 Z30.171
N1200 X4.693 Y37.632 Z30.12
N1210 X4.659 Y37.879 Z30.065
N1220 X4.623 Y38.128 Z30.005
N1230 X4.587 Y38.379 Z29.941
N1240 X4.551 Y38.631 Z29.873
N1250 X4.513 Y38.886 Z29.799
N1260 X4.475 Y39.142 Z29.721
N1270 X4.435 Y39.4 Z29.639
N1280 X4.396 Y39.66 Z29.551
N1290 X4.355 Y39.922 Z29.459
N1300 X4.313 Y40.186 Z29.361
N1310 X4.271 Y40.453 Z29.259
N1320 X4.228 Y40.721 Z29.151
N1330 X4.184 Y40.992 Z29.039
N1340 X4.139 Y41.265 Z28.921
N1350 X4.093 Y41.54 Z28.798
N1360 X4.046 Y41.818 Z28.669
N1370 X3.999 Y42.098 Z28.535
N1380 X3.95 Y42.38 Z28.395
N1390 X3.901 Y42.665 Z28.25
N1400 X3.851 Y42.952 Z28.099
N1410 X3.8 Y43.242 Z27.942
N1420 X3.748 Y43.535 Z27.779
N1430 X3.696 Y43.83 Z27.61
N1440 X3.642 Y44.128 Z27.435
N1450 X3.587 Y44.428 Z27.254
N1460 X3.532 Y44.732 Z27.066
N1470 X3.476 Y45.038 Z26.872
N1480 X3.418 Y45.348 Z26.671
N1490 X3.36 Y45.66 Z26.464
N1500 X3.301 Y45.975 Z26.249
N1510 X3.241 Y46.294 Z26.028
N1520 X3.18 Y46.615 Z25.8
N1530 X3.119 Y46.94 Z25.565
N1540 X3.056 Y47.268 Z25.322
N1550 X2.992 Y47.6 Z25.072
N1560 X2.928 Y47.935 Z24.814
N1570 X2.863 Y48.274 Z24.549
N1580 X2.796 Y48.616 Z24.275
N1590 X2.729 Y48.962 Z23.994
N1600 X2.662 Y49.312 Z23.704
N1610 X2.593 Y49.666 Z23.406
N1620 X2.523 Y50.023 Z23.1
N1630 X2.453 Y50.385 Z22.785
N1640 X2.382 Y50.752 Z22.46
N1650 X2.31 Y51.122 Z22.127
N1660 X2.238 Y51.497 Z21.785
N1670 X2.165 Y51.877 Z21.432
N1680 X2.091 Y52.262 Z21.071
N1690 X2.017 Y52.652 Z20.699
N1700 X1.942 Y53.046 Z20.317
N1710 X1.867 Y53.447 Z19.924
N1720 X1.791 Y53.852 Z19.521
N1730 X1.715 Y54.263 Z19.107
N1740 X1.64 Y54.68 Z18.682
N1750 X1.564 Y55.103 Z18.246
N1760 X1.489 Y55.531 Z17.8
N1770 X1.414 Y55.965 Z17.342
N1780 X1.341 Y56.404 Z16.875
N1790 X1.268 Y56.846 Z16.399
N1800 X1.198 Y57.292 Z15.916
N1810 X1.13 Y57.738 Z15.429
N1820 X1.066 Y58.182 Z14.94
N1830 X1.005 Y58.62 Z14.455
N1840 X.95 Y59.049 Z13.978
N1850 X.899 Y59.465 Z13.513
N1860 X.855 Y59.865 Z13.066
N1870 X.817 Y60.246 Z12.64
N1880 X.791 Y60.532 Z12.319
N1890 X.763 Y60.878 Z11.933
N1900 X.741 Y61.205 Z11.57
N1910 X.724 Y61.512 Z11.229
N1920 X.712 Y61.801 Z10.91
N1930 X.711 Y61.847 Z10.859
N1940 X.704 Y62.117 Z10.564
N1950 X.701 Y62.378 Z10.281
N1960 X.702 Y62.631 Z10.009
N1970 X.706 Y62.875 Z9.749
N1980 X.714 Y63.111 Z9.5
N1990 X.725 Y63.339 Z9.261
N2000 X.739 Y63.559 Z9.034
N2010 X.752 Y63.718 Z8.871
N2020 X.771 Y63.924 Z8.662
N2030 X.793 Y64.122 Z8.464
N2040 X.818 Y64.313 Z8.275
N2050 X.845 Y64.497 Z8.097
N2060 X.874 Y64.673 Z7.928
N2070 X.905 Y64.842 Z7.768
N2080 X.938 Y65.005 Z7.618
N2090 X.973 Y65.161 Z7.477
N2100 X1.01 Y65.31 Z7.344
N2110 X1.048 Y65.453 Z7.22
N2120 X1.087 Y65.59 Z7.104
N2130 X1.128 Y65.722 Z6.996
N2140 X1.17 Y65.847 Z6.896
N2150 X1.213 Y65.967 Z6.803
N2160 X1.257 Y66.081 Z6.717
N2170 X1.301 Y66.191 Z6.637
N2180 X1.346 Y66.295 Z6.565
N2190 X1.392 Y66.395 Z6.498
N2200 X1.439 Y66.49 Z6.438
N2210 X1.486 Y66.58 Z6.384
N2220 X1.517 Y66.638 Z6.351
N2230 X1.565 Y66.722 Z6.305
N2240 X1.613 Y66.801 Z6.265
N2250 X1.661 Y66.877 Z6.23
N2260 X1.71 Y66.95 Z6.199
N2270 X1.758 Y67.019 Z6.173
N2280 X1.807 Y67.085 Z6.151
N2290 X1.856 Y67.147 Z6.134
N2300 X1.906 Y67.207 Z6.12
N2310 X1.955 Y67.264 Z6.11
N2320 X2.005 Y67.319 Z6.104
N2330 X2.055 Y67.37 Z6.102
N2340 X2.106 Y67.42 Z6.103
N2350 X2.157 Y67.467 Z6.108
N2360 X2.208 Y67.512 Z6.116
N2370 X2.26 Y67.556 Z6.128
N2380 X2.312 Y67.597 Z6.143
N2390 X2.365 Y67.636 Z6.162
N2400 X2.419 Y67.674 Z6.184
N2410 X2.473 Y67.709 Z6.21
N2420 X2.528 Y67.743 Z6.239
N2430 X2.584 Y67.775 Z6.272
N2440 X2.641 Y67.806 Z6.309
N2450 X2.7 Y67.835 Z6.351
N2460 X2.759 Y67.862 Z6.396
N2470 X2.819 Y67.887 Z6.446
N2480 X2.881 Y67.911 Z6.501
N2490 X2.944 Y67.933 Z6.56
N2500 X3.009 Y67.953 Z6.625
N2510 X3.075 Y67.97 Z6.695
N2520 X3.142 Y67.986 Z6.77
N2530 X3.211 Y68. Z6.851
N2540 X3.281 Y68.011 Z6.939
N2550 X3.353 Y68.02 Z7.032
N2560 X3.427 Y68.027 Z7.133
N2570 X3.502 Y68.031 Z7.24
N2580 X3.579 Y68.033 Z7.355
N2590 X3.657 Y68.031 Z7.477
N2600 X3.738 Y68.027 Z7.607
N2610 X3.819 Y68.02 Z7.745
N2620 X3.902 Y68.01 Z7.892
N2630 X3.987 Y67.996 Z8.047
N2640 X4.073 Y67.979 Z8.211
N2650 X4.161 Y67.958 Z8.385
N2660 X4.25 Y67.934 Z8.568
N2670 X4.341 Y67.906 Z8.761
N2680 X4.433 Y67.875 Z8.964
N2690 X4.526 Y67.839 Z9.178
N2700 X4.62 Y67.799 Z9.402
N2710 X4.715 Y67.755 Z9.637
N2720 X4.812 Y67.707 Z9.884
N2730 X4.909 Y67.655 Z10.141
N2740 X5.007 Y67.598 Z10.41