( Made using CamBam - http://www.cambam.co.uk )
( birthday 7/1/2012 2:28:58 PM )
( T0 : 4.0 )
G21 G90 G64 G40
G0 Z3.0
( T0 : 4.0 )
T0 M6
( Engrave1 )
G17
M3 S15000
G0 X-18.3281 Y20.3047
G1 F150.0 Z-1.0
G2 F500.0 X-18.375 Y20.1406 I-0.2891 J-0.0061
G2 X-18.5391 Y20.0234 I-0.2771 J0.2145
G2 X-18.8555 Y19.9648 I-0.5184 J1.916
G2 X-19.3242 Y19.9297 I-0.4323 J2.6219
G2 X-19.8164 Y19.9648 I-0.0442 J2.8445
G2 X-20.1211 Y20.0234 I0.2184 J1.9569
G2 X-20.2852 Y20.1406 I0.113 J0.3317
G2 X-20.332 Y20.3047 I0.2424 J0.158
G1 Y27.0313
G1 X-27.2344
G1 Y20.3047
G2 X-27.2813 Y20.1406 I-0.2891 J-0.0061
G2 X-27.4453 Y20.0234 I-0.2771 J0.2145
G2 X-27.7617 Y19.9648 I-0.5184 J1.916
G2 X-28.2422 Y19.9297 I-0.4401 J2.7137
G2 X-28.7227 Y19.9648 I-0.0329 J2.8506
G2 X-29.0391 Y20.0234 I0.2034 J1.982
G2 X-29.2031 Y20.1406 I0.113 J0.3317
G2 X-29.25 Y20.3047 I0.2424 J0.158
G1 Y34.8594
G2 X-29.2031 Y35.0234 I0.2891 J0.0061
G2 X-29.0391 Y35.1289 I0.2313 J-0.1794
G2 X-28.7227 Y35.1992 I0.4407 J-1.2361
G2 X-28.2422 Y35.2344 I0.4476 J-2.816
G2 X-27.7617 Y35.1992 I0.0403 J-2.7498
G2 X-27.4453 Y35.1289 I-0.1248 J-1.3088
G2 X-27.2813 Y35.0234 I-0.0672 J-0.2849
G2 X-27.2344 Y34.8594 I-0.2424 J-0.158
G1 Y28.7891
G1 X-20.332
G1 Y34.8594
G2 X-20.2852 Y35.0234 I0.2891 J0.0061
G2 X-20.1211 Y35.1289 I0.2313 J-0.1794
G2 X-19.8164 Y35.1992 I0.4384 J-1.2043
G2 X-19.3242 Y35.2344 I0.4483 J-2.8129
G2 X-18.8555 Y35.1992 I0.0367 J-2.6538
G2 X-18.5391 Y35.1289 I-0.1248 J-1.3088
G2 X-18.375 Y35.0234 I-0.0672 J-0.2849
G2 X-18.3281 Y34.8594 I-0.2424 J-0.158
G1 Y20.3047
G1 F150.0 Z-2.0
G2 F500.0 X-18.375 Y20.1406 I-0.2891 J-0.0061
G2 X-18.5391 Y20.0234 I-0.2771 J0.2145
G2 X-18.8555 Y19.9648 I-0.5184 J1.916
G2 X-19.3242 Y19.9297 I-0.4323 J2.6219
G2 X-19.8164 Y19.9648 I-0.0442 J2.8445
G2 X-20.1211 Y20.0234 I0.2184 J1.9569
G2 X-20.2852 Y20.1406 I0.113 J0.3317
G2 X-20.332 Y20.3047 I0.2424 J0.158
G1 Y27.0313
G1 X-27.2344
G1 Y20.3047
G2 X-27.2813 Y20.1406 I-0.2891 J-0.0061
G2 X-27.4453 Y20.0234 I-0.2771 J0.2145
G2 X-27.7617 Y19.9648 I-0.5184 J1.916
G2 X-28.2422 Y19.9297 I-0.4401 J2.7137
G2 X-28.7227 Y19.9648 I-0.0329 J2.8506
G2 X-29.0391 Y20.0234 I0.2034 J1.982
G2 X-29.2031 Y20.1406 I0.113 J0.3317
G2 X-29.25 Y20.3047 I0.2424 J0.158
G1 Y34.8594
G2 X-29.2031 Y35.0234 I0.2891 J0.0061
G2 X-29.0391 Y35.1289 I0.2313 J-0.1794
G2 X-28.7227 Y35.1992 I0.4407 J-1.2361
G2 X-28.2422 Y35.2344 I0.4476 J-2.816
G2 X-27.7617 Y35.1992 I0.0403 J-2.7498
G2 X-27.4453 Y35.1289 I-0.1248 J-1.3088
G2 X-27.2813 Y35.0234 I-0.0672 J-0.2849
G2 X-27.2344 Y34.8594 I-0.2424 J-0.158
G1 Y28.7891
G1 X-20.332
G1 Y34.8594
G2 X-20.2852 Y35.0234 I0.2891 J0.0061
G2 X-20.1211 Y35.1289 I0.2313 J-0.1794
G2 X-19.8164 Y35.1992 I0.4384 J-1.2043
G2 X-19.3242 Y35.2344 I0.4483 J-2.8129
G2 X-18.8555 Y35.1992 I0.0367 J-2.6538
G2 X-18.5391 Y35.1289 I-0.1248 J-1.3088
G2 X-18.375 Y35.0234 I-0.0672 J-0.2849
G2 X-18.3281 Y34.8594 I-0.2424 J-0.158
G1 Y20.3047
G1 F150.0 Z-3.0
G2 F500.0 X-18.375 Y20.1406 I-0.2891 J-0.0061
G2 X-18.5391 Y20.0234 I-0.2771 J0.2145
G2 X-18.8555 Y19.9648 I-0.5184 J1.916
G2 X-19.3242 Y19.9297 I-0.4323 J2.6219
G2 X-19.8164 Y19.9648 I-0.0442 J2.8445
G2 X-20.1211 Y20.0234 I0.2184 J1.9569
G2 X-20.2852 Y20.1406 I0.113 J0.3317
G2 X-20.332 Y20.3047 I0.2424 J0.158
G1 Y27.0313
G1 X-27.2344
G1 Y20.3047
G2 X-27.2813 Y20.1406 I-0.2891 J-0.0061
G2 X-27.4453 Y20.0234 I-0.2771 J0.2145
G2 X-27.7617 Y19.9648 I-0.5184 J1.916
G2 X-28.2422 Y19.9297 I-0.4401 J2.7137
G2 X-28.7227 Y19.9648 I-0.0329 J2.8506
G2 X-29.0391 Y20.0234 I0.2034 J1.982
G2 X-29.2031 Y20.1406 I0.113 J0.3317
G2 X-29.25 Y20.3047 I0.2424 J0.158
G1 Y34.8594
G2 X-29.2031 Y35.0234 I0.2891 J0.0061
G2 X-29.0391 Y35.1289 I0.2313 J-0.1794
G2 X-28.7227 Y35.1992 I0.4407 J-1.2361
G2 X-28.2422 Y35.2344 I0.4476 J-2.816
G2 X-27.7617 Y35.1992 I0.0403 J-2.7498
G2 X-27.4453 Y35.1289 I-0.1248 J-1.3088
G2 X-27.2813 Y35.0234 I-0.0672 J-0.2849
G2 X-27.2344 Y34.8594 I-0.2424 J-0.158
G1 Y28.7891
G1 X-20.332
G1 Y34.8594
G2 X-20.2852 Y35.0234 I0.2891 J0.0061
G2 X-20.1211 Y35.1289 I0.2313 J-0.1794
G2 X-19.8164 Y35.1992 I0.4384 J-1.2043
G2 X-19.3242 Y35.2344 I0.4483 J-2.8129
G2 X-18.8555 Y35.1992 I0.0367 J-2.6538
G2 X-18.5391 Y35.1289 I-0.1248 J-1.3088
G2 X-18.375 Y35.0234 I-0.0672 J-0.2849
G2 X-18.3281 Y34.8594 I-0.2424 J-0.158
G1 Y20.3047
G0 Z3.0
G0 X-14.9867 Y21.6537
G1 F150.0 Z-1.0
G2 F500.0 X-15.2344 Y22.9883 I3.1649 J1.2777
G2 X-14.8711 Y24.5352 I3.1562 J0.0749
G2 X-13.8281 Y25.625 I2.6366 J-1.4792
G2 X-12.1641 Y26.2695 I2.634 J-4.3301
G2 X-9.9492 Y26.4922 I2.1135 J-9.896
G1 X-8.4961
G1 Y27.3125
G3 X-8.625 Y28.3906 I-4.1046 J0.056
G3 X-9.0469 Y29.1641 I-1.7193 J-0.436
G3 X-9.7852 Y29.6328 I-1.2354 J-1.1299
G3 X-10.9102 Y29.7969 I-1.0461 J-3.2337
G3 X-12.1992 Y29.6211 I-0.0547 J-4.4133
G3 X-13.1953 Y29.2461 I1.7373 J-6.125
G3 X-13.9102 Y28.8711 I3.5396 J-7.6162
G2 X-14.332 Y28.707 I-0.5862 J0.8829
G2 X-14.4961 Y28.7539 I-0.0061 J0.2891
G2 X-14.625 Y28.8945 I0.2662 J0.3734
G2 X-14.6953 Y29.1289 I0.7635 J0.3568
G2 X-14.7188 Y29.457 I2.1423 J0.3179
G2 X-14.6836 Y29.9141 I2.3856 J0.0464
G2 X-14.4844 Y30.2422 I0.7055 J-0.2038
G2 X-13.9336 Y30.5938 I1.7377 J-2.1151
G2 X-13.043 Y30.9688 I2.4879 J-4.6637
G2 X-11.9414 Y31.25 I2.3015 J-6.7162
G2 X-10.7344 Y31.3672 I1.2057 J-6.1434
G2 X-8.8008 Y31.1094 I0.1298 J-6.4064
G2 X-7.5117 Y30.3477 I-0.8898 J-2.9773
G2 X-6.7969 Y29.1172 I-2.0604 J-2.0199
G2 X-6.5742 Y27.3945 I-5.8089 J-1.6265
G1 Y20.2813
G2 X-6.668 Y20.0703 I-0.2477 J-0.0162
G2 X-6.9258 Y19.9648 I-0.3765 J0.5526
G2 X-7.4063 Y19.9297 I-0.4274 J2.5401
G2 X-7.8984 Y19.9648 I-0.0442 J2.8445
G2 X-8.1563 Y20.0703 I0.0875 J0.5816
G2 X-8.2383 Y20.2813 I0.1828 J0.1925
G1 Y21.3359
G2 X-9.7852 Y20.1875 I-3.8098 J3.5156
G2 X-11.5781 Y19.7773 I-1.7757 J3.6383
G2 X-13.0898 Y20.0 I-0.0577 J4.8512
G2 X-14.2383 Y20.6211 I0.9445 J3.1188
G2 X-14.9766 Y21.6289 I1.9224 J2.1826
G2 X-14.9867 Y21.6537 I3.1548 J1.3025
G1 F150.0 X-13.137 Y22.375
G3 F500.0 X-12.7383 Y21.7695 I1.6165 J0.6304
G3 X-12.0511 Y21.3913 I1.1595 J1.2932
G3 X-11.2734 Y21.2891 I0.7434 J2.6459
G3 X-9.8672 Y21.6758 I0.0184 J2.6834
G3 X-8.4961 Y22.8594 I-3.2594 J5.1617
G1 Y25.0977
G1 X-10.1484
G3 X-11.5313 Y24.957 I-0.0844 J-6.0397
G3 X-12.5039 Y24.5586 I0.5261 J-2.6706
G3 X-13.0781 Y23.9258 I0.8877 J-1.3825
G3 X-13.2539 Y23.082 I1.7472 J-0.8042
G3 X-13.137 Y22.375 I1.7334 J-0.0766
G1 F150.0 Z-2.0
G3 F500.0 X-12.7383 Y21.7695 I1.6165 J0.6304
G3 X-12.0511 Y21.3913 I1.1595 J1.2932
G3 X-11.2734 Y21.2891 I0.7434 J2.6459
G3 X-9.8672 Y21.6758 I0.0184 J2.6834
G3 X-8.4961 Y22.8594 I-3.2594 J5.1617
G1 Y25.0977
G1 X-10.1484
G3 X-11.5313 Y24.957 I-0.0844 J-6.0397
G3 X-12.5039 Y24.5586 I0.5261 J-2.6706
G3 X-13.0781 Y23.9258 I0.8877 J-1.3825
G3 X-13.2539 Y23.082 I1.7472 J-0.8042
G3 X-13.137 Y22.375 I1.7334 J-0.0766
G1 F150.0 X-14.8942 Y21.4577
G2 F500.0 X-14.9766 Y21.6289 I2.5783 J1.346
G2 X-15.2344 Y22.9883 I3.1548 J1.3025
G2 X-14.8711 Y24.5352 I3.1562 J0.0749
G2 X-13.8281 Y25.625 I2.6366 J-1.4792
G2 X-12.1641 Y26.2695 I2.634 J-4.3301
G2 X-9.9492 Y26.4922 I2.1135 J-9.896
G1 X-8.4961
G1 Y27.3125
G3 X-8.625 Y28.3906 I-4.1046 J0.056
G3 X-9.0469 Y29.1641 I-1.7193 J-0.436
G3 X-9.7852 Y29.6328 I-1.2354 J-1.1299
G3 X-10.9102 Y29.7969 I-1.0461 J-3.2337
G3 X-12.1992 Y29.6211 I-0.0547 J-4.4133
G3 X-13.1953 Y29.2461 I1.7373 J-6.125
G3 X-13.9102 Y28.8711 I3.5396 J-7.6162
G2 X-14.332 Y28.707 I-0.5862 J0.8829
G2 X-14.4961 Y28.7539 I-0.0061 J0.2891
G2 X-14.625 Y28.8945 I0.2662 J0.3734
G2 X-14.6953 Y29.1289 I0.7635 J0.3568
G2 X-14.7188 Y29.457 I2.1423 J0.3179
G2 X-14.6836 Y29.9141 I2.3856 J0.0464
G2 X-14.4844 Y30.2422 I0.7055 J-0.2038
G2 X-13.9336 Y30.5938 I1.7377 J-2.1151
G2 X-13.043 Y30.9688 I2.4879 J-4.6637
G2 X-11.9414 Y31.25 I2.3015 J-6.7162
G2 X-10.7344 Y31.3672 I1.2057 J-6.1434
G2 X-8.8008 Y31.1094 I0.1298 J-6.4064
G2 X-7.5117 Y30.3477 I-0.8898 J-2.9773
G2 X-6.7969 Y29.1172 I-2.0604 J-2.0199
G2 X-6.5742 Y27.3945 I-5.8089 J-1.6265
G1 Y20.2813
G2 X-6.668 Y20.0703 I-0.2477 J-0.0162
G2 X-6.9258 Y19.9648 I-0.3765 J0.5526
G2 X-7.4063 Y19.9297 I-0.4274 J2.5401
G2 X-7.8984 Y19.9648 I-0.0442 J2.8445
G2 X-8.1563 Y20.0703 I0.0875 J0.5816
G2 X-8.2383 Y20.2813 I0.1828 J0.1925
G1 Y21.3359
G2 X-9.7852 Y20.1875 I-3.8098 J3.5156
G2 X-11.5781 Y19.7773 I-1.7757 J3.6383
G2 X-13.0898 Y20.0 I-0.0577 J4.8512
G2 X-14.2383 Y20.6211 I0.9445 J3.1188
G2 X-14.8942 Y21.4577 I1.9224 J2.1826
G1 F150.0 Z-3.0
G2 F500.0 X-14.9766 Y21.6289 I2.5783 J1.346
G2 X-15.2344 Y22.9883 I3.1548 J1.3025
G2 X-14.8711 Y24.5352 I3.1562 J0.0749
G2 X-13.8281 Y25.625 I2.6366 J-1.4792
G2 X-12.1641 Y26.2695 I2.634 J-4.3301
G2 X-9.9492 Y26.4922 I2.1135 J-9.896
G1 X-8.4961
G1 Y27.3125
G3 X-8.625 Y28.3906 I-4.1046 J0.056
G3 X-9.0469 Y29.1641 I-1.7193 J-0.436
G3 X-9.7852 Y29.6328 I-1.2354 J-1.1299
G3 X-10.9102 Y29.7969 I-1.0461 J-3.2337
G3 X-12.1992 Y29.6211 I-0.0547 J-4.4133
G3 X-13.1953 Y29.2461 I1.7373 J-6.125
G3 X-13.9102 Y28.8711 I3.5396 J-7.6162
G2 X-14.332 Y28.707 I-0.5862 J0.8829
G2 X-14.4961 Y28.7539 I-0.0061 J0.2891
G2 X-14.625 Y28.8945 I0.2662 J0.3734
G2 X-14.6953 Y29.1289 I0.7635 J0.3568
G2 X-14.7188 Y29.457 I2.1423 J0.3179
G2 X-14.6836 Y29.9141 I2.3856 J0.0464
G2 X-14.4844 Y30.2422 I0.7055 J-0.2038
G2 X-13.9336 Y30.5938 I1.7377 J-2.1151
G2 X-13.043 Y30.9688 I2.4879 J-4.6637
G2 X-11.9414 Y31.25 I2.3015 J-6.7162
G2 X-10.7344 Y31.3672 I1.2057 J-6.1434
G2 X-8.8008 Y31.1094 I0.1298 J-6.4064
G2 X-7.5117 Y30.3477 I-0.8898 J-2.9773
G2 X-6.7969 Y29.1172 I-2.0604 J-2.0199
G2 X-6.5742 Y27.3945 I-5.8089 J-1.6265
G1 Y20.2813
G2 X-6.668 Y20.0703 I-0.2477 J-0.0162
G2 X-6.9258 Y19.9648 I-0.3765 J0.5526
G2 X-7.4063 Y19.9297 I-0.4274 J2.5401
G2 X-7.8984 Y19.9648 I-0.0442 J2.8445
G2 X-8.1563 Y20.0703 I0.0875 J0.5816
G2 X-8.2383 Y20.2813 I0.1828 J0.1925
G1 Y21.3359
G2 X-9.7852 Y20.1875 I-3.8098 J3.5156
G2 X-11.5781 Y19.7773 I-1.7757 J3.6383
G2 X-13.0898 Y20.0 I-0.0577 J4.8512
G2 X-14.2383 Y20.6211 I0.9445 J3.1188
G2 X-14.8942 Y21.4577 I1.9224 J2.1826
G1 F150.0 X-13.0976 Y22.282
G3 F500.0 X-12.7383 Y21.7695 I1.577 J0.7235
G3 X-12.0511 Y21.3913 I1.1595 J1.2932
G3 X-11.2734 Y21.2891 I0.7434 J2.6459
G3 X-9.8672 Y21.6758 I0.0184 J2.6834
G3 X-8.4961 Y22.8594 I-3.2594 J5.1617
G1 Y25.0977
G1 X-10.1484
G3 X-11.5313 Y24.957 I-0.0844 J-6.0397
G3 X-12.5039 Y24.5586 I0.5261 J-2.6706
G3 X-13.0781 Y23.9258 I0.8877 J-1.3825
G3 X-13.2539 Y23.082 I1.7472 J-0.8042
G3 X-13.0976 Y22.282 I1.7334 J-0.0766
G0 Z3.0
G0 X-3.0234
G1 F150.0 Z-1.0
G1 F500.0 Y30.8398
G2 X-2.9883 Y31.0039 I0.3277 J0.0156
G2 X-2.8477 Y31.1211 I0.2374 J-0.1419
G2 X-2.5781 Y31.1797 I0.3076 J-0.7655
G2 X-2.1797 Y31.2031 I0.3703 J-2.8961
G2 X-1.7813 Y31.1797 I0.0357 J-2.7913
G2 X-1.5117 Y31.1211 I-0.0381 J-0.8245
G2 X-1.3711 Y31.0039 I-0.0968 J-0.2592
G2 X-1.3242 Y30.8398 I-0.2133 J-0.1497
G1 Y29.4219
G2 X-0.3984 Y30.2773 I8.0841 J-7.8198
G2 X0.4922 Y30.875 I3.4358 J-4.1576
G2 X1.418 Y31.2383 I1.911 J-3.5087
G2 X2.4258 Y31.3672 I0.9913 J-3.7461
G2 X4.3828 Y30.9219 I0.1128 J-4.0274
G2 X5.6953 Y29.7031 I-1.7432 J-3.1934
G2 X6.4453 Y27.8984 I-4.5058 J-2.9307
G2 X6.6797 Y25.7305 I-9.4328 J-2.1164
G2 X6.375 Y23.2461 I-9.3678 J-0.112
G2 X5.4961 Y21.3711 I-5.2011 J1.2945
G2 X4.0664 Y20.1875 I-3.1697 J2.3734
G2 X2.1094 Y19.7773 I-1.8757 J4.0758
G2 X1.2422 Y19.8711 I-0.0287 J3.7923
G2 X0.457 Y20.1641 I0.7962 J3.3323
G2 X-0.293 Y20.668 I2.2235 J4.1196
G2 X-1.0898 Y21.3828 I7.7292 J9.4178
G1 Y16.1094
G2 X-1.1367 Y15.9453 I-0.2891 J-0.0061
G2 X-1.2891 Y15.8281 I-0.2809 J0.2075
G2 X-1.582 Y15.7578 I-0.4018 J1.0288
G2 X-2.0625 Y15.7344 I-0.4398 J4.0792
G2 X-2.5313 Y15.7578 I-0.0372 J3.9556
G2 X-2.8359 Y15.8281 I0.1341 J1.2765
G2 X-2.9883 Y15.9453 I0.1286 J0.3248
G2 X-3.0234 Y16.1094 I0.3287 J0.1562
G1 Y22.282
G1 F150.0 X-1.0898 Y23.4453
G3 F500.0 X0.4219 Y21.957 I6.6665 J5.2596
G3 X1.9336 Y21.4414 I1.5487 J2.0668
G3 X3.1875 Y21.793 I0.0558 J2.2128
G3 X4.0313 Y22.7305 I-1.4348 J2.1398
G3 X4.5117 Y24.043 I-4.0355 J2.2215
G3 X4.6758 Y25.5078 I-6.4669 J1.4659
G3 X4.5469 Y27.0664 I-9.1909 J0.0245
G3 X4.1133 Y28.4141 I-4.51 J-0.7075
G3 X3.3164 Y29.3516 I-2.2147 J-1.075
G3 X2.0508 Y29.7031 I-1.1874 J-1.8209
G3 X1.3125 Y29.5859 I0.0011 J-2.3908
G3 X0.5625 Y29.2344 I0.8621 J-2.815
G3 X-0.2227 Y28.6016 I2.6319 J-4.069
G3 X-1.0898 Y27.6406 I6.4319 J-6.6761
G1 Y23.4453
G1 F150.0 Z-2.0
G3 F500.0 X0.4219 Y21.957 I6.6665 J5.2596
G3 X1.9336 Y21.4414 I1.5487 J2.0668
G3 X3.1875 Y21.793 I0.0558 J2.2128
G3 X4.0313 Y22.7305 I-1.4348 J2.1398
G3 X4.5117 Y24.043 I-4.0355 J2.2215
G3 X4.6758 Y25.5078 I-6.4669 J1.4659
G3 X4.5469 Y27.0664 I-9.1909 J0.0245
G3 X4.1133 Y28.4141 I-4.51 J-0.7075
G3 X3.3164 Y29.3516 I-2.2147 J-1.075
G3 X2.0508 Y29.7031 I-1.1874 J-1.8209
G3 X1.3125 Y29.5859 I0.0011 J-2.3908
G3 X0.5625 Y29.2344 I0.8621 J-2.815
G3 X-0.2227 Y28.6016 I2.6319 J-4.069
G3 X-1.0898 Y27.6406 I6.4319 J-6.6761
G1 Y23.4453
G1 F150.0 X-3.0234
G1 F500.0 Y30.8398
G2 X-2.9883 Y31.0039 I0.3277 J0.0156
G2 X-2.8477 Y31.1211 I0.2374 J-0.1419
G2 X-2.5781 Y31.1797 I0.3076 J-0.7655
G2 X-2.1797 Y31.2031 I0.3703 J-2.8961
G2 X-1.7813 Y31.1797 I0.0357 J-2.7913
G2 X-1.5117 Y31.1211 I-0.0381 J-0.8245
G2 X-1.3711 Y31.0039 I-0.0968 J-0.2592
G2 X-1.3242 Y30.8398 I-0.2133 J-0.1497
G1 Y29.4219
G2 X-0.3984 Y30.2773 I8.0841 J-7.8198
G2 X0.4922 Y30.875 I3.4358 J-4.1576
G2 X1.418 Y31.2383 I1.911 J-3.5087
G2 X2.4258 Y31.3672 I0.9913 J-3.7461
G2 X4.3828 Y30.9219 I0.1128 J-4.0274
G2 X5.6953 Y29.7031 I-1.7432 J-3.1934
G2 X6.4453 Y27.8984 I-4.5058 J-2.9307
G2 X6.6797 Y25.7305 I-9.4328 J-2.1164
G2 X6.375 Y23.2461 I-9.3678 J-0.112
G2 X5.4961 Y21.3711 I-5.2011 J1.2945
G2 X4.0664 Y20.1875 I-3.1697 J2.3734
G2 X2.1094 Y19.7773 I-1.8757 J4.0758
G2 X1.2422 Y19.8711 I-0.0287 J3.7923
G2 X0.457 Y20.1641 I0.7962 J3.3323
G2 X-0.293 Y20.668 I2.2235 J4.1196
G2 X-1.0898 Y21.3828 I7.7292 J9.4178
G1 Y16.1094
G2 X-1.1367 Y15.9453 I-0.2891 J-0.0061
G2 X-1.2891 Y15.8281 I-0.2809 J0.2075
G2 X-1.582 Y15.7578 I-0.4018 J1.0288
G2 X-2.0625 Y15.7344 I-0.4398 J4.0792
G2 X-2.5313 Y15.7578 I-0.0372 J3.9556
G2 X-2.8359 Y15.8281 I0.1341 J1.2765
G2 X-2.9883 Y15.9453 I0.1286 J0.3248
G2 X-3.0234 Y16.1094 I0.3287 J0.1562
G1 Y23.4453
G1 F150.0 Z-3.0
G1 F500.0 Y30.8398
G2 X-2.9883 Y31.0039 I0.3277 J0.0156
G2 X-2.8477 Y31.1211 I0.2374 J-0.1419
G2 X-2.5781 Y31.1797 I0.3076 J-0.7655
G2 X-2.1797 Y31.2031 I0.3703 J-2.8961
G2 X-1.7813 Y31.1797 I0.0357 J-2.7913
G2 X-1.5117 Y31.1211 I-0.0381 J-0.8245
G2 X-1.3711 Y31.0039 I-0.0968 J-0.2592
G2 X-1.3242 Y30.8398 I-0.2133 J-0.1497
G1 Y29.4219
G2 X-0.3984 Y30.2773 I8.0841 J-7.8198
G2 X0.4922 Y30.875 I3.4358 J-4.1576
G2 X1.418 Y31.2383 I1.911 J-3.5087
G2 X2.4258 Y31.3672 I0.9913 J-3.7461
G2 X4.3828 Y30.9219 I0.1128 J-4.0274
G2 X5.6953 Y29.7031 I-1.7432 J-3.1934
G2 X6.4453 Y27.8984 I-4.5058 J-2.9307
G2 X6.6797 Y25.7305 I-9.4328 J-2.1164
G2 X6.375 Y23.2461 I-9.3678 J-0.112
G2 X5.4961 Y21.3711 I-5.2011 J1.2945
G2 X4.0664 Y20.1875 I-3.1697 J2.3734
G2 X2.1094 Y19.7773 I-1.8757 J4.0758
G2 X1.2422 Y19.8711 I-0.0287 J3.7923
G2 X0.457 Y20.1641 I0.7962 J3.3323
G2 X-0.293 Y20.668 I2.2235 J4.1196
G2 X-1.0898 Y21.3828 I7.7292 J9.4178
G1 Y16.1094
G2 X-1.1367 Y15.9453 I-0.2891 J-0.0061
G2 X-1.2891 Y15.8281 I-0.2809 J0.2075
G2 X-1.582 Y15.7578 I-0.4018 J1.0288
G2 X-2.0625 Y15.7344 I-0.4398 J4.0792
G2 X-2.5313 Y15.7578 I-0.0372 J3.9556
G2 X-2.8359 Y15.8281 I0.1341 J1.2765
G2 X-2.9883 Y15.9453 I0.1286 J0.3248
G2 X-3.0234 Y16.1094 I0.3287 J0.1562
G1 Y23.4453
G1 F150.0 X-1.0898
G3 F500.0 X0.4219 Y21.957 I6.6665 J5.2596
G3 X1.9336 Y21.4414 I1.5487 J2.0668
G3 X3.1875 Y21.793 I0.0558 J2.2128
G3 X4.0313 Y22.7305 I-1.4348 J2.1398
G3 X4.5117 Y24.043 I-4.0355 J2.2215
G3 X4.6758 Y25.5078 I-6.4669 J1.4659
G3 X4.5469 Y27.0664 I-9.1909 J0.0245
G3 X4.1133 Y28.4141 I-4.51 J-0.7075
G3 X3.3164 Y29.3516 I-2.2147 J-1.075
G3 X2.0508 Y29.7031 I-1.1874 J-1.8209
G3 X1.3125 Y29.5859 I0.0011 J-2.3908
G3 X0.5625 Y29.2344 I0.8621 J-2.815
G3 X-0.2227 Y28.6016 I2.6319 J-4.069
G3 X-1.0898 Y27.6406 I6.4319 J-6.6761
G1 Y23.4453
G0 Z3.0
G0 X9.5859
G1 F150.0 Z-1.0
G1 F500.0 Y30.8398
G2 X9.6211 Y31.0039 I0.3277 J0.0156
G2 X9.7617 Y31.1211 I0.2374 J-0.1419
G2 X10.0313 Y31.1797 I0.3076 J-0.7655
G2 X10.4297 Y31.2031 I0.3703 J-2.8961
G2 X10.8281 Y31.1797 I0.0357 J-2.7913
G2 X11.0977 Y31.1211 I-0.0381 J-0.8245
G2 X11.2383 Y31.0039 I-0.0968 J-0.2592
G2 X11.2852 Y30.8398 I-0.2133 J-0.1497
G1 Y29.4219
G2 X12.2109 Y30.2773 I8.0841 J-7.8198
G2 X13.1016 Y30.875 I3.4358 J-4.1576
G2 X14.0273 Y31.2383 I1.911 J-3.5087
G2 X15.0352 Y31.3672 I0.9913 J-3.7461
G2 X16.9922 Y30.9219 I0.1128 J-4.0274
G2 X18.3047 Y29.7031 I-1.7432 J-3.1934
G2 X19.0547 Y27.8984 I-4.5058 J-2.9307
G2 X19.2891 Y25.7305 I-9.4328 J-2.1164
G2 X18.9844 Y23.2461 I-9.3678 J-0.112
G2 X18.1055 Y21.3711 I-5.2011 J1.2945
G2 X16.6758 Y20.1875 I-3.1697 J2.3734
G2 X14.7188 Y19.7773 I-1.8757 J4.0758
G2 X13.8516 Y19.8711 I-0.0287 J3.7923
G2 X13.0664 Y20.1641 I0.7962 J3.3323
G2 X12.3164 Y20.668 I2.2235 J4.1196
G2 X11.5195 Y21.3828 I7.7292 J9.4178
G1 Y16.1094
G2 X11.4727 Y15.9453 I-0.2891 J-0.0061
G2 X11.3203 Y15.8281 I-0.2809 J0.2075
G2 X11.0273 Y15.7578 I-0.4018 J1.0288
G2 X10.5469 Y15.7344 I-0.4398 J4.0792
G2 X10.0781 Y15.7578 I-0.0372 J3.9556
G2 X9.7734 Y15.8281 I0.1341 J1.2765
G2 X9.6211 Y15.9453 I0.1286 J0.3248
G2 X9.5859 Y16.1094 I0.3287 J0.1562
G1 Y23.4453
G1 F150.0 X11.5195
G3 F500.0 X13.0313 Y21.957 I6.6665 J5.2596
G3 X14.543 Y21.4414 I1.5487 J2.0668
G3 X15.7969 Y21.793 I0.0558 J2.2128
G3 X16.6406 Y22.7305 I-1.4348 J2.1398
G3 X17.1211 Y24.043 I-4.0355 J2.2215
G3 X17.2852 Y25.5078 I-6.4669 J1.4659
G3 X17.1563 Y27.0664 I-9.1909 J0.0245
G3 X16.7227 Y28.4141 I-4.51 J-0.7075
G3 X15.9258 Y29.3516 I-2.2147 J-1.075
G3 X14.6602 Y29.7031 I-1.1874 J-1.8209
G3 X13.9219 Y29.5859 I0.0011 J-2.3908
G3 X13.1719 Y29.2344 I0.8621 J-2.815
G3 X12.3867 Y28.6016 I2.6319 J-4.069
G3 X11.5195 Y27.6406 I6.4319 J-6.6761
G1 Y23.4453
G1 F150.0 Z-2.0
G3 F500.0 X13.0313 Y21.957 I6.6665 J5.2596
G3 X14.543 Y21.4414 I1.5487 J2.0668
G3 X15.7969 Y21.793 I0.0558 J2.2128
G3 X16.6406 Y22.7305 I-1.4348 J2.1398
G3 X17.1211 Y24.043 I-4.0355 J2.2215
G3 X17.2852 Y25.5078 I-6.4669 J1.4659
G3 X17.1563 Y27.0664 I-9.1909 J0.0245
G3 X16.7227 Y28.4141 I-4.51 J-0.7075
G3 X15.9258 Y29.3516 I-2.2147 J-1.075
G3 X14.6602 Y29.7031 I-1.1874 J-1.8209
G3 X13.9219 Y29.5859 I0.0011 J-2.3908
G3 X13.1719 Y29.2344 I0.8621 J-2.815
G3 X12.3867 Y28.6016 I2.6319 J-4.069
G3 X11.5195 Y27.6406 I6.4319 J-6.6761
G1 Y23.4453
G1 F150.0 X9.5859
G1 F500.0 Y30.8398
G2 X9.6211 Y31.0039 I0.3277 J0.0156
G2 X9.7617 Y31.1211 I0.2374 J-0.1419
G2 X10.0313 Y31.1797 I0.3076 J-0.7655
G2 X10.4297 Y31.2031 I0.3703 J-2.8961
G2 X10.8281 Y31.1797 I0.0357 J-2.7913
G2 X11.0977 Y31.1211 I-0.0381 J-0.8245
G2 X11.2383 Y31.0039 I-0.0968 J-0.2592
G2 X11.2852 Y30.8398 I-0.2133 J-0.1497
G1 Y29.4219
G2 X12.2109 Y30.2773 I8.0841 J-7.8198
G2 X13.1016 Y30.875 I3.4358 J-4.1576
G2 X14.0273 Y31.2383 I1.911 J-3.5087
G2 X15.0352 Y31.3672 I0.9913 J-3.7461
G2 X16.9922 Y30.9219 I0.1128 J-4.0274
G2 X18.3047 Y29.7031 I-1.7432 J-3.1934
G2 X19.0547 Y27.8984 I-4.5058 J-2.9307
G2 X19.2891 Y25.7305 I-9.4328 J-2.1164
G2 X18.9844 Y23.2461 I-9.3678 J-0.112
G2 X18.1055 Y21.3711 I-5.2011 J1.2945
G2 X16.6758 Y20.1875 I-3.1697 J2.3734
G2 X14.7188 Y19.7773 I-1.8757 J4.0758
G2 X13.8516 Y19.8711 I-0.0287 J3.7923
G2 X13.0664 Y20.1641 I0.7962 J3.3323
G2 X12.3164 Y20.668 I2.2235 J4.1196
G2 X11.5195 Y21.3828 I7.7292 J9.4178
G1 Y16.1094
G2 X11.4727 Y15.9453 I-0.2891 J-0.0061
G2 X11.3203 Y15.8281 I-0.2809 J0.2075
G2 X11.0273 Y15.7578 I-0.4018 J1.0288
G2 X10.5469 Y15.7344 I-0.4398 J4.0792
G2 X10.0781 Y15.7578 I-0.0372 J3.9556
G2 X9.7734 Y15.8281 I0.1341 J1.2765
G2 X9.6211 Y15.9453 I0.1286 J0.3248
G2 X9.5859 Y16.1094 I0.3287 J0.1562
G1 Y23.4453
G1 F150.0 Z-3.0
G1 F500.0 Y30.8398
G2 X9.6211 Y31.0039 I0.3277 J0.0156
G2 X9.7617 Y31.1211 I0.2374 J-0.1419
G2 X10.0313 Y31.1797 I0.3076 J-0.7655
G2 X10.4297 Y31.2031 I0.3703 J-2.8961
G2 X10.8281 Y31.1797 I0.0357 J-2.7913
G2 X11.0977 Y31.1211 I-0.0381 J-0.8245
G2 X11.2383 Y31.0039 I-0.0968 J-0.2592
G2 X11.2852 Y30.8398 I-0.2133 J-0.1497
G1 Y29.4219
G2 X12.2109 Y30.2773 I8.0841 J-7.8198
G2 X13.1016 Y30.875 I3.4358 J-4.1576
G2 X14.0273 Y31.2383 I1.911 J-3.5087
G2 X15.0352 Y31.3672 I0.9913 J-3.7461
G2 X16.9922 Y30.9219 I0.1128 J-4.0274
G2 X18.3047 Y29.7031 I-1.7432 J-3.1934
G2 X19.0547 Y27.8984 I-4.5058 J-2.9307
G2 X19.2891 Y25.7305 I-9.4328 J-2.1164
G2 X18.9844 Y23.2461 I-9.3678 J-0.112
G2 X18.1055 Y21.3711 I-5.2011 J1.2945
G2 X16.6758 Y20.1875 I-3.1697 J2.3734
G2 X14.7188 Y19.7773 I-1.8757 J4.0758
G2 X13.8516 Y19.8711 I-0.0287 J3.7923
G2 X13.0664 Y20.1641 I0.7962 J3.3323
G2 X12.3164 Y20.668 I2.2235 J4.1196
G2 X11.5195 Y21.3828 I7.7292 J9.4178
G1 Y16.1094
G2 X11.4727 Y15.9453 I-0.2891 J-0.0061
G2 X11.3203 Y15.8281 I-0.2809 J0.2075
G2 X11.0273 Y15.7578 I-0.4018 J1.0288
G2 X10.5469 Y15.7344 I-0.4398 J4.0792
G2 X10.0781 Y15.7578 I-0.0372 J3.9556
G2 X9.7734 Y15.8281 I0.1341 J1.2765
G2 X9.6211 Y15.9453 I0.1286 J0.3248
G2 X9.5859 Y16.1094 I0.3287 J0.1562
G1 Y23.4453
G1 F150.0 X11.5195
G3 F500.0 X13.0313 Y21.957 I6.6665 J5.2596
G3 X14.543 Y21.4414 I1.5487 J2.0668
G3 X15.7969 Y21.793 I0.0558 J2.2128
G3 X16.6406 Y22.7305 I-1.4348 J2.1398
G3 X17.1211 Y24.043 I-4.0355 J2.2215
G3 X17.2852 Y25.5078 I-6.4669 J1.4659
G3 X17.1563 Y27.0664 I-9.1909 J0.0245
G3 X16.7227 Y28.4141 I-4.51 J-0.7075
G3 X15.9258 Y29.3516 I-2.2147 J-1.075
G3 X14.6602 Y29.7031 I-1.1874 J-1.8209
G3 X13.9219 Y29.5859 I0.0011 J-2.3908
G3 X13.1719 Y29.2344 I0.8621 J-2.815
G3 X12.3867 Y28.6016 I2.6319 J-4.069
G3 X11.5195 Y27.6406 I6.4319 J-6.6761
G1 Y23.4453
G0 Z3.0
G0 X22.044 Y27.3736
G1 F150.0 Z-1.0
G1 F500.0 X20.8945 Y30.4531
G2 X20.8008 Y30.8398 I1.1343 J0.4797
G2 X20.8945 Y31.0625 I0.2811 J0.0127
G2 X21.1992 Y31.168 I0.3337 J-0.471
G2 X21.7617 Y31.2031 I0.51 J-3.6424
G2 X22.3125 Y31.1797 I0.055 J-5.1915
G2 X22.6289 Y31.1211 I-0.0336 J-1.0651
G2 X22.793 Y30.9805 I-0.0987 J-0.2811
G2 X22.9102 Y30.7461 I-0.9294 J-0.6112
G1 X25.9219 Y22.2852
G1 X25.957
G1 X28.8633 Y30.793
G2 X29.0273 Y31.0742 I0.5332 J-0.1226
G2 X29.332 Y31.168 I0.359 J-0.6248
G2 X29.9063 Y31.2031 I0.5126 J-3.6649
G2 X30.4453 Y31.168 I0.0449 J-3.4621
G2 X30.75 Y31.0625 I-0.0289 J-0.5764
G2 X30.8555 Y30.8398 I-0.1615 J-0.2128
G2 X30.7852 Y30.4883 I-1.1861 J0.0544
G1 X27.0 Y20.0
G1 X25.5938 Y16.1211
G2 X25.2305 Y15.8398 I-0.4778 J0.242
G2 X24.3633 Y15.7344 I-0.7658 J2.6785
G2 X23.8711 Y15.7695 I-0.0442 J2.8445
G2 X23.5781 Y15.8633 I0.0601 J0.6924
G2 X23.4727 Y16.0508 I0.1505 J0.208
G2 X23.5313 Y16.332 I0.5985 J0.022
G1 X24.9844 Y20.0
G2 X24.7852 Y20.1523 I0.2532 J0.5375
G2 X24.6563 Y20.375 I0.4364 J0.4013
G1 X22.044 Y27.3736
G1 F150.0 Z-2.0
G1 F500.0 X20.8945 Y30.4531
G2 X20.8008 Y30.8398 I1.1343 J0.4797
G2 X20.8945 Y31.0625 I0.2811 J0.0127
G2 X21.1992 Y31.168 I0.3337 J-0.471
G2 X21.7617 Y31.2031 I0.51 J-3.6424
G2 X22.3125 Y31.1797 I0.055 J-5.1915
G2 X22.6289 Y31.1211 I-0.0336 J-1.0651
G2 X22.793 Y30.9805 I-0.0987 J-0.2811
G2 X22.9102 Y30.7461 I-0.9294 J-0.6112
G1 X25.9219 Y22.2852
G1 X25.957
G1 X28.8633 Y30.793
G2 X29.0273 Y31.0742 I0.5332 J-0.1226
G2 X29.332 Y31.168 I0.359 J-0.6248
G2 X29.9063 Y31.2031 I0.5126 J-3.6649
G2 X30.4453 Y31.168 I0.0449 J-3.4621
G2 X30.75 Y31.0625 I-0.0289 J-0.5764
G2 X30.8555 Y30.8398 I-0.1615 J-0.2128
G2 X30.7852 Y30.4883 I-1.1861 J0.0544
G1 X27.0 Y20.0
G1 X25.5938 Y16.1211
G2 X25.2305 Y15.8398 I-0.4778 J0.242
G2 X24.3633 Y15.7344 I-0.7658 J2.6785
G2 X23.8711 Y15.7695 I-0.0442 J2.8445
G2 X23.5781 Y15.8633 I0.0601 J0.6924
G2 X23.4727 Y16.0508 I0.1505 J0.208
G2 X23.5313 Y16.332 I0.5985 J0.022
G1 X24.9844 Y20.0
G2 X24.7852 Y20.1523 I0.2532 J0.5375
G2 X24.6563 Y20.375 I0.4364 J0.4013
G1 X22.044 Y27.3736
G1 F150.0 Z-3.0
G1 F500.0 X20.8945 Y30.4531
G2 X20.8008 Y30.8398 I1.1343 J0.4797
G2 X20.8945 Y31.0625 I0.2811 J0.0127
G2 X21.1992 Y31.168 I0.3337 J-0.471
G2 X21.7617 Y31.2031 I0.51 J-3.6424
G2 X22.3125 Y31.1797 I0.055 J-5.1915
G2 X22.6289 Y31.1211 I-0.0336 J-1.0651
G2 X22.793 Y30.9805 I-0.0987 J-0.2811
G2 X22.9102 Y30.7461 I-0.9294 J-0.6112
G1 X25.9219 Y22.2852
G1 X25.957
G1 X28.8633 Y30.793
G2 X29.0273 Y31.0742 I0.5332 J-0.1226
G2 X29.332 Y31.168 I0.359 J-0.6248
G2 X29.9063 Y31.2031 I0.5126 J-3.6649
G2 X30.4453 Y31.168 I0.0449 J-3.4621
G2 X30.75 Y31.0625 I-0.0289 J-0.5764
G2 X30.8555 Y30.8398 I-0.1615 J-0.2128
G2 X30.7852 Y30.4883 I-1.1861 J0.0544
G1 X27.0 Y20.0
G1 X25.5938 Y16.1211
G2 X25.2305 Y15.8398 I-0.4778 J0.242
G2 X24.3633 Y15.7344 I-0.7658 J2.6785
G2 X23.8711 Y15.7695 I-0.0442 J2.8445
G2 X23.5781 Y15.8633 I0.0601 J0.6924
G2 X23.4727 Y16.0508 I0.1505 J0.208
G2 X23.5313 Y16.332 I0.5985 J0.022
G1 X24.9844 Y20.0
G2 X24.7852 Y20.1523 I0.2532 J0.5375
G2 X24.6563 Y20.375 I0.4364 J0.4013
G1 X22.044 Y27.3736
G0 Z3.0
G0 X16.7864 Y6.215
G1 F150.0 Z-1.0
G2 F500.0 X16.9219 Y6.1719 I-0.266 J-1.0704
G2 X17.0742 Y6.0547 I-0.0732 J-0.2527
G2 X17.1328 Y5.9023 I-0.1752 J-0.1548
G1 Y-9.707
G2 X17.0859 Y-9.8711 I-0.2891 J-0.0061
G2 X16.9453 Y-9.9883 I-0.2374 J0.1419
G2 X16.6875 Y-10.0469 I-0.4193 J1.2484
G2 X16.2891 Y-10.0703 I-0.3703 J2.8961
G2 X15.8789 Y-10.0469 I-0.0322 J3.0369
G2 X15.6094 Y-9.9883 I0.2064 J1.5985
G2 X15.457 Y-9.8711 I0.1286 J0.3248
G2 X15.4102 Y-9.707 I0.2424 J0.158
G1 Y-8.3125
G2 X13.6758 Y-9.7188 I-5.2859 J4.7466
G2 X11.7188 Y-10.2227 I-1.9195 J3.4024
G2 X9.7383 Y-9.7773 I-0.1133 J4.1227
G2 X8.4023 Y-8.5586 I1.8558 J3.3758
G2 X7.6641 Y-6.7539 I4.6663 J2.9623
G2 X7.4297 Y-4.5625 I9.7423 J2.1502
G2 X7.7227 Y-2.1133 I9.4814 J0.108
G2 X8.5898 Y-0.2383 I5.3265 J-1.3255
G2 X10.0078 Y0.9453 I3.0933 J-2.2647
G2 X11.9766 Y1.3672 I1.884 J-3.9874
G2 X13.6641 Y0.957 I0.042 J-3.5038
G2 X15.1875 Y-0.2266 I-2.7954 J-5.1703
G1 Y5.9023
G2 X15.2227 Y6.0547 I0.3359 J0.0027
G2 X15.3867 Y6.1719 I0.2267 J-0.1439
G2 X15.6797 Y6.2422 I0.438 J-1.1793
G2 X16.1484 Y6.2773 I0.4323 J-2.6219
G2 X16.6289 Y6.2422 I0.0403 J-2.7498
G2 X16.7864 Y6.215 I-0.1085 J-1.0976
G0 Z3.0
G0 X20.9041 Y0.3655
G1 F150.0 Z-1.0
G2 F500.0 X21.293 Y0.5938 I1.5757 J-2.2384
G2 X22.1836 Y0.9688 I2.4879 J-4.6637
G2 X23.2852 Y1.25 I2.3015 J-6.7162
G2 X24.4922 Y1.3672 I1.2057 J-6.1434
G2 X26.4258 Y1.1094 I0.1298 J-6.4064
G2 X27.7148 Y0.3477 I-0.8898 J-2.9773
G2 X28.4297 Y-0.8828 I-2.0604 J-2.0199
G2 X28.6523 Y-2.6055 I-5.8089 J-1.6265
G1 Y-9.7188
G2 X28.5586 Y-9.9297 I-0.2477 J-0.0162
G2 X28.3008 Y-10.0352 I-0.3765 J0.5526
G2 X27.8203 Y-10.0703 I-0.4274 J2.5401
G2 X27.3281 Y-10.0352 I-0.0442 J2.8445
G2 X27.0703 Y-9.9297 I0.0875 J0.5816
G2 X26.9883 Y-9.7188 I0.1828 J0.1925
G1 Y-8.6641
G2 X25.4414 Y-9.8125 I-3.8098 J3.5156
G2 X23.6484 Y-10.2227 I-1.7757 J3.6383
G2 X22.1367 Y-10.0 I-0.0577 J4.8512
G2 X20.9883 Y-9.3789 I0.9445 J3.1188
G2 X20.25 Y-8.3711 I1.9224 J2.1826
G2 X19.9922 Y-7.0117 I3.1548 J1.3025
G2 X20.3555 Y-5.4648 I3.1562 J0.0749
G2 X21.3984 Y-4.375 I2.6366 J-1.4792
G2 X23.0625 Y-3.7305 I2.634 J-4.3301
G2 X25.2773 Y-3.5078 I2.1135 J-9.896
G1 X26.7305
G1 Y-2.6875
G3 X26.6016 Y-1.6094 I-4.1046 J0.056
G3 X26.1797 Y-0.8359 I-1.7193 J-0.436
G3 X25.4414 Y-0.3672 I-1.2354 J-1.1299
G3 X24.3164 Y-0.2031 I-1.0461 J-3.2337
G3 X23.0273 Y-0.3789 I-0.0547 J-4.4133
G3 X22.0313 Y-0.7539 I1.7373 J-6.125
G3 X21.3164 Y-1.1289 I3.5396 J-7.6162
G2 X20.8945 Y-1.293 I-0.5862 J0.8829
G2 X20.7305 Y-1.2461 I-0.0061 J0.2891
G2 X20.6016 Y-1.1055 I0.2662 J0.3734
G2 X20.5313 Y-0.8711 I0.7635 J0.3568
G2 X20.5078 Y-0.543 I2.1423 J0.3179
G2 X20.543 Y-0.0859 I2.3856 J0.0464
G2 X20.7422 Y0.2422 I0.7055 J-0.2038
G2 X20.9041 Y0.3655 I1.7377 J-2.1151
G0 Z3.0
G0 X23.1875 Y-5.1956
G1 F150.0 Z-1.0
G3 F500.0 X22.7227 Y-5.4414 I1.0339 J-2.518
G3 X22.1484 Y-6.0742 I0.8877 J-1.3825
G3 X21.9727 Y-6.918 I1.7472 J-0.8042
G3 X22.4883 Y-8.2305 I1.7334 J-0.0766
G3 X23.1754 Y-8.6087 I1.1595 J1.2932
G3 X23.9531 Y-8.7109 I0.7434 J2.6459
G3 X25.3594 Y-8.3242 I0.0184 J2.6834
G3 X26.7305 Y-7.1406 I-3.2594 J5.1617
G1 Y-4.9023
G1 X25.0781
G3 X23.6953 Y-5.043 I-0.0844 J-6.0397
G3 X23.1875 Y-5.1956 I0.5261 J-2.6706
G1 F150.0 Z-2.0
G3 F500.0 X22.7227 Y-5.4414 I1.0339 J-2.518
G3 X22.1484 Y-6.0742 I0.8877 J-1.3825
G3 X21.9727 Y-6.918 I1.7472 J-0.8042
G3 X22.4883 Y-8.2305 I1.7334 J-0.0766
G3 X23.1754 Y-8.6087 I1.1595 J1.2932
G3 X23.9531 Y-8.7109 I0.7434 J2.6459
G3 X25.3594 Y-8.3242 I0.0184 J2.6834
G3 X26.7305 Y-7.1406 I-3.2594 J5.1617
G1 Y-4.9023
G1 X25.0781
G3 X23.6953 Y-5.043 I-0.0844 J-6.0397
G3 X23.1875 Y-5.1956 I0.5261 J-2.6706
G1 F150.0 X22.8461 Y-3.7776
G2 F500.0 X23.0625 Y-3.7305 I1.1863 J-4.9275
G2 X25.2773 Y-3.5078 I2.1135 J-9.896
G1 X26.7305
G1 Y-2.6875
G3 X26.6016 Y-1.6094 I-4.1046 J0.056
G3 X26.1797 Y-0.8359 I-1.7193 J-0.436
G3 X25.4414 Y-0.3672 I-1.2354 J-1.1299
G3 X24.3164 Y-0.2031 I-1.0461 J-3.2337
G3 X23.0273 Y-0.3789 I-0.0547 J-4.4133
G3 X22.0313 Y-0.7539 I1.7373 J-6.125
G3 X21.3164 Y-1.1289 I3.5396 J-7.6162
G2 X20.8945 Y-1.293 I-0.5862 J0.8829
G2 X20.7305 Y-1.2461 I-0.0061 J0.2891
G2 X20.6016 Y-1.1055 I0.2662 J0.3734
G2 X20.5313 Y-0.8711 I0.7635 J0.3568
G2 X20.5078 Y-0.543 I2.1423 J0.3179
G2 X20.543 Y-0.0859 I2.3856 J0.0464
G2 X20.7422 Y0.2422 I0.7055 J-0.2038
G2 X21.293 Y0.5938 I1.7377 J-2.1151
G2 X22.1836 Y0.9688 I2.4879 J-4.6637
G2 X23.2852 Y1.25 I2.3015 J-6.7162
G2 X24.4922 Y1.3672 I1.2057 J-6.1434
G2 X26.4258 Y1.1094 I0.1298 J-6.4064
G2 X27.7148 Y0.3477 I-0.8898 J-2.9773
G2 X28.4297 Y-0.8828 I-2.0604 J-2.0199
G2 X28.6523 Y-2.6055 I-5.8089 J-1.6265
G1 Y-9.7188
G2 X28.5586 Y-9.9297 I-0.2477 J-0.0162
G2 X28.3008 Y-10.0352 I-0.3765 J0.5526
G2 X27.8203 Y-10.0703 I-0.4274 J2.5401
G2 X27.3281 Y-10.0352 I-0.0442 J2.8445
G2 X27.0703 Y-9.9297 I0.0875 J0.5816
G2 X26.9883 Y-9.7188 I0.1828 J0.1925
G1 Y-8.6641
G2 X25.4414 Y-9.8125 I-3.8098 J3.5156
G2 X23.6484 Y-10.2227 I-1.7757 J3.6383
G2 X22.1367 Y-10.0 I-0.0577 J4.8512
G2 X20.9883 Y-9.3789 I0.9445 J3.1188
G2 X20.25 Y-8.3711 I1.9224 J2.1826
G2 X19.9922 Y-7.0117 I3.1548 J1.3025
G2 X20.3555 Y-5.4648 I3.1562 J0.0749
G2 X21.3984 Y-4.375 I2.6366 J-1.4792
G2 X22.8461 Y-3.7776 I2.634 J-4.3301
G1 F150.0 Z-3.0
G2 F500.0 X23.0625 Y-3.7305 I1.1863 J-4.9275
G2 X25.2773 Y-3.5078 I2.1135 J-9.896
G1 X26.7305
G1 Y-2.6875
G3 X26.6016 Y-1.6094 I-4.1046 J0.056
G3 X26.1797 Y-0.8359 I-1.7193 J-0.436
G3 X25.4414 Y-0.3672 I-1.2354 J-1.1299
G3 X24.3164 Y-0.2031 I-1.0461 J-3.2337
G3 X23.0273 Y-0.3789 I-0.0547 J-4.4133
G3 X22.0313 Y-0.7539 I1.7373 J-6.125
G3 X21.3164 Y-1.1289 I3.5396 J-7.6162
G2 X20.8945 Y-1.293 I-0.5862 J0.8829
G2 X20.7305 Y-1.2461 I-0.0061 J0.2891
G2 X20.6016 Y-1.1055 I0.2662 J0.3734
G2 X20.5313 Y-0.8711 I0.7635 J0.3568
G2 X20.5078 Y-0.543 I2.1423 J0.3179
G2 X20.543 Y-0.0859 I2.3856 J0.0464
G2 X20.7422 Y0.2422 I0.7055 J-0.2038
G2 X21.293 Y0.5938 I1.7377 J-2.1151
G2 X22.1836 Y0.9688 I2.4879 J-4.6637
G2 X23.2852 Y1.25 I2.3015 J-6.7162
G2 X24.4922 Y1.3672 I1.2057 J-6.1434
G2 X26.4258 Y1.1094 I0.1298 J-6.4064
G2 X27.7148 Y0.3477 I-0.8898 J-2.9773
G2 X28.4297 Y-0.8828 I-2.0604 J-2.0199
G2 X28.6523 Y-2.6055 I-5.8089 J-1.6265
G1 Y-9.7188
G2 X28.5586 Y-9.9297 I-0.2477 J-0.0162
G2 X28.3008 Y-10.0352 I-0.3765 J0.5526
G2 X27.8203 Y-10.0703 I-0.4274 J2.5401
G2 X27.3281 Y-10.0352 I-0.0442 J2.8445
G2 X27.0703 Y-9.9297 I0.0875 J0.5816
G2 X26.9883 Y-9.7188 I0.1828 J0.1925
G1 Y-8.6641
G2 X25.4414 Y-9.8125 I-3.8098 J3.5156
G2 X23.6484 Y-10.2227 I-1.7757 J3.6383
G2 X22.1367 Y-10.0 I-0.0577 J4.8512
G2 X20.9883 Y-9.3789 I0.9445 J3.1188
G2 X20.25 Y-8.3711 I1.9224 J2.1826
G2 X19.9922 Y-7.0117 I3.1548 J1.3025
G2 X20.3555 Y-5.4648 I3.1562 J0.0749
G2 X21.3984 Y-4.375 I2.6366 J-1.4792
G2 X22.8461 Y-3.7776 I2.634 J-4.3301
G1 F150.0 X23.3235 Y-5.144
G3 F500.0 X22.7227 Y-5.4414 I0.8978 J-2.5696
G3 X22.1484 Y-6.0742 I0.8877 J-1.3825
G3 X21.9727 Y-6.918 I1.7472 J-0.8042
G3 X22.4883 Y-8.2305 I1.7334 J-0.0766
G3 X23.1754 Y-8.6087 I1.1595 J1.2932
G3 X23.9531 Y-8.7109 I0.7434 J2.6459
G3 X25.3594 Y-8.3242 I0.0184 J2.6834
G3 X26.7305 Y-7.1406 I-3.2594 J5.1617
G1 Y-4.9023
G1 X25.0781
G3 X23.6953 Y-5.043 I-0.0844 J-6.0397
G3 X23.3235 Y-5.144 I0.5261 J-2.6706
G0 Z3.0
G0 X15.1875
G1 F150.0 Z-1.0
G1 F500.0 Y-2.2891
G3 X13.6641 Y-0.8125 I-5.9256 J-4.5896
G3 X12.1406 Y-0.2969 I-1.5535 J-2.0817
G3 X10.8867 Y-0.6484 I-0.0649 J-2.1804
G3 X10.043 Y-1.5742 I1.5612 J-2.2703
G3 X9.5742 Y-2.875 I4.1112 J-2.2164
G3 X9.4336 Y-4.3516 I7.6137 J-1.4701
G3 X9.5508 Y-5.9102 I10.2398 J-0.0138
G3 X9.9844 Y-7.2695 I4.659 J0.7372
G3 X10.793 Y-8.2188 I2.3757 J1.2048
G3 X12.0586 Y-8.5703 I1.1874 J1.8209
G3 X12.7969 Y-8.4648 I0.0114 J2.5572
G3 X13.5352 Y-8.1133 I-0.8051 J2.6417
G3 X14.3203 Y-7.4805 I-3.2631 J4.8521
G3 X15.1875 Y-6.5078 I-7.3191 J7.3984
G1 Y-5.144
G1 F150.0 Z-2.0
G1 F500.0 Y-2.2891
G3 X13.6641 Y-0.8125 I-5.9256 J-4.5896
G3 X12.1406 Y-0.2969 I-1.5535 J-2.0817
G3 X10.8867 Y-0.6484 I-0.0649 J-2.1804
G3 X10.043 Y-1.5742 I1.5612 J-2.2703
G3 X9.5742 Y-2.875 I4.1112 J-2.2164
G3 X9.4336 Y-4.3516 I7.6137 J-1.4701
G3 X9.5508 Y-5.9102 I10.2398 J-0.0138
G3 X9.9844 Y-7.2695 I4.659 J0.7372
G3 X10.793 Y-8.2188 I2.3757 J1.2048
G3 X12.0586 Y-8.5703 I1.1874 J1.8209
G3 X12.7969 Y-8.4648 I0.0114 J2.5572
G3 X13.5352 Y-8.1133 I-0.8051 J2.6417
G3 X14.3203 Y-7.4805 I-3.2631 J4.8521
G3 X15.1875 Y-6.5078 I-7.3191 J7.3984
G1 Y-5.144
G1 F150.0 X17.1328
G1 F500.0 Y-9.707
G2 X17.0859 Y-9.8711 I-0.2891 J-0.0061
G2 X16.9453 Y-9.9883 I-0.2374 J0.1419
G2 X16.6875 Y-10.0469 I-0.4193 J1.2484
G2 X16.2891 Y-10.0703 I-0.3703 J2.8961
G2 X15.8789 Y-10.0469 I-0.0322 J3.0369
G2 X15.6094 Y-9.9883 I0.2064 J1.5985
G2 X15.457 Y-9.8711 I0.1286 J0.3248
G2 X15.4102 Y-9.707 I0.2424 J0.158
G1 Y-8.3125
G2 X13.6758 Y-9.7188 I-5.2859 J4.7466
G2 X11.7188 Y-10.2227 I-1.9195 J3.4024
G2 X9.7383 Y-9.7773 I-0.1133 J4.1227
G2 X8.4023 Y-8.5586 I1.8558 J3.3758
G2 X7.6641 Y-6.7539 I4.6663 J2.9623
G2 X7.4297 Y-4.5625 I9.7423 J2.1502
G2 X7.7227 Y-2.1133 I9.4814 J0.108
G2 X8.5898 Y-0.2383 I5.3265 J-1.3255
G2 X10.0078 Y0.9453 I3.0933 J-2.2647
G2 X11.9766 Y1.3672 I1.884 J-3.9874
G2 X13.6641 Y0.957 I0.042 J-3.5038
G2 X15.1875 Y-0.2266 I-2.7954 J-5.1703
G1 Y5.9023
G2 X15.2227 Y6.0547 I0.3359 J0.0027
G2 X15.3867 Y6.1719 I0.2267 J-0.1439
G2 X15.6797 Y6.2422 I0.438 J-1.1793
G2 X16.1484 Y6.2773 I0.4323 J-2.6219
G2 X16.6289 Y6.2422 I0.0403 J-2.7498
G2 X16.9219 Y6.1719 I-0.1085 J-1.0976
G2 X17.0742 Y6.0547 I-0.0732 J-0.2527
G2 X17.1328 Y5.9023 I-0.1752 J-0.1548
G1 Y-5.144
G1 F150.0 Z-3.0
G1 F500.0 Y-9.707
G2 X17.0859 Y-9.8711 I-0.2891 J-0.0061
G2 X16.9453 Y-9.9883 I-0.2374 J0.1419
G2 X16.6875 Y-10.0469 I-0.4193 J1.2484
G2 X16.2891 Y-10.0703 I-0.3703 J2.8961
G2 X15.8789 Y-10.0469 I-0.0322 J3.0369
G2 X15.6094 Y-9.9883 I0.2064 J1.5985
G2 X15.457 Y-9.8711 I0.1286 J0.3248
G2 X15.4102 Y-9.707 I0.2424 J0.158
G1 Y-8.3125
G2 X13.6758 Y-9.7188 I-5.2859 J4.7466
G2 X11.7188 Y-10.2227 I-1.9195 J3.4024
G2 X9.7383 Y-9.7773 I-0.1133 J4.1227
G2 X8.4023 Y-8.5586 I1.8558 J3.3758
G2 X7.6641 Y-6.7539 I4.6663 J2.9623
G2 X7.4297 Y-4.5625 I9.7423 J2.1502
G2 X7.7227 Y-2.1133 I9.4814 J0.108
G2 X8.5898 Y-0.2383 I5.3265 J-1.3255
G2 X10.0078 Y0.9453 I3.0933 J-2.2647
G2 X11.9766 Y1.3672 I1.884 J-3.9874
G2 X13.6641 Y0.957 I0.042 J-3.5038
G2 X15.1875 Y-0.2266 I-2.7954 J-5.1703
G1 Y5.9023
G2 X15.2227 Y6.0547 I0.3359 J0.0027
G2 X15.3867 Y6.1719 I0.2267 J-0.1439
G2 X15.6797 Y6.2422 I0.438 J-1.1793
G2 X16.1484 Y6.2773 I0.4323 J-2.6219
G2 X16.6289 Y6.2422 I0.0403 J-2.7498
G2 X16.9219 Y6.1719 I-0.1085 J-1.0976
G2 X17.0742 Y6.0547 I-0.0732 J-0.2527
G2 X17.1328 Y5.9023 I-0.1752 J-0.1548
G1 Y-5.144
G1 F150.0 X15.1875
G1 F500.0 Y-2.2891
G3 X13.6641 Y-0.8125 I-5.9256 J-4.5896
G3 X12.1406 Y-0.2969 I-1.5535 J-2.0817
G3 X10.8867 Y-0.6484 I-0.0649 J-2.1804
G3 X10.043 Y-1.5742 I1.5612 J-2.2703
G3 X9.5742 Y-2.875 I4.1112 J-2.2164
G3 X9.4336 Y-4.3516 I7.6137 J-1.4701
G3 X9.5508 Y-5.9102 I10.2398 J-0.0138
G3 X9.9844 Y-7.2695 I4.659 J0.7372
G3 X10.793 Y-8.2188 I2.3757 J1.2048
G3 X12.0586 Y-8.5703 I1.1874 J1.8209
G3 X12.7969 Y-8.4648 I0.0114 J2.5572
G3 X13.5352 Y-8.1133 I-0.8051 J2.6417
G3 X14.3203 Y-7.4805 I-3.2631 J4.8521
G3 X15.1875 Y-6.5078 I-7.3191 J7.3984
G1 Y-5.144
G0 Z3.0
G0 X4.5703
G1 F150.0 Z-1.0
G1 F500.0 Y-9.707
G2 X4.5234 Y-9.8711 I-0.2891 J-0.0061
G2 X4.3711 Y-9.9766 I-0.3033 J0.2754
G2 X4.0781 Y-10.0469 I-0.4018 J1.0288
G2 X3.6094 Y-10.0703 I-0.4322 J3.9448
G2 X3.1289 Y-10.0469 I-0.0406 J4.1035
G2 X2.8359 Y-9.9766 I0.1085 J1.0976
G2 X2.6836 Y-9.8711 I0.1509 J0.3807
G2 X2.6367 Y-9.707 I0.2424 J0.158
G1 Y-3.5313
G3 X2.4961 Y-2.0781 I-6.2303 J0.1304
G3 X2.0859 Y-1.1289 I-2.9355 J-0.7052
G3 X1.3828 Y-0.5195 I-1.469 J-0.9847
G3 X0.3984 Y-0.3086 I-0.9375 J-1.9724
G3 X-1.0547 Y-0.8242 I0.0738 J-2.5133
G3 X-2.5781 Y-2.3359 I4.8227 J-6.3835
G1 Y-9.707
G2 X-2.625 Y-9.8711 I-0.2891 J-0.0061
G2 X-2.7773 Y-9.9766 I-0.3033 J0.2754
G2 X-3.0703 Y-10.0469 I-0.4018 J1.0288
G2 X-3.5508 Y-10.0703 I-0.4398 J4.0792
G2 X-4.0195 Y-10.0469 I-0.0372 J3.9556
G2 X-4.3242 Y-9.9766 I0.1341 J1.2765
G2 X-4.4766 Y-9.8711 I0.1509 J0.3807
G2 X-4.5117 Y-9.707 I0.3287 J0.1562
G1 Y5.9492
G2 X-4.4766 Y6.1133 I0.3639 J0.0078
G2 X-4.3242 Y6.2305 I0.2809 J-0.2075
G2 X-4.0195 Y6.3008 I0.4384 J-1.2043
G2 X-3.5508 Y6.3242 I0.4322 J-3.9448
G2 X-3.0703 Y6.3008 I0.0406 J-4.1035
G2 X-2.7773 Y6.2305 I-0.1085 J-1.0976
G2 X-2.625 Y6.1133 I-0.1286 J-0.3248
G2 X-2.5781 Y5.9492 I-0.2424 J-0.158
G1 Y-0.3672
G2 X-0.9023 Y0.9336 I4.5721 J-4.1604
G2 X0.7969 Y1.3672 I1.736 J-3.2567
G2 X2.5664 Y1.0039 I0.1179 J-3.917
G2 X3.7383 Y0.0547 I-1.3296 J-2.8394
G2 X4.3711 Y-1.3516 I-3.0206 J-2.2048
G2 X4.5703 Y-3.2852 I-7.9914 J-1.8004
G1 Y-5.144
G1 F150.0 Z-2.0
G1 F500.0 Y-9.707
G2 X4.5234 Y-9.8711 I-0.2891 J-0.0061
G2 X4.3711 Y-9.9766 I-0.3033 J0.2754
G2 X4.0781 Y-10.0469 I-0.4018 J1.0288
G2 X3.6094 Y-10.0703 I-0.4322 J3.9448
G2 X3.1289 Y-10.0469 I-0.0406 J4.1035
G2 X2.8359 Y-9.9766 I0.1085 J1.0976
G2 X2.6836 Y-9.8711 I0.1509 J0.3807
G2 X2.6367 Y-9.707 I0.2424 J0.158
G1 Y-3.5313
G3 X2.4961 Y-2.0781 I-6.2303 J0.1304
G3 X2.0859 Y-1.1289 I-2.9355 J-0.7052
G3 X1.3828 Y-0.5195 I-1.469 J-0.9847
G3 X0.3984 Y-0.3086 I-0.9375 J-1.9724
G3 X-1.0547 Y-0.8242 I0.0738 J-2.5133
G3 X-2.5781 Y-2.3359 I4.8227 J-6.3835
G1 Y-9.707
G2 X-2.625 Y-9.8711 I-0.2891 J-0.0061
G2 X-2.7773 Y-9.9766 I-0.3033 J0.2754
G2 X-3.0703 Y-10.0469 I-0.4018 J1.0288
G2 X-3.5508 Y-10.0703 I-0.4398 J4.0792
G2 X-4.0195 Y-10.0469 I-0.0372 J3.9556
G2 X-4.3242 Y-9.9766 I0.1341 J1.2765
G2 X-4.4766 Y-9.8711 I0.1509 J0.3807
G2 X-4.5117 Y-9.707 I0.3287 J0.1562
G1 Y5.9492
G2 X-4.4766 Y6.1133 I0.3639 J0.0078
G2 X-4.3242 Y6.2305 I0.2809 J-0.2075
G2 X-4.0195 Y6.3008 I0.4384 J-1.2043
G2 X-3.5508 Y6.3242 I0.4322 J-3.9448
G2 X-3.0703 Y6.3008 I0.0406 J-4.1035
G2 X-2.7773 Y6.2305 I-0.1085 J-1.0976
G2 X-2.625 Y6.1133 I-0.1286 J-0.3248
G2 X-2.5781 Y5.9492 I-0.2424 J-0.158
G1 Y-0.3672
G2 X-0.9023 Y0.9336 I4.5721 J-4.1604
G2 X0.7969 Y1.3672 I1.736 J-3.2567
G2 X2.5664 Y1.0039 I0.1179 J-3.917
G2 X3.7383 Y0.0547 I-1.3296 J-2.8394
G2 X4.3711 Y-1.3516 I-3.0206 J-2.2048
G2 X4.5703 Y-3.2852 I-7.9914 J-1.8004
G1 Y-5.144
G1 F150.0 Z-3.0
G1 F500.0 Y-9.707
G2 X4.5234 Y-9.8711 I-0.2891 J-0.0061
G2 X4.3711 Y-9.9766 I-0.3033 J0.2754
G2 X4.0781 Y-10.0469 I-0.4018 J1.0288
G2 X3.6094 Y-10.0703 I-0.4322 J3.9448
G2 X3.1289 Y-10.0469 I-0.0406 J4.1035
G2 X2.8359 Y-9.9766 I0.1085 J1.0976
G2 X2.6836 Y-9.8711 I0.1509 J0.3807
G2 X2.6367 Y-9.707 I0.2424 J0.158
G1 Y-3.5313
G3 X2.4961 Y-2.0781 I-6.2303 J0.1304
G3 X2.0859 Y-1.1289 I-2.9355 J-0.7052
G3 X1.3828 Y-0.5195 I-1.469 J-0.9847
G3 X0.3984 Y-0.3086 I-0.9375 J-1.9724
G3 X-1.0547 Y-0.8242 I0.0738 J-2.5133
G3 X-2.5781 Y-2.3359 I4.8227 J-6.3835
G1 Y-9.707
G2 X-2.625 Y-9.8711 I-0.2891 J-0.0061
G2 X-2.7773 Y-9.9766 I-0.3033 J0.2754
G2 X-3.0703 Y-10.0469 I-0.4018 J1.0288
G2 X-3.5508 Y-10.0703 I-0.4398 J4.0792
G2 X-4.0195 Y-10.0469 I-0.0372 J3.9556
G2 X-4.3242 Y-9.9766 I0.1341 J1.2765
G2 X-4.4766 Y-9.8711 I0.1509 J0.3807
G2 X-4.5117 Y-9.707 I0.3287 J0.1562
G1 Y5.9492
G2 X-4.4766 Y6.1133 I0.3639 J0.0078
G2 X-4.3242 Y6.2305 I0.2809 J-0.2075
G2 X-4.0195 Y6.3008 I0.4384 J-1.2043
G2 X-3.5508 Y6.3242 I0.4322 J-3.9448
G2 X-3.0703 Y6.3008 I0.0406 J-4.1035
G2 X-2.7773 Y6.2305 I-0.1085 J-1.0976
G2 X-2.625 Y6.1133 I-0.1286 J-0.3248
G2 X-2.5781 Y5.9492 I-0.2424 J-0.158
G1 Y-0.3672
G2 X-0.9023 Y0.9336 I4.5721 J-4.1604
G2 X0.7969 Y1.3672 I1.736 J-3.2567
G2 X2.5664 Y1.0039 I0.1179 J-3.917
G2 X3.7383 Y0.0547 I-1.3296 J-2.8394
G2 X4.3711 Y-1.3516 I-3.0206 J-2.2048
G2 X4.5703 Y-3.2852 I-7.9914 J-1.8004
G1 Y-5.144
G0 Z3.0
G0 X-7.1179 Y-8.4508
G1 F150.0 Z-1.0
G2 F500.0 X-7.0898 Y-8.582 I-0.9884 J-0.2796
G2 X-7.0664 Y-8.9336 I-2.2131 J-0.3241
G2 X-7.1133 Y-9.4727 I-2.5331 J-0.0513
G2 X-7.2539 Y-9.7656 I-0.6093 J0.1122
G2 X-7.5352 Y-9.9414 I-0.6316 J0.6976
G2 X-7.9688 Y-10.0703 I-0.7954 J1.8817
G2 X-8.4727 Y-10.1641 I-1.0658 J4.3273
G2 X-9.0117 Y-10.1992 I-0.5398 J4.1266
G2 X-10.418 Y-9.9883 I-0.0883 J4.2042
G2 X-11.3789 Y-9.332 I0.8021 J2.2062
G2 X-11.9297 Y-8.2188 I2.1919 J1.7773
G2 X-12.0938 Y-6.625 I6.7446 J1.4996
G1 Y-0.4609
G1 X-13.5703
G2 X-13.8516 Y-0.2734 I0.0091 J0.3184
G2 X-13.957 Y0.3359 I1.2772 J0.5349
G2 X-13.9336 Y0.7109 I2.5712 J0.0275
G2 X-13.8516 Y0.957 I1.1257 J-0.2385
G2 X-13.7344 Y1.0977 I0.2592 J-0.0968
G2 X-13.5586 Y1.1445 I0.1746 J-0.3017
G1 X-12.0938
G1 Y3.6523
G2 X-12.0586 Y3.8047 I0.3359 J0.0027
G2 X-11.9063 Y3.9219 I0.2809 J-0.2075
G2 X-11.6016 Y4.0039 I0.4007 J-0.8813
G2 X-11.1328 Y4.0273 I0.4322 J-3.9448
G2 X-10.6523 Y4.0039 I0.0406 J-4.1035
G2 X-10.3594 Y3.9219 I-0.0776 J-0.8411
G2 X-10.207 Y3.8047 I-0.1286 J-0.3248
G2 X-10.1602 Y3.6523 I-0.2224 J-0.1518
G1 Y1.1445
G1 X-7.4531
G2 X-7.2891 Y1.0977 I0.0061 J-0.2891
G2 X-7.1719 Y0.957 I-0.1419 J-0.2374
G2 X-7.0898 Y0.7109 I-0.5728 J-0.3276
G2 X-7.0664 Y0.3359 I-2.5364 J-0.3468
G2 X-7.1719 Y-0.2734 I-1.3828 J-0.0745
G2 X-7.4531 Y-0.4609 I-0.2904 J0.1309
G1 X-10.1602
G1 Y-6.3438
G3 X-10.1008 Y-7.1889 I5.4559 J-0.0415
G3 X-9.8438 Y-7.9961 I2.4299 J0.3292
G3 X-9.3396 Y-8.4315 I0.8949 J0.5266
G3 X-8.6836 Y-8.5469 I0.6176 J1.5892
G3 X-8.2031 Y-8.5 I0.024 J2.2397
G3 X-7.8281 Y-8.3828 I-1.4584 J5.3255
G3 X-7.5469 Y-8.2773 I-2.8349 J7.9875
G2 X-7.3359 Y-8.2188 I0.2325 J-0.4281
G2 X-7.2305 Y-8.2539 I0.0015 J-0.1714
G2 X-7.1484 Y-8.3594 I-0.0642 J-0.1346
G2 X-7.1179 Y-8.4508 I-0.9578 J-0.3711
G0 Z3.0
G0 X-14.9063 Y-0.7188
G1 F150.0 Z-1.0
G2 F500.0 X-15.0469 Y-0.7656 I-0.1272 J0.1471
G2 X-15.2813 Y-0.7188 I0.0362 J0.7902
G3 X-15.5859 Y-0.6133 I-0.7987 J-1.8144
G3 X-15.9609 Y-0.5078 I-1.0488 J-3.0095
G3 X-16.418 Y-0.4609 I-0.4425 J-2.0626
G3 X-16.9922 Y-0.5781 I0.0031 J-1.4808
G3 X-17.5898 Y-0.9648 I0.9668 J-2.1494
G3 X-18.2344 Y-1.6797 I3.4502 J-3.7588
G3 X-18.9844 Y-2.7695 I12.8002 J-9.6117
G1 Y-9.707
G2 X-19.0313 Y-9.8711 I-0.2891 J-0.0061
G2 X-19.1836 Y-9.9766 I-0.3033 J0.2754
G2 X-19.4766 Y-10.0469 I-0.4018 J1.0288
G2 X-19.957 Y-10.0703 I-0.4398 J4.0792
G2 X-20.4258 Y-10.0469 I-0.0372 J3.9556
G2 X-20.7305 Y-9.9766 I0.1341 J1.2765
G2 X-20.8828 Y-9.8711 I0.1509 J0.3807
G2 X-20.918 Y-9.707 I0.3287 J0.1562
G1 Y0.8398
G2 X-20.8828 Y0.9922 I0.2969 J0.0117
G2 X-20.7422 Y1.1094 I0.2374 J-0.1419
G2 X-20.4727 Y1.1797 I0.2967 J-0.5857
G2 X-20.0391 Y1.2031 I0.3942 J-3.2694
G2 X-19.6172 Y1.1797 I0.0363 J-3.156
G2 X-19.3477 Y1.1094 I-0.0136 J-0.6037
G2 X-19.2188 Y0.9922 I-0.1117 J-0.2524
G2 X-19.1719 Y0.8398 I-0.1911 J-0.1422
G1 Y-0.6953
G2 X-18.3633 Y0.3359 I7.3009 J-4.8919
G2 X-17.6367 Y0.957 I3.2496 J-3.0659
G2 X-16.9688 Y1.2734 I1.2106 J-1.6924
G2 X-16.2891 Y1.3672 I0.6846 J-2.4529
G2 X-15.9492 Y1.3438 I-0.0215 J-2.7869
G2 X-15.5391 Y1.2852 I-0.1605 J-2.5884
G2 X-15.1641 Y1.1797 I-0.6685 J-3.0962
G2 X-14.918 Y1.0625 I-0.2371 J-0.8149
G2 X-14.8242 Y0.9453 I-0.1921 J-0.2498
G2 X-14.7891 Y0.8164 I-0.4042 J-0.1795
G2 X-14.7656 Y0.5703 I-0.9882 J-0.2183
G2 X-14.7539 Y0.1484 I-6.0742 J-0.3798
G2 X-14.7656 Y-0.2852 I-6.7542 J-0.0344
G2 X-14.8125 Y-0.5664 I-1.1905 J0.0539
G2 X-14.9063 Y-0.7188 I-0.3987 J0.1404
G1 F150.0 Z-2.0
G2 F500.0 X-15.0469 Y-0.7656 I-0.1272 J0.1471
G2 X-15.2813 Y-0.7188 I0.0362 J0.7902
G3 X-15.5859 Y-0.6133 I-0.7987 J-1.8144
G3 X-15.9609 Y-0.5078 I-1.0488 J-3.0095
G3 X-16.418 Y-0.4609 I-0.4425 J-2.0626
G3 X-16.9922 Y-0.5781 I0.0031 J-1.4808
G3 X-17.5898 Y-0.9648 I0.9668 J-2.1494
G3 X-18.2344 Y-1.6797 I3.4502 J-3.7588
G3 X-18.9844 Y-2.7695 I12.8002 J-9.6117
G1 Y-9.707
G2 X-19.0313 Y-9.8711 I-0.2891 J-0.0061
G2 X-19.1836 Y-9.9766 I-0.3033 J0.2754
G2 X-19.4766 Y-10.0469 I-0.4018 J1.0288
G2 X-19.957 Y-10.0703 I-0.4398 J4.0792
G2 X-20.4258 Y-10.0469 I-0.0372 J3.9556
G2 X-20.7305 Y-9.9766 I0.1341 J1.2765
G2 X-20.8828 Y-9.8711 I0.1509 J0.3807
G2 X-20.918 Y-9.707 I0.3287 J0.1562
G1 Y0.8398
G2 X-20.8828 Y0.9922 I0.2969 J0.0117
G2 X-20.7422 Y1.1094 I0.2374 J-0.1419
G2 X-20.4727 Y1.1797 I0.2967 J-0.5857
G2 X-20.0391 Y1.2031 I0.3942 J-3.2694
G2 X-19.6172 Y1.1797 I0.0363 J-3.156
G2 X-19.3477 Y1.1094 I-0.0136 J-0.6037
G2 X-19.2188 Y0.9922 I-0.1117 J-0.2524
G2 X-19.1719 Y0.8398 I-0.1911 J-0.1422
G1 Y-0.6953
G2 X-18.3633 Y0.3359 I7.3009 J-4.8919
G2 X-17.6367 Y0.957 I3.2496 J-3.0659
G2 X-16.9688 Y1.2734 I1.2106 J-1.6924
G2 X-16.2891 Y1.3672 I0.6846 J-2.4529
G2 X-15.9492 Y1.3438 I-0.0215 J-2.7869
G2 X-15.5391 Y1.2852 I-0.1605 J-2.5884
G2 X-15.1641 Y1.1797 I-0.6685 J-3.0962
G2 X-14.918 Y1.0625 I-0.2371 J-0.8149
G2 X-14.8242 Y0.9453 I-0.1921 J-0.2498
G2 X-14.7891 Y0.8164 I-0.4042 J-0.1795
G2 X-14.7656 Y0.5703 I-0.9882 J-0.2183
G2 X-14.7539 Y0.1484 I-6.0742 J-0.3798
G2 X-14.7656 Y-0.2852 I-6.7542 J-0.0344
G2 X-14.8125 Y-0.5664 I-1.1905 J0.0539
G2 X-14.9063 Y-0.7188 I-0.3987 J0.1404
G1 F150.0 X-13.8516 Y-0.2734
G2 F500.0 X-13.957 Y0.3359 I1.2772 J0.5349
G2 X-13.9336 Y0.7109 I2.5712 J0.0275
G2 X-13.8516 Y0.957 I1.1257 J-0.2385
G2 X-13.7344 Y1.0977 I0.2592 J-0.0968
G2 X-13.5586 Y1.1445 I0.1746 J-0.3017
G1 X-12.0938
G1 Y3.6523
G2 X-12.0586 Y3.8047 I0.3359 J0.0027
G2 X-11.9063 Y3.9219 I0.2809 J-0.2075
G2 X-11.6016 Y4.0039 I0.4007 J-0.8813
G2 X-11.1328 Y4.0273 I0.4322 J-3.9448
G2 X-10.6523 Y4.0039 I0.0406 J-4.1035
G2 X-10.3594 Y3.9219 I-0.0776 J-0.8411
G2 X-10.207 Y3.8047 I-0.1286 J-0.3248
G2 X-10.1602 Y3.6523 I-0.2224 J-0.1518
G1 Y1.1445
G1 X-7.4531
G2 X-7.2891 Y1.0977 I0.0061 J-0.2891
G2 X-7.1719 Y0.957 I-0.1419 J-0.2374
G2 X-7.0898 Y0.7109 I-0.5728 J-0.3276
G2 X-7.0664 Y0.3359 I-2.5364 J-0.3468
G2 X-7.1719 Y-0.2734 I-1.3828 J-0.0745
G2 X-7.4531 Y-0.4609 I-0.2904 J0.1309
G1 X-10.1602
G1 Y-6.3438
G3 X-10.1008 Y-7.1889 I5.4559 J-0.0415
G3 X-9.8438 Y-7.9961 I2.4299 J0.3292
G3 X-9.3396 Y-8.4315 I0.8949 J0.5266
G3 X-8.6836 Y-8.5469 I0.6176 J1.5892
G3 X-8.2031 Y-8.5 I0.024 J2.2397
G3 X-7.8281 Y-8.3828 I-1.4584 J5.3255
G3 X-7.5469 Y-8.2773 I-2.8349 J7.9875
G2 X-7.3359 Y-8.2188 I0.2325 J-0.4281
G2 X-7.2305 Y-8.2539 I0.0015 J-0.1714
G2 X-7.1484 Y-8.3594 I-0.0642 J-0.1346
G2 X-7.0898 Y-8.582 I-0.9578 J-0.3711
G2 X-7.0664 Y-8.9336 I-2.2131 J-0.3241
G2 X-7.1133 Y-9.4727 I-2.5331 J-0.0513
G2 X-7.2539 Y-9.7656 I-0.6093 J0.1122
G2 X-7.5352 Y-9.9414 I-0.6316 J0.6976
G2 X-7.9688 Y-10.0703 I-0.7954 J1.8817
G2 X-8.4727 Y-10.1641 I-1.0658 J4.3273
G2 X-9.0117 Y-10.1992 I-0.5398 J4.1266
G2 X-10.418 Y-9.9883 I-0.0883 J4.2042
G2 X-11.3789 Y-9.332 I0.8021 J2.2062
G2 X-11.9297 Y-8.2188 I2.1919 J1.7773
G2 X-12.0938 Y-6.625 I6.7446 J1.4996
G1 Y-0.4609
G1 X-13.5703
G2 X-13.8516 Y-0.2734 I0.0091 J0.3184
G1 F150.0 Z-3.0
G2 F500.0 X-13.957 Y0.3359 I1.2772 J0.5349
G2 X-13.9336 Y0.7109 I2.5712 J0.0275
G2 X-13.8516 Y0.957 I1.1257 J-0.2385
G2 X-13.7344 Y1.0977 I0.2592 J-0.0968
G2 X-13.5586 Y1.1445 I0.1746 J-0.3017
G1 X-12.0938
G1 Y3.6523
G2 X-12.0586 Y3.8047 I0.3359 J0.0027
G2 X-11.9063 Y3.9219 I0.2809 J-0.2075
G2 X-11.6016 Y4.0039 I0.4007 J-0.8813
G2 X-11.1328 Y4.0273 I0.4322 J-3.9448
G2 X-10.6523 Y4.0039 I0.0406 J-4.1035
G2 X-10.3594 Y3.9219 I-0.0776 J-0.8411
G2 X-10.207 Y3.8047 I-0.1286 J-0.3248
G2 X-10.1602 Y3.6523 I-0.2224 J-0.1518
G1 Y1.1445
G1 X-7.4531
G2 X-7.2891 Y1.0977 I0.0061 J-0.2891
G2 X-7.1719 Y0.957 I-0.1419 J-0.2374
G2 X-7.0898 Y0.7109 I-0.5728 J-0.3276
G2 X-7.0664 Y0.3359 I-2.5364 J-0.3468
G2 X-7.1719 Y-0.2734 I-1.3828 J-0.0745
G2 X-7.4531 Y-0.4609 I-0.2904 J0.1309
G1 X-10.1602
G1 Y-6.3438
G3 X-10.1008 Y-7.1889 I5.4559 J-0.0415
G3 X-9.8438 Y-7.9961 I2.4299 J0.3292
G3 X-9.3396 Y-8.4315 I0.8949 J0.5266
G3 X-8.6836 Y-8.5469 I0.6176 J1.5892
G3 X-8.2031 Y-8.5 I0.024 J2.2397
G3 X-7.8281 Y-8.3828 I-1.4584 J5.3255
G3 X-7.5469 Y-8.2773 I-2.8349 J7.9875
G2 X-7.3359 Y-8.2188 I0.2325 J-0.4281
G2 X-7.2305 Y-8.2539 I0.0015 J-0.1714
G2 X-7.1484 Y-8.3594 I-0.0642 J-0.1346
G2 X-7.0898 Y-8.582 I-0.9578 J-0.3711
G2 X-7.0664 Y-8.9336 I-2.2131 J-0.3241
G2 X-7.1133 Y-9.4727 I-2.5331 J-0.0513
G2 X-7.2539 Y-9.7656 I-0.6093 J0.1122
G2 X-7.5352 Y-9.9414 I-0.6316 J0.6976
G2 X-7.9688 Y-10.0703 I-0.7954 J1.8817
G2 X-8.4727 Y-10.1641 I-1.0658 J4.3273
G2 X-9.0117 Y-10.1992 I-0.5398 J4.1266
G2 X-10.418 Y-9.9883 I-0.0883 J4.2042
G2 X-11.3789 Y-9.332 I0.8021 J2.2062
G2 X-11.9297 Y-8.2188 I2.1919 J1.7773
G2 X-12.0938 Y-6.625 I6.7446 J1.4996
G1 Y-0.4609
G1 X-13.5703
G2 X-13.8516 Y-0.2734 I0.0091 J0.3184
G1 F150.0 X-14.7625 Y-0.2273
G2 F500.0 X-14.7656 Y-0.2852 I-6.7456 J0.3414
G2 X-14.8125 Y-0.5664 I-1.1905 J0.0539
G2 X-14.9063 Y-0.7188 I-0.3987 J0.1404
G2 X-15.0469 Y-0.7656 I-0.1272 J0.1471
G2 X-15.2813 Y-0.7188 I0.0362 J0.7902
G3 X-15.5859 Y-0.6133 I-0.7987 J-1.8144
G3 X-15.9609 Y-0.5078 I-1.0488 J-3.0095
G3 X-16.418 Y-0.4609 I-0.4425 J-2.0626
G3 X-16.9922 Y-0.5781 I0.0031 J-1.4808
G3 X-17.5898 Y-0.9648 I0.9668 J-2.1494
G3 X-18.2344 Y-1.6797 I3.4502 J-3.7588
G3 X-18.9844 Y-2.7695 I12.8002 J-9.6117
G1 Y-9.707
G2 X-19.0313 Y-9.8711 I-0.2891 J-0.0061
G2 X-19.1836 Y-9.9766 I-0.3033 J0.2754
G2 X-19.4766 Y-10.0469 I-0.4018 J1.0288
G2 X-19.957 Y-10.0703 I-0.4398 J4.0792
G2 X-20.4258 Y-10.0469 I-0.0372 J3.9556
G2 X-20.7305 Y-9.9766 I0.1341 J1.2765
G2 X-20.8828 Y-9.8711 I0.1509 J0.3807
G2 X-20.918 Y-9.707 I0.3287 J0.1562
G1 Y0.8398
G2 X-20.8828 Y0.9922 I0.2969 J0.0117
G2 X-20.7422 Y1.1094 I0.2374 J-0.1419
G2 X-20.4727 Y1.1797 I0.2967 J-0.5857
G2 X-20.0391 Y1.2031 I0.3942 J-3.2694
G2 X-19.6172 Y1.1797 I0.0363 J-3.156
G2 X-19.3477 Y1.1094 I-0.0136 J-0.6037
G2 X-19.2188 Y0.9922 I-0.1117 J-0.2524
G2 X-19.1719 Y0.8398 I-0.1911 J-0.1422
G1 Y-0.6953
G2 X-18.3633 Y0.3359 I7.3009 J-4.8919
G2 X-17.6367 Y0.957 I3.2496 J-3.0659
G2 X-16.9688 Y1.2734 I1.2106 J-1.6924
G2 X-16.2891 Y1.3672 I0.6846 J-2.4529
G2 X-15.9492 Y1.3438 I-0.0215 J-2.7869
G2 X-15.5391 Y1.2852 I-0.1605 J-2.5884
G2 X-15.1641 Y1.1797 I-0.6685 J-3.0962
G2 X-14.918 Y1.0625 I-0.2371 J-0.8149
G2 X-14.8242 Y0.9453 I-0.1921 J-0.2498
G2 X-14.7891 Y0.8164 I-0.4042 J-0.1795
G2 X-14.7656 Y0.5703 I-0.9882 J-0.2183
G2 X-14.7539 Y0.1484 I-6.0742 J-0.3798
G2 X-14.7625 Y-0.2273 I-6.7542 J-0.0344
G0 Z3.0
G0 X-24.4922
G1 F150.0 Z-1.0
G1 F500.0 Y-9.707
G2 X-24.5391 Y-9.8711 I-0.2891 J-0.0061
G2 X-24.6914 Y-9.9766 I-0.3033 J0.2754
G2 X-24.9844 Y-10.0469 I-0.4018 J1.0288
G2 X-25.4648 Y-10.0703 I-0.4398 J4.0792
G2 X-25.9336 Y-10.0469 I-0.0372 J3.9556
G2 X-26.2383 Y-9.9766 I0.1341 J1.2765
G2 X-26.3906 Y-9.8711 I0.1509 J0.3807
G2 X-26.4258 Y-9.707 I0.3287 J0.1562
G1 Y0.8398
G2 X-26.3906 Y0.9922 I0.3359 J0.0027
G2 X-26.2383 Y1.1094 I0.2809 J-0.2075
G2 X-25.9336 Y1.1797 I0.4384 J-1.2043
G2 X-25.4648 Y1.2031 I0.4322 J-3.9448
G2 X-24.9844 Y1.1797 I0.0406 J-4.1035
G2 X-24.6914 Y1.1094 I-0.1085 J-1.0976
G2 X-24.5391 Y0.9922 I-0.1286 J-0.3248
G2 X-24.4922 Y0.8398 I-0.2224 J-0.1518
G1 Y-0.2273
G0 Z3.0
G0 X-25.0408 Y3.262
G1 F150.0 Z-1.0
G2 F500.0 X-25.4766 Y3.2305 I-0.406 J2.5824
G2 X-25.9647 Y3.2702 I-0.0292 J2.6607
G2 X-26.4141 Y3.4648 I0.1324 J0.9218
G2 X-26.6184 Y3.9 I0.6424 J0.5671
G2 X-26.6602 Y4.3789 I2.39 J0.4499
G2 X-26.6164 Y4.8655 I2.3929 J0.0299
G2 X-26.4023 Y5.3047 I0.834 J-0.1347
G2 X-25.9488 Y5.5091 I0.5883 J-0.6999
G2 X-25.4531 Y5.5508 I0.4659 J-2.5723
G2 X-24.9685 Y5.5094 I0.0296 J-2.5111
G2 X-24.5273 Y5.3047 I-0.1284 J-0.8546
G2 X-24.313 Y4.8779 I-0.5738 J-0.5554
G2 X-24.2695 Y4.4023 I-2.2567 J-0.4462
G2 X-24.3133 Y3.9157 I-2.3929 J-0.0299
G2 X-24.5273 Y3.4766 I-0.834 J0.1347
G2 X-24.9809 Y3.2722 I-0.5883 J0.6999
G2 X-25.0408 Y3.262 I-0.4659 J2.5723
G1 F150.0 Z-2.0
G2 F500.0 X-25.4766 Y3.2305 I-0.406 J2.5824
G2 X-25.9647 Y3.2702 I-0.0292 J2.6607
G2 X-26.4141 Y3.4648 I0.1324 J0.9218
G2 X-26.6184 Y3.9 I0.6424 J0.5671
G2 X-26.6602 Y4.3789 I2.39 J0.4499
G2 X-26.6164 Y4.8655 I2.3929 J0.0299
G2 X-26.4023 Y5.3047 I0.834 J-0.1347
G2 X-25.9488 Y5.5091 I0.5883 J-0.6999
G2 X-25.4531 Y5.5508 I0.4659 J-2.5723
G2 X-24.9685 Y5.5094 I0.0296 J-2.5111
G2 X-24.5273 Y5.3047 I-0.1284 J-0.8546
G2 X-24.313 Y4.8779 I-0.5738 J-0.5554
G2 X-24.2695 Y4.4023 I-2.2567 J-0.4462
G2 X-24.3133 Y3.9157 I-2.3929 J-0.0299
G2 X-24.5273 Y3.4766 I-0.834 J0.1347
G2 X-24.9809 Y3.2722 I-0.5883 J0.6999
G2 X-25.0408 Y3.262 I-0.4659 J2.5723
G1 F150.0 X-25.1694 Y1.1954
G2 F500.0 X-24.9844 Y1.1797 I-0.2548 J-4.0958
G2 X-24.6914 Y1.1094 I-0.1085 J-1.0976
G2 X-24.5391 Y0.9922 I-0.1286 J-0.3248
G2 X-24.4922 Y0.8398 I-0.2224 J-0.1518
G1 Y-9.707
G2 X-24.5391 Y-9.8711 I-0.2891 J-0.0061
G2 X-24.6914 Y-9.9766 I-0.3033 J0.2754
G2 X-24.9844 Y-10.0469 I-0.4018 J1.0288
G2 X-25.4648 Y-10.0703 I-0.4398 J4.0792
G2 X-25.9336 Y-10.0469 I-0.0372 J3.9556
G2 X-26.2383 Y-9.9766 I0.1341 J1.2765
G2 X-26.3906 Y-9.8711 I0.1509 J0.3807
G2 X-26.4258 Y-9.707 I0.3287 J0.1562
G1 Y0.8398
G2 X-26.3906 Y0.9922 I0.3359 J0.0027
G2 X-26.2383 Y1.1094 I0.2809 J-0.2075
G2 X-25.9336 Y1.1797 I0.4384 J-1.2043
G2 X-25.4648 Y1.2031 I0.4322 J-3.9448
G2 X-25.1694 Y1.1954 I0.0406 J-4.1035
G1 F150.0 Z-3.0
G2 F500.0 X-24.9844 Y1.1797 I-0.2548 J-4.0958
G2 X-24.6914 Y1.1094 I-0.1085 J-1.0976
G2 X-24.5391 Y0.9922 I-0.1286 J-0.3248
G2 X-24.4922 Y0.8398 I-0.2224 J-0.1518
G1 Y-9.707
G2 X-24.5391 Y-9.8711 I-0.2891 J-0.0061
G2 X-24.6914 Y-9.9766 I-0.3033 J0.2754
G2 X-24.9844 Y-10.0469 I-0.4018 J1.0288
G2 X-25.4648 Y-10.0703 I-0.4398 J4.0792
G2 X-25.9336 Y-10.0469 I-0.0372 J3.9556
G2 X-26.2383 Y-9.9766 I0.1341 J1.2765
G2 X-26.3906 Y-9.8711 I0.1509 J0.3807
G2 X-26.4258 Y-9.707 I0.3287 J0.1562
G1 Y0.8398
G2 X-26.3906 Y0.9922 I0.3359 J0.0027
G2 X-26.2383 Y1.1094 I0.2809 J-0.2075
G2 X-25.9336 Y1.1797 I0.4384 J-1.2043
G2 X-25.4648 Y1.2031 I0.4322 J-3.9448
G2 X-25.1694 Y1.1954 I0.0406 J-4.1035
G1 F150.0 X-25.2911 Y3.2349
G2 F500.0 X-25.4766 Y3.2305 I-0.1557 J2.6095
G2 X-25.9647 Y3.2702 I-0.0292 J2.6607
G2 X-26.4141 Y3.4648 I0.1324 J0.9218
G2 X-26.6184 Y3.9 I0.6424 J0.5671
G2 X-26.6602 Y4.3789 I2.39 J0.4499
G2 X-26.6164 Y4.8655 I2.3929 J0.0299
G2 X-26.4023 Y5.3047 I0.834 J-0.1347
G2 X-25.9488 Y5.5091 I0.5883 J-0.6999
G2 X-25.4531 Y5.5508 I0.4659 J-2.5723
G2 X-24.9685 Y5.5094 I0.0296 J-2.5111
G2 X-24.5273 Y5.3047 I-0.1284 J-0.8546
G2 X-24.313 Y4.8779 I-0.5738 J-0.5554
G2 X-24.2695 Y4.4023 I-2.2567 J-0.4462
G2 X-24.3133 Y3.9157 I-2.3929 J-0.0299
G2 X-24.5273 Y3.4766 I-0.834 J0.1347
G2 X-24.9809 Y3.2722 I-0.5883 J0.6999
G2 X-25.2911 Y3.2349 I-0.4659 J2.5723
G0 Z3.0
G0 X-30.3047 Y2.2314
G1 F150.0 Z-1.0
G2 F500.0 X-30.2227 Y1.332 I-4.1624 J-0.8332
G2 X-30.3516 Y0.3008 I-4.0566 J-0.0166
G2 X-30.7383 Y-0.6133 I-3.281 J0.8493
G2 X-31.3711 Y-1.3516 I-2.5427 J1.5391
G2 X-32.2383 Y-1.8906 I-2.1287 J2.4573
G2 X-31.0781 Y-2.3242 I-0.6575 J-3.5281
G2 X-30.1406 Y-3.1094 I-1.6465 J-2.9182
G2 X-29.4961 Y-4.2344 I-2.7694 J-2.3338
G2 X-29.2617 Y-5.6523 I-3.895 J-1.3722
G2 X-29.4492 Y-6.9766 I-4.4907 J-0.0395
G2 X-29.9531 Y-8.0547 I-3.6504 J1.0493
G2 X-30.75 Y-8.8984 I-3.0616 J2.0933
G2 X-31.793 Y-9.5078 I-2.7266 J3.4695
G2 X-33.0352 Y-9.8828 I-2.3636 J5.5847
G2 X-34.5469 Y-10.0 I-1.4289 J8.6239
G1 X-38.5078
G2 X-39.0234 Y-9.8242 I0.0107 J0.8756
G2 X-39.2129 Y-9.5282 I0.3751 J0.4487
G2 X-39.2578 Y-9.1797 I1.1733 J0.3284
G1 Y4.3438
G2 X-39.2137 Y4.6872 I1.2009 J0.0205
G2 X-39.0234 Y4.9766 I0.5303 J-0.1415
G2 X-38.5078 Y5.1641 I0.5296 J-0.6536
G1 X-35.0625
G2 X-33.9403 Y5.112 I0.0442 J-11.1707
G2 X-32.8359 Y4.9063 I-0.558 J-6.0615
G2 X-31.3945 Y4.1563 I-1.0392 J-3.7573
G2 X-30.5156 Y2.9492 I-1.9728 J-2.36
G2 X-30.3047 Y2.2314 I-3.9515 J-1.551
G1 F150.0 X-32.3617 Y1.8014
G3 F500.0 X-32.4492 Y2.1289 I-3.0092 J-0.629
G3 X-32.9297 Y2.8789 I-1.709 J-0.5659
G3 X-33.7852 Y3.3594 I-1.4394 J-1.561
G3 X-35.1797 Y3.5234 I-1.27 J-4.7863
G1 X-37.2539
G1 Y-1.3867
G1 X-34.9688
G3 X-33.7031 Y-1.1875 I0.1091 J3.427
G3 X-32.9063 Y-0.6367 I-0.9272 J2.1934
G3 X-32.4492 Y0.1719 I-1.5817 J1.4275
G3 X-32.2969 Y1.1328 I-2.9375 J0.9582
G3 X-32.3617 Y1.8014 I-3.0739 J0.0396
G0 Z3.0
G0 X-33.4809 Y-3.1305
G1 F150.0 Z-1.0
G3 F500.0 X-34.8516 Y-2.9922 I-1.247 J-5.4954
G1 X-37.2539
G1 Y-8.3359
G1 X-34.3359
G3 X-33.1289 Y-8.1719 I0.068 J4.0217
G3 X-32.2266 Y-7.6914 I-0.797 J2.5844
G3 X-31.6055 Y-6.8828 I-1.4418 J1.7503
G3 X-31.3828 Y-5.7695 I-2.4097 J1.0609
G3 X-31.6055 Y-4.5742 I-3.0073 J0.0582
G3 X-32.2383 Y-3.707 I-2.0321 J-0.8184
G3 X-33.2813 Y-3.1797 I-1.7076 J-2.0822
G3 X-33.4809 Y-3.1305 I-1.4466 J-5.4462
G1 F150.0 Z-2.0
G3 F500.0 X-34.8516 Y-2.9922 I-1.247 J-5.4954
G1 X-37.2539
G1 Y-8.3359
G1 X-34.3359
G3 X-33.1289 Y-8.1719 I0.068 J4.0217
G3 X-32.2266 Y-7.6914 I-0.797 J2.5844
G3 X-31.6055 Y-6.8828 I-1.4418 J1.7503
G3 X-31.3828 Y-5.7695 I-2.4097 J1.0609
G3 X-31.6055 Y-4.5742 I-3.0073 J0.0582
G3 X-32.2383 Y-3.707 I-2.0321 J-0.8184
G3 X-33.2813 Y-3.1797 I-1.7076 J-2.0822
G3 X-33.4809 Y-3.1305 I-1.4466 J-5.4462
G1 F150.0 X-32.2383 Y-1.8906
G2 F500.0 X-31.0781 Y-2.3242 I-0.6575 J-3.5281
G2 X-30.1406 Y-3.1094 I-1.6465 J-2.9182
G2 X-29.4961 Y-4.2344 I-2.7694 J-2.3338
G2 X-29.2617 Y-5.6523 I-3.895 J-1.3722
G2 X-29.4492 Y-6.9766 I-4.4907 J-0.0395
G2 X-29.9531 Y-8.0547 I-3.6504 J1.0493
G2 X-30.75 Y-8.8984 I-3.0616 J2.0933
G2 X-31.793 Y-9.5078 I-2.7266 J3.4695
G2 X-33.0352 Y-9.8828 I-2.3636 J5.5847
G2 X-34.5469 Y-10.0 I-1.4289 J8.6239
G1 X-38.5078
G2 X-39.0234 Y-9.8242 I0.0107 J0.8756
G2 X-39.2129 Y-9.5282 I0.3751 J0.4487
G2 X-39.2578 Y-9.1797 I1.1733 J0.3284
G1 Y4.3438
G2 X-39.2137 Y4.6872 I1.2009 J0.0205
G2 X-39.0234 Y4.9766 I0.5303 J-0.1415
G2 X-38.5078 Y5.1641 I0.5296 J-0.6536
G1 X-35.0625
G2 X-33.9403 Y5.112 I0.0442 J-11.1707
G2 X-32.8359 Y4.9063 I-0.558 J-6.0615
G2 X-31.3945 Y4.1563 I-1.0392 J-3.7573
G2 X-30.5156 Y2.9492 I-1.9728 J-2.36
G2 X-30.2227 Y1.332 I-3.9515 J-1.551
G2 X-30.3516 Y0.3008 I-4.0566 J-0.0166
G2 X-30.7383 Y-0.6133 I-3.281 J0.8493
G2 X-31.3711 Y-1.3516 I-2.5427 J1.5391
G2 X-32.2383 Y-1.8906 I-2.1287 J2.4573
G1 F150.0 X-33.114 Y-0.8302
G3 F500.0 X-32.9063 Y-0.6367 I-1.5163 J1.8361
G3 X-32.4492 Y0.1719 I-1.5817 J1.4275
G3 X-32.2969 Y1.1328 I-2.9375 J0.9582
G3 X-32.4492 Y2.1289 I-3.0739 J0.0396
G3 X-32.9297 Y2.8789 I-1.709 J-0.5659
G3 X-33.7852 Y3.3594 I-1.4394 J-1.561
G3 X-35.1797 Y3.5234 I-1.27 J-4.7863
G1 X-37.2539
G1 Y-1.3867
G1 X-34.9688
G3 X-33.7031 Y-1.1875 I0.1091 J3.427
G3 X-33.114 Y-0.8302 I-0.9272 J2.1934
G1 F150.0 Z-3.0
G3 F500.0 X-32.9063 Y-0.6367 I-1.5163 J1.8361
G3 X-32.4492 Y0.1719 I-1.5817 J1.4275
G3 X-32.2969 Y1.1328 I-2.9375 J0.9582
G3 X-32.4492 Y2.1289 I-3.0739 J0.0396
G3 X-32.9297 Y2.8789 I-1.709 J-0.5659
G3 X-33.7852 Y3.3594 I-1.4394 J-1.561
G3 X-35.1797 Y3.5234 I-1.27 J-4.7863
G1 X-37.2539
G1 Y-1.3867
G1 X-34.9688
G3 X-33.7031 Y-1.1875 I0.1091 J3.427
G3 X-33.114 Y-0.8302 I-0.9272 J2.1934
G1 F150.0 X-32.2383 Y-1.8906
G2 F500.0 X-31.0781 Y-2.3242 I-0.6575 J-3.5281
G2 X-30.1406 Y-3.1094 I-1.6465 J-2.9182
G2 X-29.4961 Y-4.2344 I-2.7694 J-2.3338
G2 X-29.2617 Y-5.6523 I-3.895 J-1.3722
G2 X-29.4492 Y-6.9766 I-4.4907 J-0.0395
G2 X-29.9531 Y-8.0547 I-3.6504 J1.0493
G2 X-30.75 Y-8.8984 I-3.0616 J2.0933
G2 X-31.793 Y-9.5078 I-2.7266 J3.4695
G2 X-33.0352 Y-9.8828 I-2.3636 J5.5847
G2 X-34.5469 Y-10.0 I-1.4289 J8.6239
G1 X-38.5078
G2 X-39.0234 Y-9.8242 I0.0107 J0.8756
G2 X-39.2129 Y-9.5282 I0.3751 J0.4487
G2 X-39.2578 Y-9.1797 I1.1733 J0.3284
G1 Y4.3438
G2 X-39.2137 Y4.6872 I1.2009 J0.0205
G2 X-39.0234 Y4.9766 I0.5303 J-0.1415
G2 X-38.5078 Y5.1641 I0.5296 J-0.6536
G1 X-35.0625
G2 X-33.9403 Y5.112 I0.0442 J-11.1707
G2 X-32.8359 Y4.9063 I-0.558 J-6.0615
G2 X-31.3945 Y4.1563 I-1.0392 J-3.7573
G2 X-30.5156 Y2.9492 I-1.9728 J-2.36
G2 X-30.2227 Y1.332 I-3.9515 J-1.551
G2 X-30.3516 Y0.3008 I-4.0566 J-0.0166
G2 X-30.7383 Y-0.6133 I-3.281 J0.8493
G2 X-31.3711 Y-1.3516 I-2.5427 J1.5391
G2 X-32.2383 Y-1.8906 I-2.1287 J2.4573
G1 F150.0 X-32.8655 Y-3.3226
G3 F500.0 X-33.2813 Y-3.1797 I-1.0804 J-2.4666
G3 X-34.8516 Y-2.9922 I-1.4466 J-5.4462
G1 X-37.2539
G1 Y-8.3359
G1 X-34.3359
G3 X-33.1289 Y-8.1719 I0.068 J4.0217
G3 X-32.2266 Y-7.6914 I-0.797 J2.5844
G3 X-31.6055 Y-6.8828 I-1.4418 J1.7503
G3 X-31.3828 Y-5.7695 I-2.4097 J1.0609
G3 X-31.6055 Y-4.5742 I-3.0073 J0.0582
G3 X-32.2383 Y-3.707 I-2.0321 J-0.8184
G3 X-32.8655 Y-3.3226 I-1.7076 J-2.0822
G0 Z3.0
G0 X-36.3146 Y-24.8094
G1 F150.0 Z-1.0
G2 F500.0 X-36.0879 Y-24.8711 I-0.1748 J-1.089
G2 X-35.9355 Y-24.9883 I-0.0857 J-0.269
G2 X-35.8887 Y-25.1406 I-0.2224 J-0.1518
G2 X-35.9707 Y-25.4453 I-0.6391 J0.0087
G2 X-36.252 Y-25.8672 I-2.251 J1.196
G1 X-41.2793 Y-31.8789
G1 X-35.8652 Y-39.0742
G2 X-35.6309 Y-39.4961 I-1.9378 J-1.3526
G2 X-35.584 Y-39.6719 I-0.4203 J-0.2062
G2 X-35.6309 Y-39.8477 I-0.3486 J-0.0012
G2 X-35.7832 Y-39.9648 I-0.238 J0.1518
G2 X-36.0996 Y-40.0352 I-0.4407 J1.2361
G2 X-36.6152 Y-40.0703 I-0.4709 J3.1078
G2 X-37.2832 Y-40.0352 I-0.0586 J5.2502
G2 X-37.6699 Y-39.9063 I0.0799 J0.8843
G2 X-37.8809 Y-39.6953 I0.5234 J0.7343
G1 X-43.459 Y-32.1133
G1 Y-39.6953
G2 X-43.5059 Y-39.8594 I-0.329 J0.0053
G2 X-43.6699 Y-39.9766 I-0.2771 J0.2145
G2 X-43.9863 Y-40.0352 I-0.5184 J1.916
G2 X-44.4668 Y-40.0703 I-0.4401 J2.7137
G2 X-44.9473 Y-40.0352 I-0.0329 J2.8506
G2 X-45.2637 Y-39.9766 I0.2034 J1.982
G2 X-45.4277 Y-39.8594 I0.113 J0.3317
G2 X-45.4746 Y-39.6953 I0.2821 J0.1693
G1 Y-25.1406
G2 X-45.4277 Y-24.9766 I0.2891 J0.0061
G2 X-45.2637 Y-24.8711 I0.2313 J-0.1794
G2 X-44.9473 Y-24.8008 I0.4407 J-1.2361
G2 X-44.4668 Y-24.7656 I0.4476 J-2.816
G2 X-43.9863 Y-24.8008 I0.0403 J-2.7498
G2 X-43.6699 Y-24.8711 I-0.1248 J-1.3088
G2 X-43.5059 Y-24.9766 I-0.0672 J-0.2849
G2 X-43.459 Y-25.1406 I-0.2424 J-0.158
G1 Y-31.8789
G1 X-38.0918 Y-25.1406
G2 X-37.9277 Y-24.9648 I0.5923 J-0.3883
G2 X-37.7051 Y-24.8594 I0.3866 J-0.5285
G2 X-37.377 Y-24.7891 I0.5245 J-1.6471
G2 X-36.873 Y-24.7656 I0.463 J-4.5256
G2 X-36.3809 Y-24.8008 I0.0442 J-2.8445
G2 X-36.3146 Y-24.8094 I-0.1085 J-1.0976
G0 Z3.0
G0 X-33.0071 Y-29.6176
G1 F150.0 Z-1.0
G2 F500.0 X-32.6426 Y-29.4063 I1.5514 J-2.2553
G2 X-31.752 Y-29.0313 I2.4879 J-4.6637
G2 X-30.6504 Y-28.75 I2.3015 J-6.7162
G2 X-29.4434 Y-28.6328 I1.2057 J-6.1434
G2 X-27.5098 Y-28.8906 I0.1298 J-6.4064
G2 X-26.2207 Y-29.6523 I-0.8898 J-2.9773
G2 X-25.5059 Y-30.8828 I-2.0604 J-2.0199
G2 X-25.2832 Y-32.6055 I-5.8089 J-1.6265
G1 Y-39.7188
G2 X-25.377 Y-39.9297 I-0.2477 J-0.0162
G2 X-25.6348 Y-40.0352 I-0.3765 J0.5526
G2 X-26.1152 Y-40.0703 I-0.4274 J2.5401
G2 X-26.6074 Y-40.0352 I-0.0442 J2.8445
G2 X-26.8652 Y-39.9297 I0.0875 J0.5816
G2 X-26.9473 Y-39.7188 I0.1828 J0.1925
G1 Y-38.6641
G2 X-28.4941 Y-39.8125 I-3.8098 J3.5156
G2 X-30.2871 Y-40.2227 I-1.7757 J3.6383
G2 X-31.7988 Y-40.0 I-0.0577 J4.8512
G2 X-32.9473 Y-39.3789 I0.9445 J3.1188
G2 X-33.6855 Y-38.3711 I1.9224 J2.1826
G2 X-33.9434 Y-37.0117 I3.1548 J1.3025
G2 X-33.5801 Y-35.4648 I3.1562 J0.0749
G2 X-32.5371 Y-34.375 I2.6366 J-1.4792
G2 X-30.873 Y-33.7305 I2.634 J-4.3301
G2 X-28.6582 Y-33.5078 I2.1135 J-9.896
G1 X-27.2051
G1 Y-32.6875
G3 X-27.334 Y-31.6094 I-4.1046 J0.056
G3 X-27.7559 Y-30.8359 I-1.7193 J-0.436
G3 X-28.4941 Y-30.3672 I-1.2354 J-1.1299
G3 X-29.6191 Y-30.2031 I-1.0461 J-3.2337
G3 X-30.9082 Y-30.3789 I-0.0547 J-4.4133
G3 X-31.9043 Y-30.7539 I1.7373 J-6.125
G3 X-32.6191 Y-31.1289 I3.5396 J-7.6162
G2 X-33.041 Y-31.293 I-0.5862 J0.8829
G2 X-33.2051 Y-31.2461 I-0.0061 J0.2891
G2 X-33.334 Y-31.1055 I0.2662 J0.3734
G2 X-33.4043 Y-30.8711 I0.7635 J0.3568
G2 X-33.4277 Y-30.543 I2.1423 J0.3179
G2 X-33.3926 Y-30.0859 I2.3856 J0.0464
G2 X-33.1934 Y-29.7578 I0.7055 J-0.2038
G2 X-33.0071 Y-29.6176 I1.7377 J-2.1151
G0 Z3.0
G0 X-36.7622 Y-26.4774
G1 F150.0 Z-2.0
G1 F500.0 X-41.2793 Y-31.8789
G1 X-35.8652 Y-39.0742
G2 X-35.6309 Y-39.4961 I-1.9378 J-1.3526
G2 X-35.584 Y-39.6719 I-0.4203 J-0.2062
G2 X-35.6309 Y-39.8477 I-0.3486 J-0.0012
G2 X-35.7832 Y-39.9648 I-0.238 J0.1518
G2 X-36.0996 Y-40.0352 I-0.4407 J1.2361
G2 X-36.6152 Y-40.0703 I-0.4709 J3.1078
G2 X-37.2832 Y-40.0352 I-0.0586 J5.2502
G2 X-37.6699 Y-39.9063 I0.0799 J0.8843
G2 X-37.8809 Y-39.6953 I0.5234 J0.7343
G1 X-43.459 Y-32.1133
G1 Y-39.6953
G2 X-43.5059 Y-39.8594 I-0.329 J0.0053
G2 X-43.6699 Y-39.9766 I-0.2771 J0.2145
G2 X-43.9863 Y-40.0352 I-0.5184 J1.916
G2 X-44.4668 Y-40.0703 I-0.4401 J2.7137
G2 X-44.9473 Y-40.0352 I-0.0329 J2.8506
G2 X-45.2637 Y-39.9766 I0.2034 J1.982
G2 X-45.4277 Y-39.8594 I0.113 J0.3317
G2 X-45.4746 Y-39.6953 I0.2821 J0.1693
G1 Y-25.1406
G2 X-45.4277 Y-24.9766 I0.2891 J0.0061
G2 X-45.2637 Y-24.8711 I0.2313 J-0.1794
G2 X-44.9473 Y-24.8008 I0.4407 J-1.2361
G2 X-44.4668 Y-24.7656 I0.4476 J-2.816
G2 X-43.9863 Y-24.8008 I0.0403 J-2.7498
G2 X-43.6699 Y-24.8711 I-0.1248 J-1.3088
G2 X-43.5059 Y-24.9766 I-0.0672 J-0.2849
G2 X-43.459 Y-25.1406 I-0.2424 J-0.158
G1 Y-31.8789
G1 X-38.0918 Y-25.1406
G2 X-37.9277 Y-24.9648 I0.5923 J-0.3883
G2 X-37.7051 Y-24.8594 I0.3866 J-0.5285
G2 X-37.377 Y-24.7891 I0.5245 J-1.6471
G2 X-36.873 Y-24.7656 I0.463 J-4.5256
G2 X-36.3809 Y-24.8008 I0.0442 J-2.8445
G2 X-36.0879 Y-24.8711 I-0.1085 J-1.0976
G2 X-35.9355 Y-24.9883 I-0.0857 J-0.269
G2 X-35.8887 Y-25.1406 I-0.2224 J-0.1518
G2 X-35.9707 Y-25.4453 I-0.6391 J0.0087
G2 X-36.252 Y-25.8672 I-2.251 J1.196
G1 X-36.7622 Y-26.4774
G0 Z3.0
G0 X-31.1606 Y-35.4077
G1 F150.0 Z-1.0
G3 F500.0 X-31.2129 Y-35.4414 I1.4464 J-2.3059
G3 X-31.7871 Y-36.0742 I0.8877 J-1.3825
G3 X-31.9629 Y-36.918 I1.7472 J-0.8042
G3 X-31.4473 Y-38.2305 I1.7334 J-0.0766
G3 X-30.7601 Y-38.6087 I1.1595 J1.2932
G3 X-29.9824 Y-38.7109 I0.7434 J2.6459
G3 X-28.5762 Y-38.3242 I0.0184 J2.6834
G3 X-27.2051 Y-37.1406 I-3.2594 J5.1617
G1 Y-34.9023
G1 X-28.8574
G3 X-30.2402 Y-35.043 I-0.0844 J-6.0397
G3 X-31.1606 Y-35.4077 I0.5261 J-2.6706
G1 F150.0 Z-2.0
G3 F500.0 X-31.2129 Y-35.4414 I1.4464 J-2.3059
G3 X-31.7871 Y-36.0742 I0.8877 J-1.3825
G3 X-31.9629 Y-36.918 I1.7472 J-0.8042
G3 X-31.4473 Y-38.2305 I1.7334 J-0.0766
G3 X-30.7601 Y-38.6087 I1.1595 J1.2932
G3 X-29.9824 Y-38.7109 I0.7434 J2.6459
G3 X-28.5762 Y-38.3242 I0.0184 J2.6834
G3 X-27.2051 Y-37.1406 I-3.2594 J5.1617
G1 Y-34.9023
G1 X-28.8574
G3 X-30.2402 Y-35.043 I-0.0844 J-6.0397
G3 X-31.1606 Y-35.4077 I0.5261 J-2.6706
G1 F150.0 X-31.709 Y-33.9695
G2 F500.0 X-30.873 Y-33.7305 I1.8059 J-4.7356
G2 X-28.6582 Y-33.5078 I2.1135 J-9.896
G1 X-27.2051
G1 Y-32.6875
G3 X-27.334 Y-31.6094 I-4.1046 J0.056
G3 X-27.7559 Y-30.8359 I-1.7193 J-0.436
G3 X-28.4941 Y-30.3672 I-1.2354 J-1.1299
G3 X-29.6191 Y-30.2031 I-1.0461 J-3.2337
G3 X-30.9082 Y-30.3789 I-0.0547 J-4.4133
G3 X-31.9043 Y-30.7539 I1.7373 J-6.125
G3 X-32.6191 Y-31.1289 I3.5396 J-7.6162
G2 X-33.041 Y-31.293 I-0.5862 J0.8829
G2 X-33.2051 Y-31.2461 I-0.0061 J0.2891
G2 X-33.334 Y-31.1055 I0.2662 J0.3734
G2 X-33.4043 Y-30.8711 I0.7635 J0.3568
G2 X-33.4277 Y-30.543 I2.1423 J0.3179
G2 X-33.3926 Y-30.0859 I2.3856 J0.0464
G2 X-33.1934 Y-29.7578 I0.7055 J-0.2038
G2 X-32.6426 Y-29.4063 I1.7377 J-2.1151
G2 X-31.752 Y-29.0313 I2.4879 J-4.6637
G2 X-30.6504 Y-28.75 I2.3015 J-6.7162
G2 X-29.4434 Y-28.6328 I1.2057 J-6.1434
G2 X-27.5098 Y-28.8906 I0.1298 J-6.4064
G2 X-26.2207 Y-29.6523 I-0.8898 J-2.9773
G2 X-25.5059 Y-30.8828 I-2.0604 J-2.0199
G2 X-25.2832 Y-32.6055 I-5.8089 J-1.6265
G1 Y-39.7188
G2 X-25.377 Y-39.9297 I-0.2477 J-0.0162
G2 X-25.6348 Y-40.0352 I-0.3765 J0.5526
G2 X-26.1152 Y-40.0703 I-0.4274 J2.5401
G2 X-26.6074 Y-40.0352 I-0.0442 J2.8445
G2 X-26.8652 Y-39.9297 I0.0875 J0.5816
G2 X-26.9473 Y-39.7188 I0.1828 J0.1925
G1 Y-38.6641
G2 X-28.4941 Y-39.8125 I-3.8098 J3.5156
G2 X-30.2871 Y-40.2227 I-1.7757 J3.6383
G2 X-31.7988 Y-40.0 I-0.0577 J4.8512
G2 X-32.9473 Y-39.3789 I0.9445 J3.1188
G2 X-33.6855 Y-38.3711 I1.9224 J2.1826
G2 X-33.9434 Y-37.0117 I3.1548 J1.3025
G2 X-33.5801 Y-35.4648 I3.1562 J0.0749
G2 X-32.5371 Y-34.375 I2.6366 J-1.4792
G2 X-31.709 Y-33.9695 I2.634 J-4.3301
G1 F150.0 Z-3.0
G2 F500.0 X-30.873 Y-33.7305 I1.8059 J-4.7356
G2 X-28.6582 Y-33.5078 I2.1135 J-9.896
G1 X-27.2051
G1 Y-32.6875
G3 X-27.334 Y-31.6094 I-4.1046 J0.056
G3 X-27.7559 Y-30.8359 I-1.7193 J-0.436
G3 X-28.4941 Y-30.3672 I-1.2354 J-1.1299
G3 X-29.6191 Y-30.2031 I-1.0461 J-3.2337
G3 X-30.9082 Y-30.3789 I-0.0547 J-4.4133
G3 X-31.9043 Y-30.7539 I1.7373 J-6.125
G3 X-32.6191 Y-31.1289 I3.5396 J-7.6162
G2 X-33.041 Y-31.293 I-0.5862 J0.8829
G2 X-33.2051 Y-31.2461 I-0.0061 J0.2891
G2 X-33.334 Y-31.1055 I0.2662 J0.3734
G2 X-33.4043 Y-30.8711 I0.7635 J0.3568
G2 X-33.4277 Y-30.543 I2.1423 J0.3179
G2 X-33.3926 Y-30.0859 I2.3856 J0.0464
G2 X-33.1934 Y-29.7578 I0.7055 J-0.2038
G2 X-32.6426 Y-29.4063 I1.7377 J-2.1151
G2 X-31.752 Y-29.0313 I2.4879 J-4.6637
G2 X-30.6504 Y-28.75 I2.3015 J-6.7162
G2 X-29.4434 Y-28.6328 I1.2057 J-6.1434
G2 X-27.5098 Y-28.8906 I0.1298 J-6.4064
G2 X-26.2207 Y-29.6523 I-0.8898 J-2.9773
G2 X-25.5059 Y-30.8828 I-2.0604 J-2.0199
G2 X-25.2832 Y-32.6055 I-5.8089 J-1.6265
G1 Y-39.7188
G2 X-25.377 Y-39.9297 I-0.2477 J-0.0162
G2 X-25.6348 Y-40.0352 I-0.3765 J0.5526
G2 X-26.1152 Y-40.0703 I-0.4274 J2.5401
G2 X-26.6074 Y-40.0352 I-0.0442 J2.8445
G2 X-26.8652 Y-39.9297 I0.0875 J0.5816
G2 X-26.9473 Y-39.7188 I0.1828 J0.1925
G1 Y-38.6641
G2 X-28.4941 Y-39.8125 I-3.8098 J3.5156
G2 X-30.2871 Y-40.2227 I-1.7757 J3.6383
G2 X-31.7988 Y-40.0 I-0.0577 J4.8512
G2 X-32.9473 Y-39.3789 I0.9445 J3.1188
G2 X-33.6855 Y-38.3711 I1.9224 J2.1826
G2 X-33.9434 Y-37.0117 I3.1548 J1.3025
G2 X-33.5801 Y-35.4648 I3.1562 J0.0749
G2 X-32.5371 Y-34.375 I2.6366 J-1.4792
G2 X-31.709 Y-33.9695 I2.634 J-4.3301
G1 F150.0 X-30.9941 Y-35.3113
G3 F500.0 X-31.2129 Y-35.4414 I1.2799 J-2.4023
G3 X-31.7871 Y-36.0742 I0.8877 J-1.3825
G3 X-31.9629 Y-36.918 I1.7472 J-0.8042
G3 X-31.4473 Y-38.2305 I1.7334 J-0.0766
G3 X-30.7601 Y-38.6087 I1.1595 J1.2932
G3 X-29.9824 Y-38.7109 I0.7434 J2.6459
G3 X-28.5762 Y-38.3242 I0.0184 J2.6834
G3 X-27.2051 Y-37.1406 I-3.2594 J5.1617
G1 Y-34.9023
G1 X-28.8574
G3 X-30.2402 Y-35.043 I-0.0844 J-6.0397
G3 X-30.9941 Y-35.3113 I0.5261 J-2.6706
G0 Z3.0
G0 X-35.9121 Y-39.0119
G1 F150.0 Z-3.0
G1 F500.0 X-35.8652 Y-39.0742
G2 X-35.6309 Y-39.4961 I-1.9378 J-1.3526
G2 X-35.584 Y-39.6719 I-0.4203 J-0.2062
G2 X-35.6309 Y-39.8477 I-0.3486 J-0.0012
G2 X-35.7832 Y-39.9648 I-0.238 J0.1518
G2 X-36.0996 Y-40.0352 I-0.4407 J1.2361
G2 X-36.6152 Y-40.0703 I-0.4709 J3.1078
G2 X-37.2832 Y-40.0352 I-0.0586 J5.2502
G2 X-37.6699 Y-39.9063 I0.0799 J0.8843
G2 X-37.8809 Y-39.6953 I0.5234 J0.7343
G1 X-43.459 Y-32.1133
G1 Y-39.6953
G2 X-43.5059 Y-39.8594 I-0.329 J0.0053
G2 X-43.6699 Y-39.9766 I-0.2771 J0.2145
G2 X-43.9863 Y-40.0352 I-0.5184 J1.916
G2 X-44.4668 Y-40.0703 I-0.4401 J2.7137
G2 X-44.9473 Y-40.0352 I-0.0329 J2.8506
G2 X-45.2637 Y-39.9766 I0.2034 J1.982
G2 X-45.4277 Y-39.8594 I0.113 J0.3317
G2 X-45.4746 Y-39.6953 I0.2821 J0.1693
G1 Y-25.1406
G2 X-45.4277 Y-24.9766 I0.2891 J0.0061
G2 X-45.2637 Y-24.8711 I0.2313 J-0.1794
G2 X-44.9473 Y-24.8008 I0.4407 J-1.2361
G2 X-44.4668 Y-24.7656 I0.4476 J-2.816
G2 X-43.9863 Y-24.8008 I0.0403 J-2.7498
G2 X-43.6699 Y-24.8711 I-0.1248 J-1.3088
G2 X-43.5059 Y-24.9766 I-0.0672 J-0.2849
G2 X-43.459 Y-25.1406 I-0.2424 J-0.158
G1 Y-31.8789
G1 X-38.0918 Y-25.1406
G2 X-37.9277 Y-24.9648 I0.5923 J-0.3883
G2 X-37.7051 Y-24.8594 I0.3866 J-0.5285
G2 X-37.377 Y-24.7891 I0.5245 J-1.6471
G2 X-36.873 Y-24.7656 I0.463 J-4.5256
G2 X-36.3809 Y-24.8008 I0.0442 J-2.8445
G2 X-36.0879 Y-24.8711 I-0.1085 J-1.0976
G2 X-35.9355 Y-24.9883 I-0.0857 J-0.269
G2 X-35.8887 Y-25.1406 I-0.2224 J-0.1518
G2 X-35.9707 Y-25.4453 I-0.6391 J0.0087
G2 X-36.252 Y-25.8672 I-2.251 J1.196
G1 X-41.2793 Y-31.8789
G1 X-35.9121 Y-39.0119
G0 Z3.0
G0 X-21.2372 Y-37.4503
G1 F150.0 Z-1.0
G2 F500.0 X-21.2754 Y-36.625 I6.8705 J0.7311
G1 Y-30.4609
G1 X-22.752
G2 X-23.0332 Y-30.2734 I0.0091 J0.3184
G2 X-23.1387 Y-29.6641 I1.2772 J0.5349
G2 X-23.1152 Y-29.2891 I2.5712 J0.0275
G2 X-23.0332 Y-29.043 I1.1257 J-0.2385
G2 X-22.916 Y-28.9023 I0.2592 J-0.0968
G2 X-22.7402 Y-28.8555 I0.1746 J-0.3017
G1 X-21.2754
G1 Y-26.3477
G2 X-21.2402 Y-26.1953 I0.3359 J0.0027
G2 X-21.0879 Y-26.0781 I0.2809 J-0.2075
G2 X-20.7832 Y-25.9961 I0.4007 J-0.8813
G2 X-20.3145 Y-25.9727 I0.4322 J-3.9448
G2 X-19.834 Y-25.9961 I0.0406 J-4.1035
G2 X-19.541 Y-26.0781 I-0.0776 J-0.8411
G2 X-19.3887 Y-26.1953 I-0.1286 J-0.3248
G2 X-19.3418 Y-26.3477 I-0.2224 J-0.1518
G1 Y-28.8555
G1 X-16.6348
G2 X-16.4707 Y-28.9023 I0.0061 J-0.2891
G2 X-16.3535 Y-29.043 I-0.1419 J-0.2374
G2 X-16.2715 Y-29.2891 I-0.5728 J-0.3276
G2 X-16.248 Y-29.6641 I-2.5364 J-0.3468
G2 X-16.3535 Y-30.2734 I-1.3828 J-0.0745
G2 X-16.6348 Y-30.4609 I-0.2904 J0.1309
G1 X-19.3418
G1 Y-36.3438
G3 X-19.2824 Y-37.1889 I5.4559 J-0.0415
G3 X-19.0254 Y-37.9961 I2.4299 J0.3292
G3 X-18.5213 Y-38.4315 I0.8949 J0.5266
G3 X-17.8652 Y-38.5469 I0.6176 J1.5892
G3 X-17.3848 Y-38.5 I0.024 J2.2397
G3 X-17.0098 Y-38.3828 I-1.4584 J5.3255
G3 X-16.7285 Y-38.2773 I-2.8349 J7.9875
G2 X-16.5176 Y-38.2188 I0.2325 J-0.4281
G2 X-16.4121 Y-38.2539 I0.0015 J-0.1714
G2 X-16.3301 Y-38.3594 I-0.0642 J-0.1346
G2 X-16.2715 Y-38.582 I-0.9578 J-0.3711
G2 X-16.248 Y-38.9336 I-2.2131 J-0.3241
G2 X-16.2949 Y-39.4727 I-2.5331 J-0.0513
G2 X-16.4355 Y-39.7656 I-0.6093 J0.1122
G2 X-16.7168 Y-39.9414 I-0.6316 J0.6976
G2 X-17.1504 Y-40.0703 I-0.7954 J1.8817
G2 X-17.6543 Y-40.1641 I-1.0658 J4.3273
G2 X-18.1934 Y-40.1992 I-0.5398 J4.1266
G2 X-19.5996 Y-39.9883 I-0.0883 J4.2042
G2 X-20.5605 Y-39.332 I0.8021 J2.2062
G2 X-21.1113 Y-38.2188 I2.1919 J1.7773
G2 X-21.2372 Y-37.4503 I6.7446 J1.4996
G1 F150.0 Z-2.0
G2 F500.0 X-21.2754 Y-36.625 I6.8705 J0.7311
G1 Y-30.4609
G1 X-22.752
G2 X-23.0332 Y-30.2734 I0.0091 J0.3184
G2 X-23.1387 Y-29.6641 I1.2772 J0.5349
G2 X-23.1152 Y-29.2891 I2.5712 J0.0275
G2 X-23.0332 Y-29.043 I1.1257 J-0.2385
G2 X-22.916 Y-28.9023 I0.2592 J-0.0968
G2 X-22.7402 Y-28.8555 I0.1746 J-0.3017
G1 X-21.2754
G1 Y-26.3477
G2 X-21.2402 Y-26.1953 I0.3359 J0.0027
G2 X-21.0879 Y-26.0781 I0.2809 J-0.2075
G2 X-20.7832 Y-25.9961 I0.4007 J-0.8813
G2 X-20.3145 Y-25.9727 I0.4322 J-3.9448
G2 X-19.834 Y-25.9961 I0.0406 J-4.1035
G2 X-19.541 Y-26.0781 I-0.0776 J-0.8411
G2 X-19.3887 Y-26.1953 I-0.1286 J-0.3248
G2 X-19.3418 Y-26.3477 I-0.2224 J-0.1518
G1 Y-28.8555
G1 X-16.6348
G2 X-16.4707 Y-28.9023 I0.0061 J-0.2891
G2 X-16.3535 Y-29.043 I-0.1419 J-0.2374
G2 X-16.2715 Y-29.2891 I-0.5728 J-0.3276
G2 X-16.248 Y-29.6641 I-2.5364 J-0.3468
G2 X-16.3535 Y-30.2734 I-1.3828 J-0.0745
G2 X-16.6348 Y-30.4609 I-0.2904 J0.1309
G1 X-19.3418
G1 Y-36.3438
G3 X-19.2824 Y-37.1889 I5.4559 J-0.0415
G3 X-19.0254 Y-37.9961 I2.4299 J0.3292
G3 X-18.5213 Y-38.4315 I0.8949 J0.5266
G3 X-17.8652 Y-38.5469 I0.6176 J1.5892
G3 X-17.3848 Y-38.5 I0.024 J2.2397
G3 X-17.0098 Y-38.3828 I-1.4584 J5.3255
G3 X-16.7285 Y-38.2773 I-2.8349 J7.9875
G2 X-16.5176 Y-38.2188 I0.2325 J-0.4281
G2 X-16.4121 Y-38.2539 I0.0015 J-0.1714
G2 X-16.3301 Y-38.3594 I-0.0642 J-0.1346
G2 X-16.2715 Y-38.582 I-0.9578 J-0.3711
G2 X-16.248 Y-38.9336 I-2.2131 J-0.3241
G2 X-16.2949 Y-39.4727 I-2.5331 J-0.0513
G2 X-16.4355 Y-39.7656 I-0.6093 J0.1122
G2 X-16.7168 Y-39.9414 I-0.6316 J0.6976
G2 X-17.1504 Y-40.0703 I-0.7954 J1.8817
G2 X-17.6543 Y-40.1641 I-1.0658 J4.3273
G2 X-18.1934 Y-40.1992 I-0.5398 J4.1266
G2 X-19.5996 Y-39.9883 I-0.0883 J4.2042
G2 X-20.5605 Y-39.332 I0.8021 J2.2062
G2 X-21.1113 Y-38.2188 I2.1919 J1.7773
G2 X-21.2372 Y-37.4503 I6.7446 J1.4996
G1 F150.0 Z-3.0
G2 F500.0 X-21.2754 Y-36.625 I6.8705 J0.7311
G1 Y-30.4609
G1 X-22.752
G2 X-23.0332 Y-30.2734 I0.0091 J0.3184
G2 X-23.1387 Y-29.6641 I1.2772 J0.5349
G2 X-23.1152 Y-29.2891 I2.5712 J0.0275
G2 X-23.0332 Y-29.043 I1.1257 J-0.2385
G2 X-22.916 Y-28.9023 I0.2592 J-0.0968
G2 X-22.7402 Y-28.8555 I0.1746 J-0.3017
G1 X-21.2754
G1 Y-26.3477
G2 X-21.2402 Y-26.1953 I0.3359 J0.0027
G2 X-21.0879 Y-26.0781 I0.2809 J-0.2075
G2 X-20.7832 Y-25.9961 I0.4007 J-0.8813
G2 X-20.3145 Y-25.9727 I0.4322 J-3.9448
G2 X-19.834 Y-25.9961 I0.0406 J-4.1035
G2 X-19.541 Y-26.0781 I-0.0776 J-0.8411
G2 X-19.3887 Y-26.1953 I-0.1286 J-0.3248
G2 X-19.3418 Y-26.3477 I-0.2224 J-0.1518
G1 Y-28.8555
G1 X-16.6348
G2 X-16.4707 Y-28.9023 I0.0061 J-0.2891
G2 X-16.3535 Y-29.043 I-0.1419 J-0.2374
G2 X-16.2715 Y-29.2891 I-0.5728 J-0.3276
G2 X-16.248 Y-29.6641 I-2.5364 J-0.3468
G2 X-16.3535 Y-30.2734 I-1.3828 J-0.0745
G2 X-16.6348 Y-30.4609 I-0.2904 J0.1309
G1 X-19.3418
G1 Y-36.3438
G3 X-19.2824 Y-37.1889 I5.4559 J-0.0415
G3 X-19.0254 Y-37.9961 I2.4299 J0.3292
G3 X-18.5213 Y-38.4315 I0.8949 J0.5266
G3 X-17.8652 Y-38.5469 I0.6176 J1.5892
G3 X-17.3848 Y-38.5 I0.024 J2.2397
G3 X-17.0098 Y-38.3828 I-1.4584 J5.3255
G3 X-16.7285 Y-38.2773 I-2.8349 J7.9875
G2 X-16.5176 Y-38.2188 I0.2325 J-0.4281
G2 X-16.4121 Y-38.2539 I0.0015 J-0.1714
G2 X-16.3301 Y-38.3594 I-0.0642 J-0.1346
G2 X-16.2715 Y-38.582 I-0.9578 J-0.3711
G2 X-16.248 Y-38.9336 I-2.2131 J-0.3241
G2 X-16.2949 Y-39.4727 I-2.5331 J-0.0513
G2 X-16.4355 Y-39.7656 I-0.6093 J0.1122
G2 X-16.7168 Y-39.9414 I-0.6316 J0.6976
G2 X-17.1504 Y-40.0703 I-0.7954 J1.8817
G2 X-17.6543 Y-40.1641 I-1.0658 J4.3273
G2 X-18.1934 Y-40.1992 I-0.5398 J4.1266
G2 X-19.5996 Y-39.9883 I-0.0883 J4.2042
G2 X-20.5605 Y-39.332 I0.8021 J2.2062
G2 X-21.1113 Y-38.2188 I2.1919 J1.7773
G2 X-21.2372 Y-37.4503 I6.7446 J1.4996
G0 Z3.0
G0 X-13.6934
G1 F150.0 Z-1.0
G1 F500.0 Y-24.0508
G2 X-13.6582 Y-23.8867 I0.3639 J0.0078
G2 X-13.5059 Y-23.7695 I0.2809 J-0.2075
G2 X-13.2012 Y-23.6992 I0.4384 J-1.2043
G2 X-12.7324 Y-23.6758 I0.4322 J-3.9448
G2 X-12.252 Y-23.6992 I0.0406 J-4.1035
G2 X-11.959 Y-23.7695 I-0.1085 J-1.0976
G2 X-11.8066 Y-23.8867 I-0.1286 J-0.3248
G2 X-11.7598 Y-24.0508 I-0.2424 J-0.158
G1 Y-30.3672
G2 X-10.084 Y-29.0664 I4.5721 J-4.1604
G2 X-8.3848 Y-28.6328 I1.736 J-3.2567
G2 X-6.6152 Y-28.9961 I0.1179 J-3.917
G2 X-5.4434 Y-29.9453 I-1.3296 J-2.8394
G2 X-4.8105 Y-31.3516 I-3.0206 J-2.2048
G2 X-4.6113 Y-33.2852 I-7.9914 J-1.8004
G1 Y-39.707
G2 X-4.6582 Y-39.8711 I-0.2891 J-0.0061
G2 X-4.8105 Y-39.9766 I-0.3033 J0.2754
G2 X-5.1035 Y-40.0469 I-0.4018 J1.0288
G2 X-5.5723 Y-40.0703 I-0.4322 J3.9448
G2 X-6.0527 Y-40.0469 I-0.0406 J4.1035
G2 X-6.3457 Y-39.9766 I0.1085 J1.0976
G2 X-6.498 Y-39.8711 I0.1509 J0.3807
G2 X-6.5449 Y-39.707 I0.2424 J0.158
G1 Y-33.5313
G3 X-6.6855 Y-32.0781 I-6.2303 J0.1304
G3 X-7.0957 Y-31.1289 I-2.9355 J-0.7052
G3 X-7.7988 Y-30.5195 I-1.469 J-0.9847
G3 X-8.7832 Y-30.3086 I-0.9375 J-1.9724
G3 X-10.2363 Y-30.8242 I0.0738 J-2.5133
G3 X-11.7598 Y-32.3359 I4.8227 J-6.3835
G1 Y-39.707
G2 X-11.8066 Y-39.8711 I-0.2891 J-0.0061
G2 X-11.959 Y-39.9766 I-0.3033 J0.2754
G2 X-12.252 Y-40.0469 I-0.4018 J1.0288
G2 X-12.7324 Y-40.0703 I-0.4398 J4.0792
G2 X-13.2012 Y-40.0469 I-0.0372 J3.9556
G2 X-13.5059 Y-39.9766 I0.1341 J1.2765
G2 X-13.6582 Y-39.8711 I0.1509 J0.3807
G2 X-13.6934 Y-39.707 I0.3287 J0.1562
G1 Y-37.4503
G1 F150.0 Z-2.0
G1 F500.0 Y-24.0508
G2 X-13.6582 Y-23.8867 I0.3639 J0.0078
G2 X-13.5059 Y-23.7695 I0.2809 J-0.2075
G2 X-13.2012 Y-23.6992 I0.4384 J-1.2043
G2 X-12.7324 Y-23.6758 I0.4322 J-3.9448
G2 X-12.252 Y-23.6992 I0.0406 J-4.1035
G2 X-11.959 Y-23.7695 I-0.1085 J-1.0976
G2 X-11.8066 Y-23.8867 I-0.1286 J-0.3248
G2 X-11.7598 Y-24.0508 I-0.2424 J-0.158
G1 Y-30.3672
G2 X-10.084 Y-29.0664 I4.5721 J-4.1604
G2 X-8.3848 Y-28.6328 I1.736 J-3.2567
G2 X-6.6152 Y-28.9961 I0.1179 J-3.917
G2 X-5.4434 Y-29.9453 I-1.3296 J-2.8394
G2 X-4.8105 Y-31.3516 I-3.0206 J-2.2048
G2 X-4.6113 Y-33.2852 I-7.9914 J-1.8004
G1 Y-39.707
G2 X-4.6582 Y-39.8711 I-0.2891 J-0.0061
G2 X-4.8105 Y-39.9766 I-0.3033 J0.2754
G2 X-5.1035 Y-40.0469 I-0.4018 J1.0288
G2 X-5.5723 Y-40.0703 I-0.4322 J3.9448
G2 X-6.0527 Y-40.0469 I-0.0406 J4.1035
G2 X-6.3457 Y-39.9766 I0.1085 J1.0976
G2 X-6.498 Y-39.8711 I0.1509 J0.3807
G2 X-6.5449 Y-39.707 I0.2424 J0.158
G1 Y-33.5313
G3 X-6.6855 Y-32.0781 I-6.2303 J0.1304
G3 X-7.0957 Y-31.1289 I-2.9355 J-0.7052
G3 X-7.7988 Y-30.5195 I-1.469 J-0.9847
G3 X-8.7832 Y-30.3086 I-0.9375 J-1.9724
G3 X-10.2363 Y-30.8242 I0.0738 J-2.5133
G3 X-11.7598 Y-32.3359 I4.8227 J-6.3835
G1 Y-39.707
G2 X-11.8066 Y-39.8711 I-0.2891 J-0.0061
G2 X-11.959 Y-39.9766 I-0.3033 J0.2754
G2 X-12.252 Y-40.0469 I-0.4018 J1.0288
G2 X-12.7324 Y-40.0703 I-0.4398 J4.0792
G2 X-13.2012 Y-40.0469 I-0.0372 J3.9556
G2 X-13.5059 Y-39.9766 I0.1341 J1.2765
G2 X-13.6582 Y-39.8711 I0.1509 J0.3807
G2 X-13.6934 Y-39.707 I0.3287 J0.1562
G1 Y-37.4503
G1 F150.0 Z-3.0
G1 F500.0 Y-24.0508
G2 X-13.6582 Y-23.8867 I0.3639 J0.0078
G2 X-13.5059 Y-23.7695 I0.2809 J-0.2075
G2 X-13.2012 Y-23.6992 I0.4384 J-1.2043
G2 X-12.7324 Y-23.6758 I0.4322 J-3.9448
G2 X-12.252 Y-23.6992 I0.0406 J-4.1035
G2 X-11.959 Y-23.7695 I-0.1085 J-1.0976
G2 X-11.8066 Y-23.8867 I-0.1286 J-0.3248
G2 X-11.7598 Y-24.0508 I-0.2424 J-0.158
G1 Y-30.3672
G2 X-10.084 Y-29.0664 I4.5721 J-4.1604
G2 X-8.3848 Y-28.6328 I1.736 J-3.2567
G2 X-6.6152 Y-28.9961 I0.1179 J-3.917
G2 X-5.4434 Y-29.9453 I-1.3296 J-2.8394
G2 X-4.8105 Y-31.3516 I-3.0206 J-2.2048
G2 X-4.6113 Y-33.2852 I-7.9914 J-1.8004
G1 Y-39.707
G2 X-4.6582 Y-39.8711 I-0.2891 J-0.0061
G2 X-4.8105 Y-39.9766 I-0.3033 J0.2754
G2 X-5.1035 Y-40.0469 I-0.4018 J1.0288
G2 X-5.5723 Y-40.0703 I-0.4322 J3.9448
G2 X-6.0527 Y-40.0469 I-0.0406 J4.1035
G2 X-6.3457 Y-39.9766 I0.1085 J1.0976
G2 X-6.498 Y-39.8711 I0.1509 J0.3807
G2 X-6.5449 Y-39.707 I0.2424 J0.158
G1 Y-33.5313
G3 X-6.6855 Y-32.0781 I-6.2303 J0.1304
G3 X-7.0957 Y-31.1289 I-2.9355 J-0.7052
G3 X-7.7988 Y-30.5195 I-1.469 J-0.9847
G3 X-8.7832 Y-30.3086 I-0.9375 J-1.9724
G3 X-10.2363 Y-30.8242 I0.0738 J-2.5133
G3 X-11.7598 Y-32.3359 I4.8227 J-6.3835
G1 Y-39.707
G2 X-11.8066 Y-39.8711 I-0.2891 J-0.0061
G2 X-11.959 Y-39.9766 I-0.3033 J0.2754
G2 X-12.252 Y-40.0469 I-0.4018 J1.0288
G2 X-12.7324 Y-40.0703 I-0.4398 J4.0792
G2 X-13.2012 Y-40.0469 I-0.0372 J3.9556
G2 X-13.5059 Y-39.9766 I0.1341 J1.2765
G2 X-13.6582 Y-39.8711 I0.1509 J0.3807
G2 X-13.6934 Y-39.707 I0.3287 J0.1562
G1 Y-37.4503
G0 Z3.0
G0 X-1.7076 Y-35.7792
G1 F150.0 Z-1.0
G2 F500.0 X-1.7871 Y-34.4805 I8.3364 J1.1623
G2 X-1.4355 Y-32.043 I7.878 J0.1079
G2 X-0.4277 Y-30.2031 I4.9454 J-1.513
G2 X1.1777 Y-29.043 I3.3099 J-2.8894
G2 X3.2754 Y-28.6328 I2.0237 J-4.7805
G2 X5.3848 Y-29.0313 I0.1335 J-5.0759
G2 X6.8262 Y-30.1094 I-1.5892 J-3.6274
G2 X7.6465 Y-31.6914 I-3.2222 J-2.6744
G2 X7.916 Y-33.625 I-6.4624 J-1.8864
G1 Y-33.9766
G2 X7.8702 Y-34.3302 I-1.2364 J-0.0197
G2 X7.6816 Y-34.6328 I-0.601 J0.1644
G2 X7.1543 Y-34.8203 I-0.5228 J0.6349
G1 X0.2168
G3 X0.3926 Y-36.4023 I6.5657 J-0.0713
G3 X0.9785 Y-37.6094 I2.9806 J0.7012
G3 X2.0449 Y-38.3828 I2.0339 J1.6824
G3 X3.6621 Y-38.6523 I1.5137 J4.096
G3 X4.998 Y-38.5352 I0.068 J6.8985
G3 X6.0176 Y-38.2539 I-1.6454 J7.953
G3 X6.7207 Y-37.9844 I-3.6066 J10.4604
G2 X7.1426 Y-37.8555 I0.5667 J-1.0997
G2 X7.2832 Y-37.9023 I0.0054 J-0.2183
G2 X7.3887 Y-38.0195 I-0.1029 J-0.1986
G2 X7.4473 Y-38.2539 I-0.9814 J-0.3699
G2 X7.4707 Y-38.6055 I-2.2131 J-0.3241
G2 X7.459 Y-38.875 I-2.7601 J-0.015
G2 X7.4238 Y-39.0742 I-1.4991 J0.1618
G2 X7.3652 Y-39.2266 I-0.3608 J0.0513
G2 X7.2598 Y-39.3672 I-0.4911 J0.2584
G2 X6.8848 Y-39.5781 I-1.2916 J1.8573
G2 X6.0645 Y-39.8594 I-2.4329 J5.7592
G2 X4.8926 Y-40.1055 I-2.7548 J10.205
G2 X3.4863 Y-40.2227 I-1.3663 J7.8996
G2 X1.2012 Y-39.8594 I-0.1185 J6.6233
G2 X-0.4395 Y-38.7813 I1.4435 J3.9841
G2 X-1.4473 Y-36.9883 I3.4248 J3.1048
G2 X-1.7076 Y-35.7792 I8.0761 J2.3714
G0 Z3.0
G0 X0.2168 Y-33.4023
G1 F150.0 Z-1.0
G1 F500.0 X5.9707
G3 X5.8459 Y-32.1459 I-4.7257 J0.1651
G3 X5.291 Y-31.0117 I-2.7763 J-0.6555
G3 X4.3307 Y-30.333 I-1.7221 J-1.4178
G3 X3.1699 Y-30.1445 I-1.105 J-3.1374
G3 X1.9043 Y-30.4141 I-0.054 J-2.8527
G3 X1.002 Y-31.1289 I1.1963 J-2.437
G3 X0.4395 Y-32.1719 I2.5481 J-2.0474
G3 X0.2168 Y-33.4023 I4.0612 J-1.3703
G1 F150.0 Z-2.0
G1 F500.0 X5.9707
G3 X5.8459 Y-32.1459 I-4.7257 J0.1651
G3 X5.291 Y-31.0117 I-2.7763 J-0.6555
G3 X4.3307 Y-30.333 I-1.7221 J-1.4178
G3 X3.1699 Y-30.1445 I-1.105 J-3.1374
G3 X1.9043 Y-30.4141 I-0.054 J-2.8527
G3 X1.002 Y-31.1289 I1.1963 J-2.437
G3 X0.4395 Y-32.1719 I2.5481 J-2.0474
G3 X0.2168 Y-33.4023 I4.0612 J-1.3703
G1 F150.0 Y-34.8203
G3 F500.0 X0.3926 Y-36.4023 I6.5657 J-0.0713
G3 X0.9785 Y-37.6094 I2.9806 J0.7012
G3 X2.0449 Y-38.3828 I2.0339 J1.6824
G3 X3.6621 Y-38.6523 I1.5137 J4.096
G3 X4.998 Y-38.5352 I0.068 J6.8985
G3 X6.0176 Y-38.2539 I-1.6454 J7.953
G3 X6.7207 Y-37.9844 I-3.6066 J10.4604
G2 X7.1426 Y-37.8555 I0.5667 J-1.0997
G2 X7.2832 Y-37.9023 I0.0054 J-0.2183
G2 X7.3887 Y-38.0195 I-0.1029 J-0.1986
G2 X7.4473 Y-38.2539 I-0.9814 J-0.3699
G2 X7.4707 Y-38.6055 I-2.2131 J-0.3241
G2 X7.459 Y-38.875 I-2.7601 J-0.015
G2 X7.4238 Y-39.0742 I-1.4991 J0.1618
G2 X7.3652 Y-39.2266 I-0.3608 J0.0513
G2 X7.2598 Y-39.3672 I-0.4911 J0.2584
G2 X6.8848 Y-39.5781 I-1.2916 J1.8573
G2 X6.0645 Y-39.8594 I-2.4329 J5.7592
G2 X4.8926 Y-40.1055 I-2.7548 J10.205
G2 X3.4863 Y-40.2227 I-1.3663 J7.8996
G2 X1.2012 Y-39.8594 I-0.1185 J6.6233
G2 X-0.4395 Y-38.7813 I1.4435 J3.9841
G2 X-1.4473 Y-36.9883 I3.4248 J3.1048
G2 X-1.7871 Y-34.4805 I8.0761 J2.3714
G2 X-1.4355 Y-32.043 I7.878 J0.1079
G2 X-0.4277 Y-30.2031 I4.9454 J-1.513
G2 X1.1777 Y-29.043 I3.3099 J-2.8894
G2 X3.2754 Y-28.6328 I2.0237 J-4.7805
G2 X5.3848 Y-29.0313 I0.1335 J-5.0759
G2 X6.8262 Y-30.1094 I-1.5892 J-3.6274
G2 X7.6465 Y-31.6914 I-3.2222 J-2.6744
G2 X7.916 Y-33.625 I-6.4624 J-1.8864
G1 Y-33.9766
G2 X7.8702 Y-34.3302 I-1.2364 J-0.0197
G2 X7.6816 Y-34.6328 I-0.601 J0.1644
G2 X7.1543 Y-34.8203 I-0.5228 J0.6349
G1 X0.2168
G1 F150.0 Z-3.0
G3 F500.0 X0.3926 Y-36.4023 I6.5657 J-0.0713
G3 X0.9785 Y-37.6094 I2.9806 J0.7012
G3 X2.0449 Y-38.3828 I2.0339 J1.6824
G3 X3.6621 Y-38.6523 I1.5137 J4.096
G3 X4.998 Y-38.5352 I0.068 J6.8985
G3 X6.0176 Y-38.2539 I-1.6454 J7.953
G3 X6.7207 Y-37.9844 I-3.6066 J10.4604
G2 X7.1426 Y-37.8555 I0.5667 J-1.0997
G2 X7.2832 Y-37.9023 I0.0054 J-0.2183
G2 X7.3887 Y-38.0195 I-0.1029 J-0.1986
G2 X7.4473 Y-38.2539 I-0.9814 J-0.3699
G2 X7.4707 Y-38.6055 I-2.2131 J-0.3241
G2 X7.459 Y-38.875 I-2.7601 J-0.015
G2 X7.4238 Y-39.0742 I-1.4991 J0.1618
G2 X7.3652 Y-39.2266 I-0.3608 J0.0513
G2 X7.2598 Y-39.3672 I-0.4911 J0.2584
G2 X6.8848 Y-39.5781 I-1.2916 J1.8573
G2 X6.0645 Y-39.8594 I-2.4329 J5.7592
G2 X4.8926 Y-40.1055 I-2.7548 J10.205
G2 X3.4863 Y-40.2227 I-1.3663 J7.8996
G2 X1.2012 Y-39.8594 I-0.1185 J6.6233
G2 X-0.4395 Y-38.7813 I1.4435 J3.9841
G2 X-1.4473 Y-36.9883 I3.4248 J3.1048
G2 X-1.7871 Y-34.4805 I8.0761 J2.3714
G2 X-1.4355 Y-32.043 I7.878 J0.1079
G2 X-0.4277 Y-30.2031 I4.9454 J-1.513
G2 X1.1777 Y-29.043 I3.3099 J-2.8894
G2 X3.2754 Y-28.6328 I2.0237 J-4.7805
G2 X5.3848 Y-29.0313 I0.1335 J-5.0759
G2 X6.8262 Y-30.1094 I-1.5892 J-3.6274
G2 X7.6465 Y-31.6914 I-3.2222 J-2.6744
G2 X7.916 Y-33.625 I-6.4624 J-1.8864
G1 Y-33.9766
G2 X7.8702 Y-34.3302 I-1.2364 J-0.0197
G2 X7.6816 Y-34.6328 I-0.601 J0.1644
G2 X7.1543 Y-34.8203 I-0.5228 J0.6349
G1 X0.2168
G1 F150.0 Y-33.4023
G1 F500.0 X5.9707
G3 X5.8459 Y-32.1459 I-4.7257 J0.1651
G3 X5.291 Y-31.0117 I-2.7763 J-0.6555
G3 X4.3307 Y-30.333 I-1.7221 J-1.4178
G3 X3.1699 Y-30.1445 I-1.105 J-3.1374
G3 X1.9043 Y-30.4141 I-0.054 J-2.8527
G3 X1.002 Y-31.1289 I1.1963 J-2.437
G3 X0.4395 Y-32.1719 I2.5481 J-2.0474
G3 X0.2168 Y-33.4023 I4.0612 J-1.3703
G0 Z3.0
G0 X10.8574
G1 F150.0 Z-1.0
G1 F500.0 Y-29.1602
G2 X10.8926 Y-29.0078 I0.2969 J0.0117
G2 X11.0332 Y-28.8906 I0.2374 J-0.1419
G2 X11.3027 Y-28.8203 I0.2967 J-0.5857
G2 X11.7363 Y-28.7969 I0.3942 J-3.2694
G2 X12.1582 Y-28.8203 I0.0363 J-3.156
G2 X12.4277 Y-28.8906 I-0.0136 J-0.6037
G2 X12.5566 Y-29.0078 I-0.1117 J-0.2524
G2 X12.6035 Y-29.1602 I-0.1911 J-0.1422
G1 Y-30.6953
G2 X13.4121 Y-29.6641 I7.3009 J-4.8919
G2 X14.1387 Y-29.043 I3.2496 J-3.0659
G2 X14.8066 Y-28.7266 I1.2106 J-1.6924
G2 X15.4863 Y-28.6328 I0.6846 J-2.4529
G2 X15.8262 Y-28.6563 I-0.0215 J-2.7869
G2 X16.2363 Y-28.7148 I-0.1605 J-2.5884
G2 X16.6113 Y-28.8203 I-0.6685 J-3.0962
G2 X16.8574 Y-28.9375 I-0.2371 J-0.8149
G2 X16.9512 Y-29.0547 I-0.1921 J-0.2498
G2 X16.9863 Y-29.1836 I-0.4042 J-0.1795
G2 X17.0098 Y-29.4297 I-0.9882 J-0.2183
G2 X17.0215 Y-29.8516 I-6.0742 J-0.3798
G2 X17.0098 Y-30.2852 I-6.7542 J-0.0344
G2 X16.9629 Y-30.5664 I-1.1905 J0.0539
G2 X16.8691 Y-30.7188 I-0.3987 J0.1404
G2 X16.7285 Y-30.7656 I-0.1272 J0.1471
G2 X16.4941 Y-30.7188 I0.0362 J0.7902
G3 X16.1895 Y-30.6133 I-0.7987 J-1.8144
G3 X15.8145 Y-30.5078 I-1.0488 J-3.0095
G3 X15.3574 Y-30.4609 I-0.4425 J-2.0626
G3 X14.7832 Y-30.5781 I0.0031 J-1.4808
G3 X14.1855 Y-30.9648 I0.9668 J-2.1494
G3 X13.541 Y-31.6797 I3.4502 J-3.7588
G3 X12.791 Y-32.7695 I12.8002 J-9.6117
G1 Y-39.707
G2 X12.7441 Y-39.8711 I-0.2891 J-0.0061
G2 X12.5918 Y-39.9766 I-0.3033 J0.2754
G2 X12.2988 Y-40.0469 I-0.4018 J1.0288
G2 X11.8184 Y-40.0703 I-0.4398 J4.0792
G2 X11.3496 Y-40.0469 I-0.0372 J3.9556
G2 X11.0449 Y-39.9766 I0.1341 J1.2765
G2 X10.8926 Y-39.8711 I0.1509 J0.3807
G2 X10.8574 Y-39.707 I0.3287 J0.1562
G1 Y-33.4023
G0 Z3.0
G0 X19.2246
G1 F150.0 Z-1.0
G1 F500.0 Y-29.1602
G2 X19.2598 Y-29.0078 I0.3359 J0.0027
G2 X19.4121 Y-28.8906 I0.2809 J-0.2075
G2 X19.7168 Y-28.8203 I0.4384 J-1.2043
G2 X20.1855 Y-28.7969 I0.4322 J-3.9448
G2 X20.666 Y-28.8203 I0.0406 J-4.1035
G2 X20.959 Y-28.8906 I-0.1085 J-1.0976
G2 X21.1113 Y-29.0078 I-0.1286 J-0.3248
G2 X21.1582 Y-29.1602 I-0.2224 J-0.1518
G1 Y-39.707
G2 X21.1113 Y-39.8711 I-0.2891 J-0.0061
G2 X20.959 Y-39.9766 I-0.3033 J0.2754
G2 X20.666 Y-40.0469 I-0.4018 J1.0288
G2 X20.1855 Y-40.0703 I-0.4398 J4.0792
G2 X19.7168 Y-40.0469 I-0.0372 J3.9556
G2 X19.4121 Y-39.9766 I0.1341 J1.2765
G2 X19.2598 Y-39.8711 I0.1509 J0.3807
G2 X19.2246 Y-39.707 I0.3287 J0.1562
G1 Y-33.4023
G0 Z3.0
G0 X16.8691 Y-30.7188
G1 F150.0 Z-2.0
G2 F500.0 X16.7285 Y-30.7656 I-0.1272 J0.1471
G2 X16.4941 Y-30.7188 I0.0362 J0.7902
G3 X16.1895 Y-30.6133 I-0.7987 J-1.8144
G3 X15.8145 Y-30.5078 I-1.0488 J-3.0095
G3 X15.3574 Y-30.4609 I-0.4425 J-2.0626
G3 X14.7832 Y-30.5781 I0.0031 J-1.4808
G3 X14.1855 Y-30.9648 I0.9668 J-2.1494
G3 X13.541 Y-31.6797 I3.4502 J-3.7588
G3 X12.791 Y-32.7695 I12.8002 J-9.6117
G1 Y-39.707
G2 X12.7441 Y-39.8711 I-0.2891 J-0.0061
G2 X12.5918 Y-39.9766 I-0.3033 J0.2754
G2 X12.2988 Y-40.0469 I-0.4018 J1.0288
G2 X11.8184 Y-40.0703 I-0.4398 J4.0792
G2 X11.3496 Y-40.0469 I-0.0372 J3.9556
G2 X11.0449 Y-39.9766 I0.1341 J1.2765
G2 X10.8926 Y-39.8711 I0.1509 J0.3807
G2 X10.8574 Y-39.707 I0.3287 J0.1562
G1 Y-29.1602
G2 X10.8926 Y-29.0078 I0.2969 J0.0117
G2 X11.0332 Y-28.8906 I0.2374 J-0.1419
G2 X11.3027 Y-28.8203 I0.2967 J-0.5857
G2 X11.7363 Y-28.7969 I0.3942 J-3.2694
G2 X12.1582 Y-28.8203 I0.0363 J-3.156
G2 X12.4277 Y-28.8906 I-0.0136 J-0.6037
G2 X12.5566 Y-29.0078 I-0.1117 J-0.2524
G2 X12.6035 Y-29.1602 I-0.1911 J-0.1422
G1 Y-30.6953
G2 X13.4121 Y-29.6641 I7.3009 J-4.8919
G2 X14.1387 Y-29.043 I3.2496 J-3.0659
G2 X14.8066 Y-28.7266 I1.2106 J-1.6924
G2 X15.4863 Y-28.6328 I0.6846 J-2.4529
G2 X15.8262 Y-28.6563 I-0.0215 J-2.7869
G2 X16.2363 Y-28.7148 I-0.1605 J-2.5884
G2 X16.6113 Y-28.8203 I-0.6685 J-3.0962
G2 X16.8574 Y-28.9375 I-0.2371 J-0.8149
G2 X16.9512 Y-29.0547 I-0.1921 J-0.2498
G2 X16.9863 Y-29.1836 I-0.4042 J-0.1795
G2 X17.0098 Y-29.4297 I-0.9882 J-0.2183
G2 X17.0215 Y-29.8516 I-6.0742 J-0.3798
G2 X17.0098 Y-30.2852 I-6.7542 J-0.0344
G2 X16.9629 Y-30.5664 I-1.1905 J0.0539
G2 X16.8691 Y-30.7188 I-0.3987 J0.1404
G0 Z3.0
G0 X19.3387 Y-26.6064
G1 F150.0 Z-1.0
G2 F500.0 X19.2363 Y-26.5352 I0.4794 J0.7984
G2 X19.032 Y-26.1 I0.6424 J0.5671
G2 X18.9902 Y-25.6211 I2.39 J0.4499
G2 X19.034 Y-25.1345 I2.3929 J0.0299
G2 X19.248 Y-24.6953 I0.834 J-0.1347
G2 X19.7016 Y-24.4909 I0.5883 J-0.6999
G2 X20.1973 Y-24.4492 I0.4659 J-2.5723
G2 X20.6819 Y-24.4906 I0.0296 J-2.5111
G2 X21.123 Y-24.6953 I-0.1284 J-0.8546
G2 X21.3374 Y-25.1221 I-0.5738 J-0.5554
G2 X21.3809 Y-25.5977 I-2.2567 J-0.4462
G2 X21.3371 Y-26.0843 I-2.3929 J-0.0299
G2 X21.123 Y-26.5234 I-0.834 J0.1347
G2 X20.6695 Y-26.7278 I-0.5883 J0.6999
G2 X20.1738 Y-26.7695 I-0.4659 J2.5723
G2 X19.6857 Y-26.7298 I-0.0292 J2.6607
G2 X19.3387 Y-26.6064 I0.1324 J0.9218
G1 F150.0 Z-2.0
G2 F500.0 X19.2363 Y-26.5352 I0.4794 J0.7984
G2 X19.032 Y-26.1 I0.6424 J0.5671
G2 X18.9902 Y-25.6211 I2.39 J0.4499
G2 X19.034 Y-25.1345 I2.3929 J0.0299
G2 X19.248 Y-24.6953 I0.834 J-0.1347
G2 X19.7016 Y-24.4909 I0.5883 J-0.6999
G2 X20.1973 Y-24.4492 I0.4659 J-2.5723
G2 X20.6819 Y-24.4906 I0.0296 J-2.5111
G2 X21.123 Y-24.6953 I-0.1284 J-0.8546
G2 X21.3374 Y-25.1221 I-0.5738 J-0.5554
G2 X21.3809 Y-25.5977 I-2.2567 J-0.4462
G2 X21.3371 Y-26.0843 I-2.3929 J-0.0299
G2 X21.123 Y-26.5234 I-0.834 J0.1347
G2 X20.6695 Y-26.7278 I-0.5883 J0.6999
G2 X20.1738 Y-26.7695 I-0.4659 J2.5723
G2 X19.6857 Y-26.7298 I-0.0292 J2.6607
G2 X19.3387 Y-26.6064 I0.1324 J0.9218
G1 F150.0 X19.6645 Y-28.8269
G2 F500.0 X19.7168 Y-28.8203 I0.186 J-1.268
G2 X20.1855 Y-28.7969 I0.4322 J-3.9448
G2 X20.666 Y-28.8203 I0.0406 J-4.1035
G2 X20.959 Y-28.8906 I-0.1085 J-1.0976
G2 X21.1113 Y-29.0078 I-0.1286 J-0.3248
G2 X21.1582 Y-29.1602 I-0.2224 J-0.1518
G1 Y-39.707
G2 X21.1113 Y-39.8711 I-0.2891 J-0.0061
G2 X20.959 Y-39.9766 I-0.3033 J0.2754
G2 X20.666 Y-40.0469 I-0.4018 J1.0288
G2 X20.1855 Y-40.0703 I-0.4398 J4.0792
G2 X19.7168 Y-40.0469 I-0.0372 J3.9556
G2 X19.4121 Y-39.9766 I0.1341 J1.2765
G2 X19.2598 Y-39.8711 I0.1509 J0.3807
G2 X19.2246 Y-39.707 I0.3287 J0.1562
G1 Y-29.1602
G2 X19.2598 Y-29.0078 I0.3359 J0.0027
G2 X19.4121 Y-28.8906 I0.2809 J-0.2075
G2 X19.6645 Y-28.8269 I0.4384 J-1.2043
G1 F150.0 Z-3.0
G2 F500.0 X19.7168 Y-28.8203 I0.186 J-1.268
G2 X20.1855 Y-28.7969 I0.4322 J-3.9448
G2 X20.666 Y-28.8203 I0.0406 J-4.1035
G2 X20.959 Y-28.8906 I-0.1085 J-1.0976
G2 X21.1113 Y-29.0078 I-0.1286 J-0.3248
G2 X21.1582 Y-29.1602 I-0.2224 J-0.1518
G1 Y-39.707
G2 X21.1113 Y-39.8711 I-0.2891 J-0.0061
G2 X20.959 Y-39.9766 I-0.3033 J0.2754
G2 X20.666 Y-40.0469 I-0.4018 J1.0288
G2 X20.1855 Y-40.0703 I-0.4398 J4.0792
G2 X19.7168 Y-40.0469 I-0.0372 J3.9556
G2 X19.4121 Y-39.9766 I0.1341 J1.2765
G2 X19.2598 Y-39.8711 I0.1509 J0.3807
G2 X19.2246 Y-39.707 I0.3287 J0.1562
G1 Y-29.1602
G2 X19.2598 Y-29.0078 I0.3359 J0.0027
G2 X19.4121 Y-28.8906 I0.2809 J-0.2075
G2 X19.6645 Y-28.8269 I0.4384 J-1.2043
G1 F150.0 X19.8752 Y-26.756
G2 F500.0 X19.6857 Y-26.7298 I0.2694 J2.6471
G2 X19.2363 Y-26.5352 I0.1324 J0.9218
G2 X19.032 Y-26.1 I0.6424 J0.5671
G2 X18.9902 Y-25.6211 I2.39 J0.4499
G2 X19.034 Y-25.1345 I2.3929 J0.0299
G2 X19.248 Y-24.6953 I0.834 J-0.1347
G2 X19.7016 Y-24.4909 I0.5883 J-0.6999
G2 X20.1973 Y-24.4492 I0.4659 J-2.5723
G2 X20.6819 Y-24.4906 I0.0296 J-2.5111
G2 X21.123 Y-24.6953 I-0.1284 J-0.8546
G2 X21.3374 Y-25.1221 I-0.5738 J-0.5554
G2 X21.3809 Y-25.5977 I-2.2567 J-0.4462
G2 X21.3371 Y-26.0843 I-2.3929 J-0.0299
G2 X21.123 Y-26.5234 I-0.834 J0.1347
G2 X20.6695 Y-26.7278 I-0.5883 J0.6999
G2 X20.1738 Y-26.7695 I-0.4659 J2.5723
G2 X19.8752 Y-26.756 I-0.0292 J2.6607
G0 Z3.0
G0 X16.9165 Y-28.997
G1 F150.0 Z-3.0
G2 F500.0 X16.9512 Y-29.0547 I-0.2512 J-0.1902
G2 X16.9863 Y-29.1836 I-0.4042 J-0.1795
G2 X17.0098 Y-29.4297 I-0.9882 J-0.2183
G2 X17.0215 Y-29.8516 I-6.0742 J-0.3798
G2 X17.0098 Y-30.2852 I-6.7542 J-0.0344
G2 X16.9629 Y-30.5664 I-1.1905 J0.0539
G2 X16.8691 Y-30.7188 I-0.3987 J0.1404
G2 X16.7285 Y-30.7656 I-0.1272 J0.1471
G2 X16.4941 Y-30.7188 I0.0362 J0.7902
G3 X16.1895 Y-30.6133 I-0.7987 J-1.8144
G3 X15.8145 Y-30.5078 I-1.0488 J-3.0095
G3 X15.3574 Y-30.4609 I-0.4425 J-2.0626
G3 X14.7832 Y-30.5781 I0.0031 J-1.4808
G3 X14.1855 Y-30.9648 I0.9668 J-2.1494
G3 X13.541 Y-31.6797 I3.4502 J-3.7588
G3 X12.791 Y-32.7695 I12.8002 J-9.6117
G1 Y-39.707
G2 X12.7441 Y-39.8711 I-0.2891 J-0.0061
G2 X12.5918 Y-39.9766 I-0.3033 J0.2754
G2 X12.2988 Y-40.0469 I-0.4018 J1.0288
G2 X11.8184 Y-40.0703 I-0.4398 J4.0792
G2 X11.3496 Y-40.0469 I-0.0372 J3.9556
G2 X11.0449 Y-39.9766 I0.1341 J1.2765
G2 X10.8926 Y-39.8711 I0.1509 J0.3807
G2 X10.8574 Y-39.707 I0.3287 J0.1562
G1 Y-29.1602
G2 X10.8926 Y-29.0078 I0.2969 J0.0117
G2 X11.0332 Y-28.8906 I0.2374 J-0.1419
G2 X11.3027 Y-28.8203 I0.2967 J-0.5857
G2 X11.7363 Y-28.7969 I0.3942 J-3.2694
G2 X12.1582 Y-28.8203 I0.0363 J-3.156
G2 X12.4277 Y-28.8906 I-0.0136 J-0.6037
G2 X12.5566 Y-29.0078 I-0.1117 J-0.2524
G2 X12.6035 Y-29.1602 I-0.1911 J-0.1422
G1 Y-30.6953
G2 X13.4121 Y-29.6641 I7.3009 J-4.8919
G2 X14.1387 Y-29.043 I3.2496 J-3.0659
G2 X14.8066 Y-28.7266 I1.2106 J-1.6924
G2 X15.4863 Y-28.6328 I0.6846 J-2.4529
G2 X15.8262 Y-28.6563 I-0.0215 J-2.7869
G2 X16.2363 Y-28.7148 I-0.1605 J-2.5884
G2 X16.6113 Y-28.8203 I-0.6685 J-3.0962
G2 X16.8574 Y-28.9375 I-0.2371 J-0.8149
G2 X16.9165 Y-28.997 I-0.1921 J-0.2498
G0 Z3.0
G0 X24.7322 Y-29.1429
G1 F150.0 Z-1.0
G2 F500.0 X24.7676 Y-29.0078 I0.2971 J-0.0055
G2 X24.9082 Y-28.8906 I0.2374 J-0.1419
G2 X25.1777 Y-28.8203 I0.2967 J-0.5857
G2 X25.6113 Y-28.7969 I0.3942 J-3.2694
G2 X26.0332 Y-28.8203 I0.0363 J-3.156
G2 X26.3027 Y-28.8906 I-0.0136 J-0.6037
G2 X26.4316 Y-29.0078 I-0.1117 J-0.2524
G2 X26.4785 Y-29.1602 I-0.1911 J-0.1422
G1 Y-30.5547
G2 X28.248 Y-29.1016 I4.9423 J-4.2144
G2 X30.041 Y-28.6328 I1.8344 J-3.3533
G2 X31.8105 Y-28.9961 I0.1179 J-3.917
G2 X32.9824 Y-29.9453 I-1.3296 J-2.8394
G2 X33.6152 Y-31.3516 I-3.0206 J-2.2048
G2 X33.8145 Y-33.2734 I-7.9249 J-1.7927
G1 Y-39.707
G2 X33.7676 Y-39.8711 I-0.2891 J-0.0061
G2 X33.6152 Y-39.9766 I-0.3033 J0.2754
G2 X33.3223 Y-40.0469 I-0.4018 J1.0288
G2 X32.8535 Y-40.0703 I-0.4322 J3.9448
G2 X32.373 Y-40.0469 I-0.0406 J4.1035
G2 X32.0801 Y-39.9766 I0.1085 J1.0976
G2 X31.9277 Y-39.8711 I0.1509 J0.3807
G2 X31.8809 Y-39.707 I0.2424 J0.158
G1 Y-33.5313
G3 X31.7402 Y-32.0781 I-6.2303 J0.1304
G3 X31.3301 Y-31.1289 I-2.9355 J-0.7052
G3 X30.627 Y-30.5195 I-1.469 J-0.9847
G3 X29.6426 Y-30.3086 I-0.9375 J-1.9724
G3 X28.1895 Y-30.8242 I0.0738 J-2.5133
G3 X26.666 Y-32.3359 I4.8227 J-6.3835
G1 Y-39.707
G2 X26.6191 Y-39.8711 I-0.2891 J-0.0061
G2 X26.4668 Y-39.9766 I-0.3033 J0.2754
G2 X26.1738 Y-40.0469 I-0.4018 J1.0288
G2 X25.6934 Y-40.0703 I-0.4398 J4.0792
G2 X25.2246 Y-40.0469 I-0.0372 J3.9556
G2 X24.9199 Y-39.9766 I0.1341 J1.2765
G2 X24.7676 Y-39.8711 I0.1509 J0.3807
G2 X24.7324 Y-39.707 I0.3287 J0.1562
G1 Y-29.1602
G2 X24.7322 Y-29.1429 I0.2969 J0.0117
G1 F150.0 Z-2.0
G2 F500.0 X24.7676 Y-29.0078 I0.2971 J-0.0055
G2 X24.9082 Y-28.8906 I0.2374 J-0.1419
G2 X25.1777 Y-28.8203 I0.2967 J-0.5857
G2 X25.6113 Y-28.7969 I0.3942 J-3.2694
G2 X26.0332 Y-28.8203 I0.0363 J-3.156
G2 X26.3027 Y-28.8906 I-0.0136 J-0.6037
G2 X26.4316 Y-29.0078 I-0.1117 J-0.2524
G2 X26.4785 Y-29.1602 I-0.1911 J-0.1422
G1 Y-30.5547
G2 X28.248 Y-29.1016 I4.9423 J-4.2144
