( This gcode generated by C:/Program Files (x86)/EAGLE-5.10.0/ulp/pcb-gcode.ulp )
( Copyright 2005 by John Johnson. See readme.txt for licensing terms. )

( This file generated from the board C:/data/Arduino/SketchBook/CameraAxe/CameraAxe_mmcp4.brd )
( This file generated 20-Nov-2010 12:17:44 )

G20 

G90
G00 Z0.5000 
G00 X0 Y0
M03 
G04 P1000.000000
G00 Z0.0200 
G00 X0.0244 Y-0.1223 
G01 Z-0.0100 F10.00 
G01 X0.0244 Y-0.0777 
G01 X0.0240 Y-0.0767 
G01 X0.0233 Y-0.0760 
G01 X0.0223 Y-0.0756 
G01 X-0.0223 Y-0.0756 
G01 X-0.0233 Y-0.0760 
G01 X-0.0240 Y-0.0767 
G01 X-0.0244 Y-0.0777 
G01 X-0.0244 Y-0.1223 
G01 X-0.0240 Y-0.1233 
G01 X-0.0233 Y-0.1240 
G01 X-0.0223 Y-0.1244 
G01 X0.0223 Y-0.1244 
G01 X0.0233 Y-0.1240 
G01 X0.0240 Y-0.1233 
G01 X0.0244 Y-0.1223 
G00 Z0.0200 
G00 X1.6910 Y0.2117 
G01 Z-0.0100 F10.00 
G01 X1.6883 Y0.2090 
G01 X1.6864 Y0.2056 
G01 X1.6854 Y0.2019 
G01 X1.6854 Y0.1634 
G01 X1.6836 Y0.1627 
G01 X1.6779 Y0.1589 
G01 X1.6731 Y0.1541 
G01 X1.6693 Y0.1484 
G01 X1.6667 Y0.1421 
G01 X1.6654 Y0.1354 
G01 X1.6654 Y0.1146 
G01 X1.6346 Y0.1146 
G01 X1.6346 Y0.1354 
G01 X1.6333 Y0.1421 
G01 X1.6307 Y0.1484 
G01 X1.6269 Y0.1541 
G01 X1.6221 Y0.1589 
G01 X1.6164 Y0.1627 
G01 X1.6101 Y0.1653 
G01 X1.6034 Y0.1666 
G01 X1.5966 Y0.1666 
G01 X1.5899 Y0.1653 
G01 X1.5836 Y0.1627 
G01 X1.5779 Y0.1589 
G01 X1.5731 Y0.1541 
G01 X1.5693 Y0.1484 
G01 X1.5667 Y0.1421 
G01 X1.5654 Y0.1354 
G01 X1.5654 Y0.0646 
G01 X1.5667 Y0.0579 
G01 X1.5693 Y0.0516 
G01 X1.5731 Y0.0459 
G01 X1.5779 Y0.0411 
G01 X1.5836 Y0.0373 
G01 X1.5899 Y0.0347 
G01 X1.5966 Y0.0334 
G01 X1.6034 Y0.0334 
G01 X1.6101 Y0.0347 
G01 X1.6164 Y0.0373 
G01 X1.6221 Y0.0411 
G01 X1.6269 Y0.0459 
G01 X1.6307 Y0.0516 
G01 X1.6333 Y0.0579 
G01 X1.6346 Y0.0646 
G01 X1.6346 Y0.0854 
G01 X1.6654 Y0.0854 
G01 X1.6654 Y0.0646 
G01 X1.6667 Y0.0579 
G01 X1.6693 Y0.0516 
G01 X1.6731 Y0.0459 
G01 X1.6779 Y0.0411 
G01 X1.6836 Y0.0373 
G01 X1.6899 Y0.0347 
G01 X1.6966 Y0.0334 
G01 X1.7034 Y0.0334 
G01 X1.7101 Y0.0347 
G01 X1.7164 Y0.0373 
G01 X1.7221 Y0.0411 
G01 X1.7269 Y0.0459 
G01 X1.7307 Y0.0516 
G01 X1.7333 Y0.0579 
G01 X1.7346 Y0.0646 
G01 X1.7346 Y0.1354 
G01 X1.7333 Y0.1421 
G01 X1.7307 Y0.1484 
G01 X1.7269 Y0.1541 
G01 X1.7221 Y0.1589 
G01 X1.7164 Y0.1627 
G01 X1.7146 Y0.1634 
G01 X1.7146 Y0.1939 
G01 X1.8340 Y0.3133 
G01 X1.8340 Y0.3133 
G01 X1.8367 Y0.3160 
G01 X1.8386 Y0.3194 
G01 X1.8396 Y0.3231 
G01 X1.8396 Y0.5019 
G01 X1.8386 Y0.5056 
G01 X1.8367 Y0.5090 
G01 X1.8340 Y0.5117 
G01 X1.7556 Y0.5900 
G01 X1.7556 Y0.6127 
G01 X1.7396 Y0.6287 
G01 X1.7396 Y0.6963 
G01 X1.7556 Y0.7123 
G01 X1.7556 Y0.7377 
G01 X1.7396 Y0.7537 
G01 X1.7396 Y0.8213 
G01 X1.7556 Y0.8373 
G01 X1.7556 Y0.8627 
G01 X1.7396 Y0.8787 
G01 X1.7396 Y0.9463 
G01 X1.7556 Y0.9623 
G01 X1.7556 Y0.9877 
G01 X1.7396 Y1.0037 
G01 X1.7396 Y1.0713 
G01 X1.7556 Y1.0873 
G01 X1.7556 Y1.1127 
G01 X1.7396 Y1.1287 
G01 X1.7396 Y1.1963 
G01 X1.7556 Y1.2123 
G01 X1.7556 Y1.2377 
G01 X1.7396 Y1.2537 
G01 X1.7396 Y1.2731 
G01 X1.7396 Y1.3213 
G01 X1.7556 Y1.3373 
G01 X1.7556 Y1.3627 
G01 X1.7377 Y1.3806 
G01 X1.7123 Y1.3806 
G01 X1.6944 Y1.3627 
G01 X1.6944 Y1.3373 
G01 X1.7104 Y1.3213 
G01 X1.7104 Y1.2731 
G01 X1.7104 Y1.2537 
G01 X1.6944 Y1.2377 
G01 X1.6944 Y1.2123 
G01 X1.7104 Y1.1963 
G01 X1.7104 Y1.1287 
G01 X1.6944 Y1.1127 
G01 X1.6944 Y1.0873 
G01 X1.7104 Y1.0713 
G01 X1.7104 Y1.0037 
G01 X1.7088 Y1.0021 
G01 X1.5050 Y1.0021 
G01 X1.5018 Y1.0070 
G01 X1.4975 Y1.0113 
G01 X1.4925 Y1.0146 
G01 X1.4869 Y1.0169 
G01 X1.4810 Y1.0181 
G01 X1.4190 Y1.0181 
G01 X1.4131 Y1.0169 
G01 X1.4075 Y1.0146 
G01 X1.4025 Y1.0113 
G01 X1.3982 Y1.0070 
G01 X1.3949 Y1.0020 
G01 X1.3926 Y0.9964 
G01 X1.3914 Y0.9905 
G01 X1.3914 Y0.9845 
G01 X1.3926 Y0.9786 
G01 X1.3949 Y0.9730 
G01 X1.3982 Y0.9680 
G01 X1.4025 Y0.9637 
G01 X1.4075 Y0.9604 
G01 X1.4131 Y0.9581 
G01 X1.4190 Y0.9569 
G01 X1.4810 Y0.9569 
G01 X1.4869 Y0.9581 
G01 X1.4925 Y0.9604 
G01 X1.4975 Y0.9637 
G01 X1.5018 Y0.9680 
G01 X1.5050 Y0.9729 
G01 X1.6944 Y0.9729 
G01 X1.6944 Y0.9623 
G01 X1.7104 Y0.9463 
G01 X1.7104 Y0.8787 
G01 X1.6944 Y0.8627 
G01 X1.6944 Y0.8373 
G01 X1.7104 Y0.8213 
G01 X1.7104 Y0.7537 
G01 X1.6944 Y0.7377 
G01 X1.6944 Y0.7146 
G01 X1.5050 Y0.7146 
G01 X1.5018 Y0.7195 
G01 X1.4975 Y0.7238 
G01 X1.4925 Y0.7271 
G01 X1.4869 Y0.7294 
G01 X1.4810 Y0.7306 
G01 X1.4190 Y0.7306 
G01 X1.4131 Y0.7294 
G01 X1.4075 Y0.7271 
G01 X1.4025 Y0.7238 
G01 X1.3982 Y0.7195 
G01 X1.3949 Y0.7145 
G01 X1.3926 Y0.7089 
G01 X1.3914 Y0.7030 
G01 X1.3914 Y0.6970 
G01 X1.3926 Y0.6911 
G01 X1.3949 Y0.6855 
G01 X1.3982 Y0.6805 
G01 X1.4025 Y0.6762 
G01 X1.4075 Y0.6729 
G01 X1.4131 Y0.6706 
G01 X1.4190 Y0.6694 
G01 X1.4810 Y0.6694 
G01 X1.4869 Y0.6706 
G01 X1.4925 Y0.6729 
G01 X1.4975 Y0.6762 
G01 X1.5018 Y0.6805 
G01 X1.5050 Y0.6854 
G01 X1.7104 Y0.6854 
G01 X1.7104 Y0.6287 
G01 X1.6944 Y0.6127 
G01 X1.6944 Y0.5900 
G01 X1.5564 Y0.4521 
G01 X0.5185 Y0.4521 
G01 X0.4771 Y0.4935 
G01 X0.4771 Y0.5963 
G01 X0.4931 Y0.6123 
G01 X0.4931 Y0.6377 
G01 X0.4771 Y0.6537 
G01 X0.4771 Y0.7713 
G01 X0.4931 Y0.7873 
G01 X0.4931 Y0.8127 
G01 X0.4771 Y0.8287 
G01 X0.4771 Y0.9463 
G01 X0.4931 Y0.9623 
G01 X0.4931 Y0.9877 
G01 X0.4771 Y1.0037 
G01 X0.4771 Y1.1213 
G01 X0.4931 Y1.1373 
G01 X0.4931 Y1.1627 
G01 X0.4771 Y1.1787 
G01 X0.4771 Y1.2963 
G01 X0.4931 Y1.3123 
G01 X0.4931 Y1.3377 
G01 X0.4771 Y1.3537 
G01 X0.4771 Y1.4713 
G01 X0.4931 Y1.4873 
G01 X0.4931 Y1.5127 
G01 X0.4752 Y1.5306 
G01 X0.4498 Y1.5306 
G01 X0.4319 Y1.5127 
G01 X0.4319 Y1.4873 
G01 X0.4479 Y1.4713 
G01 X0.4479 Y1.3537 
G01 X0.4319 Y1.3377 
G01 X0.4319 Y1.3123 
G01 X0.4479 Y1.2963 
G01 X0.4479 Y1.1787 
G01 X0.4319 Y1.1627 
G01 X0.4319 Y1.1373 
G01 X0.4479 Y1.1213 
G01 X0.4479 Y1.0037 
G01 X0.4319 Y0.9877 
G01 X0.4319 Y0.9623 
G01 X0.4479 Y0.9463 
G01 X0.4479 Y0.8287 
G01 X0.4319 Y0.8127 
G01 X0.4319 Y0.7873 
G01 X0.4479 Y0.7713 
G01 X0.4479 Y0.6537 
G01 X0.4319 Y0.6377 
G01 X0.4319 Y0.6123 
G01 X0.4479 Y0.5963 
G01 X0.4479 Y0.4894 
G01 X0.4479 Y0.4856 
G01 X0.4489 Y0.4819 
G01 X0.4508 Y0.4785 
G01 X0.5035 Y0.4258 
G01 X0.5069 Y0.4239 
G01 X0.5106 Y0.4229 
G01 X0.5144 Y0.4229 
G01 X0.5144 Y0.4229 
G01 X1.5606 Y0.4229 
G01 X1.5644 Y0.4229 
G01 X1.5681 Y0.4239 
G01 X1.5715 Y0.4258 
G01 X1.7150 Y0.5694 
G01 X1.7349 Y0.5694 
G01 X1.8104 Y0.4939 
G01 X1.8104 Y0.3310 
G01 X1.6910 Y0.2117 
G00 Z0.0200 
G00 X2.6215 Y1.0181 
G01 Z-0.0100 F10.00 
G01 X2.5595 Y1.0181 
G01 X2.5536 Y1.0169 
G01 X2.5480 Y1.0146 
G01 X2.5430 Y1.0113 
G01 X2.5387 Y1.0070 
G01 X2.5354 Y1.0020 
G01 X2.5331 Y0.9964 
G01 X2.5319 Y0.9905 
G01 X2.5319 Y0.9845 
G01 X2.5331 Y0.9786 
G01 X2.5354 Y0.9730 
G01 X2.5387 Y0.9680 
G01 X2.5430 Y0.9637 
G01 X2.5480 Y0.9604 
G01 X2.5536 Y0.9581 
G01 X2.5595 Y0.9569 
G01 X2.6215 Y0.9569 
G01 X2.6274 Y0.9581 
G01 X2.6330 Y0.9604 
G01 X2.6380 Y0.9637 
G01 X2.6423 Y0.9680 
G01 X2.6455 Y0.9729 
G01 X2.6689 Y0.9729 
G01 X2.7758 Y0.8660 
G01 X2.7785 Y0.8633 
G01 X2.7819 Y0.8614 
G01 X2.7856 Y0.8604 
G01 X2.8533 Y0.8604 
G01 X2.8536 Y0.8596 
G01 X2.8572 Y0.8542 
G01 X2.8617 Y0.8497 
G01 X2.8671 Y0.8461 
G01 X2.8730 Y0.8437 
G01 X2.8793 Y0.8424 
G01 X2.9457 Y0.8424 
G01 X2.9520 Y0.8437 
G01 X2.9579 Y0.8461 
G01 X2.9633 Y0.8497 
G01 X2.9678 Y0.8542 
G01 X2.9714 Y0.8596 
G01 X2.9738 Y0.8655 
G01 X2.9751 Y0.8718 
G01 X2.9751 Y0.8782 
G01 X2.9738 Y0.8845 
G01 X2.9714 Y0.8904 
G01 X2.9678 Y0.8958 
G01 X2.9633 Y0.9003 
G01 X2.9579 Y0.9039 
G01 X2.9520 Y0.9063 
G01 X2.9457 Y0.9076 
G01 X2.8793 Y0.9076 
G01 X2.8730 Y0.9063 
G01 X2.8671 Y0.9039 
G01 X2.8617 Y0.9003 
G01 X2.8572 Y0.8958 
G01 X2.8536 Y0.8904 
G01 X2.8533 Y0.8896 
G01 X2.7935 Y0.8896 
G01 X2.6867 Y0.9965 
G01 X2.6840 Y0.9992 
G01 X2.6806 Y1.0011 
G01 X2.6769 Y1.0021 
G01 X2.6455 Y1.0021 
G01 X2.6423 Y1.0070 
G01 X2.6380 Y1.0113 
G01 X2.6330 Y1.0146 
G01 X2.6274 Y1.0169 
G01 X2.6215 Y1.0181 
G00 Z0.0200 
G00 X2.6215 Y0.9181 
G01 Z-0.0100 F10.00 
G01 X2.5595 Y0.9181 
G01 X2.5537 Y0.9169 
G01 X2.5146 Y0.9560 
G01 X2.5146 Y1.1564 
G01 X2.5310 Y1.1729 
G01 X2.5355 Y1.1729 
G01 X2.5387 Y1.1680 
G01 X2.5430 Y1.1637 
G01 X2.5480 Y1.1604 
G01 X2.5536 Y1.1581 
G01 X2.5595 Y1.1569 
G01 X2.6215 Y1.1569 
G01 X2.6274 Y1.1581 
G01 X2.6330 Y1.1604 
G01 X2.6380 Y1.1637 
G01 X2.6423 Y1.1680 
G01 X2.6456 Y1.1730 
G01 X2.6479 Y1.1786 
G01 X2.6491 Y1.1845 
G01 X2.6491 Y1.1905 
G01 X2.6479 Y1.1964 
G01 X2.6456 Y1.2020 
G01 X2.6423 Y1.2070 
G01 X2.6380 Y1.2113 
G01 X2.6330 Y1.2146 
G01 X2.6274 Y1.2169 
G01 X2.6215 Y1.2181 
G01 X2.5595 Y1.2181 
G01 X2.5536 Y1.2169 
G01 X2.5480 Y1.2146 
G01 X2.5430 Y1.2113 
G01 X2.5387 Y1.2070 
G01 X2.5355 Y1.2021 
G01 X2.5269 Y1.2021 
G01 X2.5231 Y1.2021 
G01 X2.5194 Y1.2011 
G01 X2.5160 Y1.1992 
G01 X2.4910 Y1.1742 
G01 X2.4883 Y1.1715 
G01 X2.4864 Y1.1681 
G01 X2.4854 Y1.1644 
G01 X2.4854 Y0.9519 
G01 X2.4854 Y0.9481 
G01 X2.4864 Y0.9444 
G01 X2.4883 Y0.9410 
G01 X2.5331 Y0.8963 
G01 X2.5319 Y0.8905 
G01 X2.5319 Y0.8845 
G01 X2.5331 Y0.8786 
G01 X2.5354 Y0.8730 
G01 X2.5387 Y0.8680 
G01 X2.5430 Y0.8637 
G01 X2.5480 Y0.8604 
G01 X2.5536 Y0.8581 
G01 X2.5595 Y0.8569 
G01 X2.6215 Y0.8569 
G01 X2.6274 Y0.8581 
G01 X2.6330 Y0.8604 
G01 X2.6380 Y0.8637 
G01 X2.6423 Y0.8680 
G01 X2.6455 Y0.8729 
G01 X2.6689 Y0.8729 
G01 X2.7785 Y0.7633 
G01 X2.7819 Y0.7614 
G01 X2.7856 Y0.7604 
G01 X2.7894 Y0.7604 
G01 X2.8533 Y0.7604 
G01 X2.8536 Y0.7596 
G01 X2.8572 Y0.7542 
G01 X2.8617 Y0.7497 
G01 X2.8671 Y0.7461 
G01 X2.8730 Y0.7437 
G01 X2.8793 Y0.7424 
G01 X2.9457 Y0.7424 
G01 X2.9520 Y0.7437 
G01 X2.9579 Y0.7461 
G01 X2.9633 Y0.7497 
G01 X2.9678 Y0.7542 
G01 X2.9714 Y0.7596 
G01 X2.9738 Y0.7655 
G01 X2.9751 Y0.7718 
G01 X2.9751 Y0.7782 
G01 X2.9738 Y0.7845 
G01 X2.9714 Y0.7904 
G01 X2.9678 Y0.7958 
G01 X2.9633 Y0.8003 
G01 X2.9579 Y0.8039 
G01 X2.9520 Y0.8063 
G01 X2.9457 Y0.8076 
G01 X2.8793 Y0.8076 
G01 X2.8730 Y0.8063 
G01 X2.8671 Y0.8039 
G01 X2.8617 Y0.8003 
G01 X2.8572 Y0.7958 
G01 X2.8536 Y0.7904 
G01 X2.8533 Y0.7896 
G01 X2.7935 Y0.7896 
G01 X2.6867 Y0.8965 
G01 X2.6840 Y0.8992 
G01 X2.6806 Y0.9011 
G01 X2.6769 Y0.9021 
G01 X2.6455 Y0.9021 
G01 X2.6423 Y0.9070 
G01 X2.6380 Y0.9113 
G01 X2.6330 Y0.9146 
G01 X2.6274 Y0.9169 
G01 X2.6215 Y0.9181 
G00 Z0.0200 
G00 X2.6215 Y0.7181 
G01 Z-0.0100 F10.00 
G01 X2.5595 Y0.7181 
G01 X2.5536 Y0.7169 
G01 X2.5480 Y0.7146 
G01 X2.5430 Y0.7113 
G01 X2.5387 Y0.7070 
G01 X2.5354 Y0.7020 
G01 X2.5331 Y0.6964 
G01 X2.5319 Y0.6905 
G01 X2.5319 Y0.6845 
G01 X2.5331 Y0.6786 
G01 X2.5354 Y0.6730 
G01 X2.5387 Y0.6680 
G01 X2.5430 Y0.6637 
G01 X2.5480 Y0.6604 
G01 X2.5536 Y0.6581 
G01 X2.5595 Y0.6569 
G01 X2.6215 Y0.6569 
G01 X2.6274 Y0.6581 
G01 X2.6330 Y0.6604 
G01 X2.6380 Y0.6637 
G01 X2.6423 Y0.6680 
G01 X2.6455 Y0.6729 
G01 X2.7314 Y0.6729 
G01 X2.8133 Y0.5910 
G01 X2.8160 Y0.5883 
G01 X2.8194 Y0.5864 
G01 X2.8231 Y0.5854 
G01 X2.9939 Y0.5854 
G01 X3.0604 Y0.5189 
G01 X3.0604 Y0.4185 
G01 X2.9939 Y0.3521 
G01 X2.9717 Y0.3521 
G01 X2.9714 Y0.3529 
G01 X2.9678 Y0.3583 
G01 X2.9633 Y0.3628 
G01 X2.9579 Y0.3664 
G01 X2.9520 Y0.3688 
G01 X2.9457 Y0.3701 
G01 X2.8793 Y0.3701 
G01 X2.8730 Y0.3688 
G01 X2.8671 Y0.3664 
G01 X2.8617 Y0.3628 
G01 X2.8572 Y0.3583 
G01 X2.8536 Y0.3529 
G01 X2.8512 Y0.3470 
G01 X2.8499 Y0.3407 
G01 X2.8499 Y0.3343 
G01 X2.8512 Y0.3280 
G01 X2.8536 Y0.3221 
G01 X2.8572 Y0.3167 
G01 X2.8617 Y0.3122 
G01 X2.8671 Y0.3086 
G01 X2.8730 Y0.3062 
G01 X2.8793 Y0.3049 
G01 X2.9457 Y0.3049 
G01 X2.9520 Y0.3062 
G01 X2.9579 Y0.3086 
G01 X2.9633 Y0.3122 
G01 X2.9678 Y0.3167 
G01 X2.9714 Y0.3221 
G01 X2.9717 Y0.3229 
G01 X3.0019 Y0.3229 
G01 X3.0056 Y0.3239 
G01 X3.0090 Y0.3258 
G01 X3.0117 Y0.3285 
G01 X3.0867 Y0.4035 
G01 X3.0886 Y0.4069 
G01 X3.0896 Y0.4106 
G01 X3.0896 Y0.4144 
G01 X3.0896 Y0.5269 
G01 X3.0886 Y0.5306 
G01 X3.0867 Y0.5340 
G01 X3.0840 Y0.5367 
G01 X3.0090 Y0.6117 
G01 X3.0056 Y0.6136 
G01 X3.0019 Y0.6146 
G01 X2.9981 Y0.6146 
G01 X2.8310 Y0.6146 
G01 X2.7465 Y0.6992 
G01 X2.7431 Y0.7011 
G01 X2.7394 Y0.7021 
G01 X2.7356 Y0.7021 
G01 X2.6455 Y0.7021 
G01 X2.6423 Y0.7070 
G01 X2.6380 Y0.7113 
G01 X2.6330 Y0.7146 
G01 X2.6274 Y0.7169 
G01 X2.6215 Y0.7181 
G00 Z0.0200 
G00 X2.6215 Y0.6181 
G01 Z-0.0100 F10.00 
G01 X2.5595 Y0.6181 
G01 X2.5536 Y0.6169 
G01 X2.5480 Y0.6146 
G01 X2.5430 Y0.6113 
G01 X2.5387 Y0.6070 
G01 X2.5354 Y0.6020 
G01 X2.5331 Y0.5964 
G01 X2.5319 Y0.5905 
G01 X2.5319 Y0.5845 
G01 X2.5331 Y0.5786 
G01 X2.5354 Y0.5730 
G01 X2.5387 Y0.5680 
G01 X2.5430 Y0.5637 
G01 X2.5480 Y0.5604 
G01 X2.5536 Y0.5581 
G01 X2.5595 Y0.5569 
G01 X2.6215 Y0.5569 
G01 X2.6274 Y0.5581 
G01 X2.6330 Y0.5604 
G01 X2.6380 Y0.5637 
G01 X2.6423 Y0.5680 
G01 X2.6455 Y0.5729 
G01 X2.7439 Y0.5729 
G01 X2.7883 Y0.5285 
G01 X2.7910 Y0.5258 
G01 X2.7944 Y0.5239 
G01 X2.7981 Y0.5229 
G01 X2.8533 Y0.5229 
G01 X2.8536 Y0.5221 
G01 X2.8572 Y0.5167 
G01 X2.8617 Y0.5122 
G01 X2.8671 Y0.5086 
G01 X2.8730 Y0.5062 
G01 X2.8793 Y0.5049 
G01 X2.9457 Y0.5049 
G01 X2.9520 Y0.5062 
G01 X2.9579 Y0.5086 
G01 X2.9633 Y0.5122 
G01 X2.9678 Y0.5167 
G01 X2.9714 Y0.5221 
G01 X2.9738 Y0.5280 
G01 X2.9751 Y0.5343 
G01 X2.9751 Y0.5407 
G01 X2.9738 Y0.5470 
G01 X2.9714 Y0.5529 
G01 X2.9678 Y0.5583 
G01 X2.9633 Y0.5628 
G01 X2.9579 Y0.5664 
G01 X2.9520 Y0.5688 
G01 X2.9457 Y0.5701 
G01 X2.8793 Y0.5701 
G01 X2.8730 Y0.5688 
G01 X2.8671 Y0.5664 
G01 X2.8617 Y0.5628 
G01 X2.8572 Y0.5583 
G01 X2.8536 Y0.5529 
G01 X2.8533 Y0.5521 
G01 X2.8060 Y0.5521 
G01 X2.7617 Y0.5965 
G01 X2.7590 Y0.5992 
G01 X2.7556 Y0.6011 
G01 X2.7519 Y0.6021 
G01 X2.6455 Y0.6021 
G01 X2.6423 Y0.6070 
G01 X2.6380 Y0.6113 
G01 X2.6330 Y0.6146 
G01 X2.6274 Y0.6169 
G01 X2.6215 Y0.6181 
G00 Z0.0200 
G00 X2.6215 Y0.5181 
G01 Z-0.0100 F10.00 
G01 X2.5595 Y0.5181 
G01 X2.5537 Y0.5169 
G01 X2.5146 Y0.5560 
G01 X2.5146 Y0.7189 
G01 X2.5537 Y0.7581 
G01 X2.5595 Y0.7569 
G01 X2.6215 Y0.7569 
G01 X2.6274 Y0.7581 
G01 X2.6330 Y0.7604 
G01 X2.6380 Y0.7637 
G01 X2.6423 Y0.7680 
G01 X2.6456 Y0.7730 
G01 X2.6479 Y0.7786 
G01 X2.6491 Y0.7845 
G01 X2.6491 Y0.7905 
G01 X2.6479 Y0.7964 
G01 X2.6456 Y0.8020 
G01 X2.6423 Y0.8070 
G01 X2.6380 Y0.8113 
G01 X2.6330 Y0.8146 
G01 X2.6274 Y0.8169 
G01 X2.6215 Y0.8181 
G01 X2.5595 Y0.8181 
G01 X2.5536 Y0.8169 
G01 X2.5480 Y0.8146 
G01 X2.5430 Y0.8113 
G01 X2.5387 Y0.8070 
G01 X2.5354 Y0.8020 
G01 X2.5331 Y0.7964 
G01 X2.5319 Y0.7905 
G01 X2.5319 Y0.7845 
G01 X2.5331 Y0.7787 
G01 X2.4883 Y0.7340 
G01 X2.4864 Y0.7306 
G01 X2.4854 Y0.7269 
G01 X2.4854 Y0.7231 
G01 X2.4854 Y0.5481 
G01 X2.4864 Y0.5444 
G01 X2.4883 Y0.5410 
G01 X2.4910 Y0.5383 
G01 X2.5331 Y0.4963 
G01 X2.5319 Y0.4905 
G01 X2.5319 Y0.4845 
G01 X2.5331 Y0.4786 
G01 X2.5354 Y0.4730 
G01 X2.5387 Y0.4680 
G01 X2.5430 Y0.4637 
G01 X2.5480 Y0.4604 
G01 X2.5536 Y0.4581 
G01 X2.5595 Y0.4569 
G01 X2.6215 Y0.4569 
G01 X2.6274 Y0.4581 
G01 X2.6330 Y0.4604 
G01 X2.6380 Y0.4637 
G01 X2.6423 Y0.4680 
G01 X2.6455 Y0.4729 
G01 X2.7439 Y0.4729 
G01 X2.7910 Y0.4258 
G01 X2.7944 Y0.4239 
G01 X2.7981 Y0.4229 
G01 X2.8019 Y0.4229 
G01 X2.8533 Y0.4229 
G01 X2.8536 Y0.4221 
G01 X2.8572 Y0.4167 
G01 X2.8617 Y0.4122 
G01 X2.8671 Y0.4086 
G01 X2.8730 Y0.4062 
G01 X2.8793 Y0.4049 
G01 X2.9457 Y0.4049 
G01 X2.9520 Y0.4062 
G01 X2.9579 Y0.4086 
G01 X2.9633 Y0.4122 
G01 X2.9678 Y0.4167 
G01 X2.9714 Y0.4221 
G01 X2.9738 Y0.4280 
G01 X2.9751 Y0.4343 
G01 X2.9751 Y0.4407 
G01 X2.9738 Y0.4470 
G01 X2.9714 Y0.4529 
G01 X2.9678 Y0.4583 
G01 X2.9633 Y0.4628 
G01 X2.9579 Y0.4664 
G01 X2.9520 Y0.4688 
G01 X2.9457 Y0.4701 
G01 X2.8793 Y0.4701 
G01 X2.8730 Y0.4688 
G01 X2.8671 Y0.4664 
G01 X2.8617 Y0.4628 
G01 X2.8572 Y0.4583 
G01 X2.8536 Y0.4529 
G01 X2.8533 Y0.4521 
G01 X2.8060 Y0.4521 
G01 X2.7617 Y0.4965 
G01 X2.7590 Y0.4992 
G01 X2.7556 Y0.5011 
G01 X2.7519 Y0.5021 
G01 X2.6455 Y0.5021 
G01 X2.6423 Y0.5070 
G01 X2.6380 Y0.5113 
G01 X2.6330 Y0.5146 
G01 X2.6274 Y0.5169 
G01 X2.6215 Y0.5181 
G00 Z0.0200 
G00 X2.2035 Y0.7569 
G01 Z-0.0100 F10.00 
G01 X2.2655 Y0.7569 
G01 X2.2714 Y0.7581 
G01 X2.2770 Y0.7604 
G01 X2.2820 Y0.7637 
G01 X2.2863 Y0.7680 
G01 X2.2896 Y0.7730 
G01 X2.2919 Y0.7786 
G01 X2.2931 Y0.7845 
G01 X2.2931 Y0.7905 
G01 X2.2919 Y0.7964 
G01 X2.2896 Y0.8020 
G01 X2.2863 Y0.8070 
G01 X2.2820 Y0.8113 
G01 X2.2770 Y0.8146 
G01 X2.2714 Y0.8169 
G01 X2.2655 Y0.8181 
G01 X2.2035 Y0.8181 
G01 X2.1976 Y0.8169 
G01 X2.1920 Y0.8146 
G01 X2.1870 Y0.8113 
G01 X2.1827 Y0.8070 
G01 X2.1794 Y0.8020 
G01 X2.1771 Y0.7964 
G01 X2.1759 Y0.7905 
G01 X2.1759 Y0.7845 
G01 X2.1771 Y0.7786 
G01 X2.1794 Y0.7730 
G01 X2.1827 Y0.7680 
G01 X2.1870 Y0.7637 
G01 X2.1920 Y0.7604 
G01 X2.1976 Y0.7581 
G01 X2.2035 Y0.7569 
G00 Z0.0200 
G00 X2.2035 Y0.8569 
G01 Z-0.0100 F10.00 
G01 X2.2655 Y0.8569 
G01 X2.2714 Y0.8581 
G01 X2.2770 Y0.8604 
G01 X2.2820 Y0.8637 
G01 X2.2863 Y0.8680 
G01 X2.2896 Y0.8730 
G01 X2.2919 Y0.8786 
G01 X2.2931 Y0.8845 
G01 X2.2931 Y0.8905 
G01 X2.2919 Y0.8964 
G01 X2.2896 Y0.9020 
G01 X2.2863 Y0.9070 
G01 X2.2820 Y0.9113 
G01 X2.2770 Y0.9146 
G01 X2.2714 Y0.9169 
G01 X2.2655 Y0.9181 
G01 X2.2035 Y0.9181 
G01 X2.1976 Y0.9169 
G01 X2.1920 Y0.9146 
G01 X2.1870 Y0.9113 
G01 X2.1827 Y0.9070 
G01 X2.1794 Y0.9020 
G01 X2.1771 Y0.8964 
G01 X2.1759 Y0.8905 
G01 X2.1759 Y0.8845 
G01 X2.1771 Y0.8786 
G01 X2.1794 Y0.8730 
G01 X2.1827 Y0.8680 
G01 X2.1870 Y0.8637 
G01 X2.1920 Y0.8604 
G01 X2.1976 Y0.8581 
G01 X2.2035 Y0.8569 
G00 Z0.0200 
G00 X2.2035 Y0.4569 
G01 Z-0.0100 F10.00 
G01 X2.2655 Y0.4569 
G01 X2.2714 Y0.4581 
G01 X2.2770 Y0.4604 
G01 X2.2820 Y0.4637 
G01 X2.2863 Y0.4680 
G01 X2.2896 Y0.4730 
G01 X2.2919 Y0.4786 
G01 X2.2931 Y0.4845 
G01 X2.2931 Y0.4905 
G01 X2.2919 Y0.4964 
G01 X2.2896 Y0.5020 
G01 X2.2863 Y0.5070 
G01 X2.2820 Y0.5113 
G01 X2.2770 Y0.5146 
G01 X2.2714 Y0.5169 
G01 X2.2655 Y0.5181 
G01 X2.2035 Y0.5181 
G01 X2.1976 Y0.5169 
G01 X2.1920 Y0.5146 
G01 X2.1870 Y0.5113 
G01 X2.1827 Y0.5070 
G01 X2.1794 Y0.5020 
G01 X2.1771 Y0.4964 
G01 X2.1759 Y0.4905 
G01 X2.1759 Y0.4845 
G01 X2.1771 Y0.4786 
G01 X2.1794 Y0.4730 
G01 X2.1827 Y0.4680 
G01 X2.1870 Y0.4637 
G01 X2.1920 Y0.4604 
G01 X2.1976 Y0.4581 
G01 X2.2035 Y0.4569 
G00 Z0.0200 
G00 X2.2035 Y1.0569 
G01 Z-0.0100 F10.00 
G01 X2.2655 Y1.0569 
G01 X2.2714 Y1.0581 
G01 X2.2770 Y1.0604 
G01 X2.2820 Y1.0637 
G01 X2.2863 Y1.0680 
G01 X2.2896 Y1.0730 
G01 X2.2919 Y1.0786 
G01 X2.2931 Y1.0845 
G01 X2.2931 Y1.0905 
G01 X2.2919 Y1.0964 
G01 X2.2896 Y1.1020 
G01 X2.2863 Y1.1070 
G01 X2.2820 Y1.1113 
G01 X2.2770 Y1.1146 
G01 X2.2714 Y1.1169 
G01 X2.2655 Y1.1181 
G01 X2.2035 Y1.1181 
G01 X2.1976 Y1.1169 
G01 X2.1920 Y1.1146 
G01 X2.1870 Y1.1113 
G01 X2.1857 Y1.1099 
G01 X2.1840 Y1.1117 
G01 X2.1806 Y1.1136 
G01 X2.1769 Y1.1146 
G01 X2.1731 Y1.1146 
G01 X2.1731 Y1.1146 
G01 X2.0537 Y1.1146 
G01 X2.0377 Y1.1306 
G01 X2.0123 Y1.1306 
G01 X1.9944 Y1.1127 
G01 X1.9944 Y1.0873 
G01 X2.0123 Y1.0694 
G01 X2.0377 Y1.0694 
G01 X2.0537 Y1.0854 
G01 X2.1689 Y1.0854 
G01 X2.1780 Y1.0764 
G01 X2.1794 Y1.0730 
G01 X2.1827 Y1.0680 
G01 X2.1870 Y1.0637 
G01 X2.1920 Y1.0604 
G01 X2.1976 Y1.0581 
G01 X2.2035 Y1.0569 
G00 Z0.0200 
G00 X2.2035 Y1.1569 
G01 Z-0.0100 F10.00 
G01 X2.2655 Y1.1569 
G01 X2.2714 Y1.1581 
G01 X2.2770 Y1.1604 
G01 X2.2820 Y1.1637 
G01 X2.2863 Y1.1680 
G01 X2.2896 Y1.1730 
G01 X2.2919 Y1.1786 
G01 X2.2931 Y1.1845 
G01 X2.2931 Y1.1905 
G01 X2.2919 Y1.1964 
G01 X2.2896 Y1.2020 
G01 X2.2863 Y1.2070 
G01 X2.2820 Y1.2113 
G01 X2.2770 Y1.2146 
G01 X2.2714 Y1.2169 
G01 X2.2655 Y1.2181 
G01 X2.2035 Y1.2181 
G01 X2.1976 Y1.2169 
G01 X2.1920 Y1.2146 
G01 X2.1870 Y1.2113 
G01 X2.1827 Y1.2070 
G01 X2.1794 Y1.2020 
G01 X2.1771 Y1.1964 
G01 X2.1759 Y1.1905 
G01 X2.1759 Y1.1845 
G01 X2.1771 Y1.1786 
G01 X2.1794 Y1.1730 
G01 X2.1827 Y1.1680 
G01 X2.1870 Y1.1637 
G01 X2.1920 Y1.1604 
G01 X2.1976 Y1.1581 
G01 X2.2035 Y1.1569 
G00 Z0.0200 
G00 X0.2931 Y0.6998 
G01 Z-0.0100 F10.00 
G01 X0.2931 Y0.7252 
G01 X0.2752 Y0.7431 
G01 X0.2498 Y0.7431 
G01 X0.2319 Y0.7252 
G01 X0.2319 Y0.6998 
G01 X0.2479 Y0.6838 
G01 X0.2479 Y0.6537 
G01 X0.2338 Y0.6396 
G01 X0.1968 Y0.6396 
G01 X0.1768 Y0.6596 
G01 X0.1482 Y0.6596 
G01 X0.1279 Y0.6393 
G01 X0.1279 Y0.6107 
G01 X0.1482 Y0.5904 
G01 X0.1768 Y0.5904 
G01 X0.1968 Y0.6104 
G01 X0.2338 Y0.6104 
G01 X0.2498 Y0.5944 
G01 X0.2752 Y0.5944 
G01 X0.2931 Y0.6123 
G01 X0.2931 Y0.6377 
G01 X0.2771 Y0.6537 
G01 X0.2771 Y0.6838 
G01 X0.2931 Y0.6998 
G00 Z0.0200 
G00 X0.2931 Y0.8748 
G01 Z-0.0100 F10.00 
G01 X0.2931 Y0.9002 
G01 X0.2752 Y0.9181 
G01 X0.2498 Y0.9181 
G01 X0.2319 Y0.9002 
G01 X0.2319 Y0.8748 
G01 X0.2479 Y0.8588 
G01 X0.2479 Y0.8287 
G01 X0.2338 Y0.8146 
G01 X0.1968 Y0.8146 
G01 X0.1768 Y0.8346 
G01 X0.1482 Y0.8346 
G01 X0.1279 Y0.8143 
G01 X0.1279 Y0.7857 
G01 X0.1482 Y0.7654 
G01 X0.1768 Y0.7654 
G01 X0.1968 Y0.7854 
G01 X0.2338 Y0.7854 
G01 X0.2498 Y0.7694 
G01 X0.2752 Y0.7694 
G01 X0.2931 Y0.7873 
G01 X0.2931 Y0.8127 
G01 X0.2771 Y0.8287 
G01 X0.2771 Y0.8588 
G01 X0.2931 Y0.8748 
G00 Z0.0200 
G00 X0.2931 Y0.9623 
G01 Z-0.0100 F10.00 
G01 X0.2931 Y0.9877 
G01 X0.2771 Y1.0037 
G01 X0.2771 Y1.0338 
G01 X0.2931 Y1.0498 
G01 X0.2931 Y1.0752 
G01 X0.2752 Y1.0931 
G01 X0.2498 Y1.0931 
G01 X0.2319 Y1.0752 
G01 X0.2319 Y1.0498 
G01 X0.2479 Y1.0338 
G01 X0.2479 Y1.0037 
G01 X0.2338 Y0.9896 
G01 X0.1968 Y0.9896 
G01 X0.1768 Y1.0096 
G01 X0.1482 Y1.0096 
G01 X0.1279 Y0.9893 
G01 X0.1279 Y0.9607 
G01 X0.1482 Y0.9404 
G01 X0.1768 Y0.9404 
G01 X0.1968 Y0.9604 
G01 X0.2338 Y0.9604 
G01 X0.2498 Y0.9444 
G01 X0.2752 Y0.9444 
G01 X0.2931 Y0.9623 
G00 Z0.0200 
G00 X0.2931 Y1.1373 
G01 Z-0.0100 F10.00 
G01 X0.2931 Y1.1627 
G01 X0.2771 Y1.1787 
G01 X0.2771 Y1.2088 
G01 X0.2931 Y1.2248 
G01 X0.2931 Y1.2502 
G01 X0.2752 Y1.2681 
G01 X0.2498 Y1.2681 
G01 X0.2319 Y1.2502 
G01 X0.2319 Y1.2248 
G01 X0.2479 Y1.2088 
G01 X0.2479 Y1.1787 
G01 X0.2338 Y1.1646 
G01 X0.1968 Y1.1646 
G01 X0.1768 Y1.1846 
G01 X0.1482 Y1.1846 
G01 X0.1279 Y1.1643 
G01 X0.1279 Y1.1357 
G01 X0.1482 Y1.1154 
G01 X0.1768 Y1.1154 
G01 X0.1968 Y1.1354 
G01 X0.2338 Y1.1354 
G01 X0.2498 Y1.1194 
G01 X0.2752 Y1.1194 
G01 X0.2931 Y1.1373 
G00 Z0.0200 
G00 X0.2931 Y1.3123 
G01 Z-0.0100 F10.00 
G01 X0.2931 Y1.3377 
G01 X0.2771 Y1.3537 
G01 X0.2771 Y1.3838 
G01 X0.2931 Y1.3998 
G01 X0.2931 Y1.4252 
G01 X0.2752 Y1.4431 
G01 X0.2498 Y1.4431 
G01 X0.2319 Y1.4252 
G01 X0.2319 Y1.3998 
G01 X0.2479 Y1.3838 
G01 X0.2479 Y1.3537 
G01 X0.2338 Y1.3396 
G01 X0.1968 Y1.3396 
G01 X0.1768 Y1.3596 
G01 X0.1482 Y1.3596 
G01 X0.1279 Y1.3393 
G01 X0.1279 Y1.3107 
G01 X0.1482 Y1.2904 
G01 X0.1768 Y1.2904 
G01 X0.1968 Y1.3104 
G01 X0.2338 Y1.3104 
G01 X0.2498 Y1.2944 
G01 X0.2752 Y1.2944 
G01 X0.2931 Y1.3123 
G00 Z0.0200 
G00 X0.2931 Y1.5748 
G01 Z-0.0100 F10.00 
G01 X0.2931 Y1.6002 
G01 X0.2752 Y1.6181 
G01 X0.2498 Y1.6181 
G01 X0.2319 Y1.6002 
G01 X0.2319 Y1.5748 
G01 X0.2479 Y1.5588 
G01 X0.2479 Y1.5287 
G01 X0.2338 Y1.5146 
G01 X0.1968 Y1.5146 
G01 X0.1768 Y1.5346 
G01 X0.1482 Y1.5346 
G01 X0.1279 Y1.5143 
G01 X0.1279 Y1.4857 
G01 X0.1482 Y1.4654 
G01 X0.1768 Y1.4654 
G01 X0.1968 Y1.4854 
G01 X0.2338 Y1.4854 
G01 X0.2498 Y1.4694 
G01 X0.2752 Y1.4694 
G01 X0.2931 Y1.4873 
G01 X0.2931 Y1.5127 
G01 X0.2771 Y1.5287 
G01 X0.2771 Y1.5588 
G01 X0.2931 Y1.5748 
G00 Z0.0200 
G00 X1.3346 Y0.0646 
G01 Z-0.0100 F10.00 
G01 X1.3346 Y0.1354 
G01 X1.3333 Y0.1421 
G01 X1.3307 Y0.1484 
G01 X1.3269 Y0.1541 
G01 X1.3221 Y0.1589 
G01 X1.3164 Y0.1627 
G01 X1.3101 Y0.1653 
G01 X1.3034 Y0.1666 
G01 X1.2966 Y0.1666 
G01 X1.2899 Y0.1653 
G01 X1.2836 Y0.1627 
G01 X1.2779 Y0.1589 
G01 X1.2731 Y0.1541 
G01 X1.2693 Y0.1484 
G01 X1.2667 Y0.1421 
G01 X1.2654 Y0.1354 
G01 X1.2654 Y0.0646 
G01 X1.2667 Y0.0579 
G01 X1.2693 Y0.0516 
G01 X1.2731 Y0.0459 
G01 X1.2779 Y0.0411 
G01 X1.2836 Y0.0373 
G01 X1.2899 Y0.0347 
G01 X1.2966 Y0.0334 
G01 X1.3034 Y0.0334 
G01 X1.3101 Y0.0347 
G01 X1.3164 Y0.0373 
G01 X1.3221 Y0.0411 
G01 X1.3269 Y0.0459 
G01 X1.3307 Y0.0516 
G01 X1.3333 Y0.0579 
G01 X1.3346 Y0.0646 
G00 Z0.0200 
G00 X1.4346 Y0.0646 
G01 Z-0.0100 F10.00 
G01 X1.4346 Y0.1354 
G01 X1.4333 Y0.1421 
G01 X1.4307 Y0.1484 
G01 X1.4269 Y0.1541 
G01 X1.4221 Y0.1589 
G01 X1.4164 Y0.1627 
G01 X1.4101 Y0.1653 
G01 X1.4034 Y0.1666 
G01 X1.3966 Y0.1666 
G01 X1.3899 Y0.1653 
G01 X1.3836 Y0.1627 
G01 X1.3779 Y0.1589 
G01 X1.3731 Y0.1541 
G01 X1.3693 Y0.1484 
G01 X1.3667 Y0.1421 
G01 X1.3654 Y0.1354 
G01 X1.3654 Y0.0646 
G01 X1.3667 Y0.0579 
G01 X1.3693 Y0.0516 
G01 X1.3731 Y0.0459 
G01 X1.3779 Y0.0411 
G01 X1.3836 Y0.0373 
G01 X1.3899 Y0.0347 
G01 X1.3966 Y0.0334 
G01 X1.4034 Y0.0334 
G01 X1.4101 Y0.0347 
G01 X1.4164 Y0.0373 
G01 X1.4221 Y0.0411 
G01 X1.4269 Y0.0459 
G01 X1.4307 Y0.0516 
G01 X1.4333 Y0.0579 
G01 X1.4346 Y0.0646 
G00 Z0.0200 
G00 X1.5346 Y0.0646 
G01 Z-0.0100 F10.00 
G01 X1.5346 Y0.1354 
G01 X1.5333 Y0.1421 
G01 X1.5307 Y0.1484 
G01 X1.5269 Y0.1541 
G01 X1.5221 Y0.1589 
G01 X1.5164 Y0.1627 
G01 X1.5146 Y0.1634 
G01 X1.5146 Y0.3354 
G01 X1.5981 Y0.3354 
G01 X1.6019 Y0.3354 
G01 X1.6056 Y0.3364 
G01 X1.6090 Y0.3383 
G01 X1.7150 Y0.4444 
G01 X1.7377 Y0.4444 
G01 X1.7556 Y0.4623 
G01 X1.7556 Y0.4877 
G01 X1.7377 Y0.5056 
G01 X1.7123 Y0.5056 
G01 X1.6944 Y0.4877 
G01 X1.6944 Y0.4650 
G01 X1.5939 Y0.3646 
G01 X1.5019 Y0.3646 
G01 X1.4981 Y0.3646 
G01 X0.1685 Y0.3646 
G01 X0.0771 Y0.4560 
G01 X0.0771 Y0.6838 
G01 X0.0931 Y0.6998 
G01 X0.0931 Y0.7252 
G01 X0.0771 Y0.7412 
G01 X0.0771 Y0.8588 
G01 X0.0931 Y0.8748 
G01 X0.0931 Y0.9002 
G01 X0.0771 Y0.9162 
G01 X0.0771 Y1.0338 
G01 X0.0931 Y1.0498 
G01 X0.0931 Y1.0752 
G01 X0.0771 Y1.0912 
G01 X0.0771 Y1.2088 
G01 X0.0931 Y1.2248 
G01 X0.0931 Y1.2502 
G01 X0.0771 Y1.2662 
G01 X0.0771 Y1.3838 
G01 X0.0931 Y1.3998 
G01 X0.0931 Y1.4252 
G01 X0.0771 Y1.4412 
G01 X0.0771 Y1.5588 
G01 X0.0931 Y1.5748 
G01 X0.0931 Y1.6002 
G01 X0.0771 Y1.6162 
G01 X0.0771 Y2.0315 
G01 X0.1685 Y2.1229 
G01 X2.9439 Y2.1229 
G01 X3.0729 Y1.9939 
G01 X3.0729 Y1.4646 
G01 X2.9717 Y1.4646 
G01 X2.9714 Y1.4654 
G01 X2.9678 Y1.4708 
G01 X2.9633 Y1.4753 
G01 X2.9579 Y1.4789 
G01 X2.9520 Y1.4813 
G01 X2.9457 Y1.4826 
G01 X2.8793 Y1.4826 
G01 X2.8730 Y1.4813 
G01 X2.8671 Y1.4789 
G01 X2.8617 Y1.4753 
G01 X2.8572 Y1.4708 
G01 X2.8536 Y1.4654 
G01 X2.8512 Y1.4595 
G01 X2.8499 Y1.4532 
G01 X2.8499 Y1.4468 
G01 X2.8512 Y1.4405 
G01 X2.8536 Y1.4346 
G01 X2.8572 Y1.4292 
G01 X2.8617 Y1.4247 
G01 X2.8671 Y1.4211 
G01 X2.8730 Y1.4187 
G01 X2.8793 Y1.4174 
G01 X2.9457 Y1.4174 
G01 X2.9520 Y1.4187 
G01 X2.9579 Y1.4211 
G01 X2.9633 Y1.4247 
G01 X2.9678 Y1.4292 
G01 X2.9714 Y1.4346 
G01 X2.9717 Y1.4354 
G01 X3.0729 Y1.4354 
G01 X3.0729 Y1.1935 
G01 X2.9814 Y1.1021 
G01 X2.9717 Y1.1021 
G01 X2.9714 Y1.1029 
G01 X2.9678 Y1.1083 
G01 X2.9633 Y1.1128 
G01 X2.9579 Y1.1164 
G01 X2.9520 Y1.1188 
G01 X2.9457 Y1.1201 
G01 X2.8793 Y1.1201 
G01 X2.8730 Y1.1188 
G01 X2.8671 Y1.1164 
G01 X2.8617 Y1.1128 
G01 X2.8572 Y1.1083 
G01 X2.8536 Y1.1029 
G01 X2.8512 Y1.0970 
G01 X2.8499 Y1.0907 
G01 X2.8499 Y1.0843 
G01 X2.8512 Y1.0780 
G01 X2.8536 Y1.0721 
G01 X2.8572 Y1.0667 
G01 X2.8617 Y1.0622 
G01 X2.8671 Y1.0586 
G01 X2.8730 Y1.0562 
G01 X2.8793 Y1.0549 
G01 X2.9457 Y1.0549 
G01 X2.9520 Y1.0562 
G01 X2.9579 Y1.0586 
G01 X2.9633 Y1.0622 
G01 X2.9678 Y1.0667 
G01 X2.9714 Y1.0721 
G01 X2.9717 Y1.0729 
G01 X2.9894 Y1.0729 
G01 X2.9931 Y1.0739 
G01 X2.9965 Y1.0758 
G01 X2.9992 Y1.0785 
G01 X3.0992 Y1.1785 
G01 X3.1011 Y1.1819 
G01 X3.1021 Y1.1856 
G01 X3.1021 Y1.1894 
G01 X3.1021 Y1.4481 
G01 X3.1021 Y1.4519 
G01 X3.1021 Y1.9981 
G01 X3.1021 Y2.0019 
G01 X3.1011 Y2.0056 
G01 X3.0992 Y2.0090 
G01 X2.9617 Y2.1465 
G01 X2.9590 Y2.1492 
G01 X2.9556 Y2.1511 
G01 X2.9519 Y2.1521 
G01 X0.1606 Y2.1521 
G01 X0.1569 Y2.1511 
G01 X0.1535 Y2.1492 
G01 X0.1508 Y2.1465 
G01 X0.1508 Y2.1465 
G01 X0.0535 Y2.0492 
G01 X0.0535 Y2.0492 
G01 X0.0508 Y2.0465 
G01 X0.0489 Y2.0431 
G01 X0.0479 Y2.0394 
G01 X0.0479 Y1.6162 
G01 X0.0319 Y1.6002 
G01 X0.0319 Y1.5748 
G01 X0.0479 Y1.5588 
G01 X0.0479 Y1.4412 
G01 X0.0319 Y1.4252 
G01 X0.0319 Y1.3998 
G01 X0.0479 Y1.3838 
G01 X0.0479 Y1.2662 
G01 X0.0319 Y1.2502 
G01 X0.0319 Y1.2248 
G01 X0.0479 Y1.2088 
G01 X0.0479 Y1.0912 
G01 X0.0319 Y1.0752 
G01 X0.0319 Y1.0498 
G01 X0.0479 Y1.0338 
G01 X0.0479 Y0.9162 
G01 X0.0319 Y0.9002 
G01 X0.0319 Y0.8748 
G01 X0.0479 Y0.8588 
G01 X0.0479 Y0.7412 
G01 X0.0319 Y0.7252 
G01 X0.0319 Y0.6998 
G01 X0.0479 Y0.6838 
G01 X0.0479 Y0.4519 
G01 X0.0479 Y0.4481 
G01 X0.0489 Y0.4444 
G01 X0.0508 Y0.4410 
G01 X0.1508 Y0.3410 
G01 X0.1535 Y0.3383 
G01 X0.1569 Y0.3364 
G01 X0.1606 Y0.3354 
G01 X1.4854 Y0.3354 
G01 X1.4854 Y0.1634 
G01 X1.4836 Y0.1627 
G01 X1.4779 Y0.1589 
G01 X1.4731 Y0.1541 
G01 X1.4693 Y0.1484 
G01 X1.4667 Y0.1421 
G01 X1.4654 Y0.1354 
G01 X1.4654 Y0.0646 
G01 X1.4667 Y0.0579 
G01 X1.4693 Y0.0516 
G01 X1.4731 Y0.0459 
G01 X1.4779 Y0.0411 
G01 X1.4836 Y0.0373 
G01 X1.4899 Y0.0347 
G01 X1.4966 Y0.0334 
G01 X1.5034 Y0.0334 
G01 X1.5101 Y0.0347 
G01 X1.5164 Y0.0373 
G01 X1.5221 Y0.0411 
G01 X1.5269 Y0.0459 
G01 X1.5307 Y0.0516 
G01 X1.5333 Y0.0579 
G01 X1.5346 Y0.0646 
G00 Z0.0200 
G00 X1.8346 Y0.0646 
G01 Z-0.0100 F10.00 
G01 X1.8346 Y0.1354 
G01 X1.8333 Y0.1421 
G01 X1.8307 Y0.1484 
G01 X1.8269 Y0.1541 
G01 X1.8221 Y0.1589 
G01 X1.8164 Y0.1627 
G01 X1.8101 Y0.1653 
G01 X1.8034 Y0.1666 
G01 X1.7966 Y0.1666 
G01 X1.7899 Y0.1653 
G01 X1.7836 Y0.1627 
G01 X1.7779 Y0.1589 
G01 X1.7731 Y0.1541 
G01 X1.7693 Y0.1484 
G01 X1.7667 Y0.1421 
G01 X1.7654 Y0.1354 
G01 X1.7654 Y0.0646 
G01 X1.7667 Y0.0579 
G01 X1.7693 Y0.0516 
G01 X1.7731 Y0.0459 
G01 X1.7779 Y0.0411 
G01 X1.7836 Y0.0373 
G01 X1.7899 Y0.0347 
G01 X1.7966 Y0.0334 
G01 X1.8034 Y0.0334 
G01 X1.8101 Y0.0347 
G01 X1.8164 Y0.0373 
G01 X1.8221 Y0.0411 
G01 X1.8269 Y0.0459 
G01 X1.8307 Y0.0516 
G01 X1.8333 Y0.0579 
G01 X1.8346 Y0.0646 
G00 Z0.0200 
G00 X2.4654 Y2.0354 
G01 Z-0.0100 F10.00 
G01 X2.4654 Y1.9646 
G01 X2.4667 Y1.9579 
G01 X2.4693 Y1.9516 
G01 X2.4731 Y1.9459 
G01 X2.4779 Y1.9411 
G01 X2.4836 Y1.9373 
G01 X2.4899 Y1.9347 
G01 X2.4966 Y1.9334 
G01 X2.5034 Y1.9334 
G01 X2.5101 Y1.9347 
G01 X2.5164 Y1.9373 
G01 X2.5221 Y1.9411 
G01 X2.5269 Y1.9459 
G01 X2.5307 Y1.9516 
G01 X2.5333 Y1.9579 
G01 X2.5346 Y1.9646 
G01 X2.5346 Y2.0354 
G01 X2.5333 Y2.0421 
G01 X2.5307 Y2.0484 
G01 X2.5269 Y2.0541 
G01 X2.5221 Y2.0589 
G01 X2.5164 Y2.0627 
G01 X2.5101 Y2.0653 
G01 X2.5034 Y2.0666 
G01 X2.4966 Y2.0666 
G01 X2.4899 Y2.0653 
G01 X2.4836 Y2.0627 
G01 X2.4779 Y2.0589 
G01 X2.4731 Y2.0541 
G01 X2.4693 Y2.0484 
G01 X2.4667 Y2.0421 
G01 X2.4654 Y2.0354 
G00 Z0.0200 
G00 X2.3654 Y2.0354 
G01 Z-0.0100 F10.00 
G01 X2.3654 Y1.9646 
G01 X2.3667 Y1.9579 
G01 X2.3693 Y1.9516 
G01 X2.3731 Y1.9459 
G01 X2.3779 Y1.9411 
G01 X2.3836 Y1.9373 
G01 X2.3899 Y1.9347 
G01 X2.3966 Y1.9334 
G01 X2.4034 Y1.9334 
G01 X2.4101 Y1.9347 
G01 X2.4164 Y1.9373 
G01 X2.4221 Y1.9411 
G01 X2.4269 Y1.9459 
G01 X2.4307 Y1.9516 
G01 X2.4333 Y1.9579 
G01 X2.4346 Y1.9646 
G01 X2.4346 Y2.0354 
G01 X2.4333 Y2.0421 
G01 X2.4307 Y2.0484 
G01 X2.4269 Y2.0541 
G01 X2.4221 Y2.0589 
G01 X2.4164 Y2.0627 
G01 X2.4101 Y2.0653 
G01 X2.4034 Y2.0666 
G01 X2.3966 Y2.0666 
G01 X2.3899 Y2.0653 
G01 X2.3836 Y2.0627 
G01 X2.3779 Y2.0589 
G01 X2.3731 Y2.0541 
G01 X2.3693 Y2.0484 
G01 X2.3667 Y2.0421 
G01 X2.3654 Y2.0354 
G00 Z0.0200 
G00 X2.2654 Y2.0354 
G01 Z-0.0100 F10.00 
G01 X2.2654 Y1.9646 
G01 X2.2667 Y1.9579 
G01 X2.2693 Y1.9516 
G01 X2.2731 Y1.9459 
G01 X2.2779 Y1.9411 
G01 X2.2836 Y1.9373 
G01 X2.2899 Y1.9347 
G01 X2.2966 Y1.9334 
G01 X2.3034 Y1.9334 
G01 X2.3101 Y1.9347 
G01 X2.3164 Y1.9373 
G01 X2.3221 Y1.9411 
G01 X2.3269 Y1.9459 
G01 X2.3307 Y1.9516 
G01 X2.3333 Y1.9579 
G01 X2.3346 Y1.9646 
G01 X2.3346 Y2.0354 
G01 X2.3333 Y2.0421 
G01 X2.3307 Y2.0484 
G01 X2.3269 Y2.0541 
G01 X2.3221 Y2.0589 
G01 X2.3164 Y2.0627 
G01 X2.3101 Y2.0653 
G01 X2.3034 Y2.0666 
G01 X2.2966 Y2.0666 
G01 X2.2899 Y2.0653 
G01 X2.2836 Y2.0627 
G01 X2.2779 Y2.0589 
G01 X2.2731 Y2.0541 
G01 X2.2693 Y2.0484 
G01 X2.2667 Y2.0421 
G01 X2.2654 Y2.0354 
G00 Z0.0200 
G00 X2.1654 Y2.0354 
G01 Z-0.0100 F10.00 
G01 X2.1654 Y1.9646 
G01 X2.1667 Y1.9579 
G01 X2.1693 Y1.9516 
G01 X2.1731 Y1.9459 
G01 X2.1779 Y1.9411 
G01 X2.1836 Y1.9373 
G01 X2.1899 Y1.9347 
G01 X2.1966 Y1.9334 
G01 X2.2034 Y1.9334 
G01 X2.2101 Y1.9347 
G01 X2.2164 Y1.9373 
G01 X2.2221 Y1.9411 
G01 X2.2269 Y1.9459 
G01 X2.2307 Y1.9516 
G01 X2.2333 Y1.9579 
G01 X2.2346 Y1.9646 
G01 X2.2346 Y2.0354 
G01 X2.2333 Y2.0421 
G01 X2.2307 Y2.0484 
G01 X2.2269 Y2.0541 
G01 X2.2221 Y2.0589 
G01 X2.2164 Y2.0627 
G01 X2.2101 Y2.0653 
G01 X2.2034 Y2.0666 
G01 X2.1966 Y2.0666 
G01 X2.1899 Y2.0653 
G01 X2.1836 Y2.0627 
G01 X2.1779 Y2.0589 
G01 X2.1731 Y2.0541 
G01 X2.1693 Y2.0484 
G01 X2.1667 Y2.0421 
G01 X2.1654 Y2.0354 
G00 Z0.0200 
G00 X2.0654 Y2.0354 
G01 Z-0.0100 F10.00 
G01 X2.0654 Y1.9646 
G01 X2.0667 Y1.9579 
G01 X2.0693 Y1.9516 
G01 X2.0731 Y1.9459 
G01 X2.0779 Y1.9411 
G01 X2.0836 Y1.9373 
G01 X2.0899 Y1.9347 
G01 X2.0966 Y1.9334 
G01 X2.1034 Y1.9334 
G01 X2.1101 Y1.9347 
G01 X2.1164 Y1.9373 
G01 X2.1221 Y1.9411 
G01 X2.1269 Y1.9459 
G01 X2.1307 Y1.9516 
G01 X2.1333 Y1.9579 
G01 X2.1346 Y1.9646 
G01 X2.1346 Y2.0354 
G01 X2.1333 Y2.0421 
G01 X2.1307 Y2.0484 
G01 X2.1269 Y2.0541 
G01 X2.1221 Y2.0589 
G01 X2.1164 Y2.0627 
G01 X2.1101 Y2.0653 
G01 X2.1034 Y2.0666 
G01 X2.0966 Y2.0666 
G01 X2.0899 Y2.0653 
G01 X2.0836 Y2.0627 
G01 X2.0779 Y2.0589 
G01 X2.0731 Y2.0541 
G01 X2.0693 Y2.0484 
G01 X2.0667 Y2.0421 
G01 X2.0654 Y2.0354 
G00 Z0.0200 
G00 X1.7654 Y2.0354 
G01 Z-0.0100 F10.00 
G01 X1.7654 Y1.9646 
G01 X1.7667 Y1.9579 
G01 X1.7693 Y1.9516 
G01 X1.7731 Y1.9459 
G01 X1.7779 Y1.9411 
G01 X1.7836 Y1.9373 
G01 X1.7899 Y1.9347 
G01 X1.7966 Y1.9334 
G01 X1.8034 Y1.9334 
G01 X1.8101 Y1.9347 
G01 X1.8164 Y1.9373 
G01 X1.8221 Y1.9411 
G01 X1.8269 Y1.9459 
G01 X1.8307 Y1.9516 
G01 X1.8333 Y1.9579 
G01 X1.8346 Y1.9646 
G01 X1.8346 Y2.0354 
G01 X1.8333 Y2.0421 
G01 X1.8307 Y2.0484 
G01 X1.8269 Y2.0541 
G01 X1.8221 Y2.0589 
G01 X1.8164 Y2.0627 
G01 X1.8101 Y2.0653 
G01 X1.8034 Y2.0666 
G01 X1.7966 Y2.0666 
G01 X1.7899 Y2.0653 
G01 X1.7836 Y2.0627 
G01 X1.7779 Y2.0589 
G01 X1.7731 Y2.0541 
G01 X1.7693 Y2.0484 
G01 X1.7667 Y2.0421 
G01 X1.7654 Y2.0354 
G00 Z0.0200 
G00 X1.1054 Y2.0354 
G01 Z-0.0100 F10.00 
G01 X1.1054 Y1.9646 
G01 X1.1067 Y1.9579 
G01 X1.1093 Y1.9516 
G01 X1.1131 Y1.9459 
G01 X1.1179 Y1.9411 
G01 X1.1236 Y1.9373 
G01 X1.1299 Y1.9347 
G01 X1.1366 Y1.9334 
G01 X1.1434 Y1.9334 
G01 X1.1501 Y1.9347 
G01 X1.1564 Y1.9373 
G01 X1.1621 Y1.9411 
G01 X1.1669 Y1.9459 
G01 X1.1707 Y1.9516 
G01 X1.1733 Y1.9579 
G01 X1.1746 Y1.9646 
G01 X1.1746 Y2.0354 
G01 X1.1733 Y2.0421 
G01 X1.1707 Y2.0484 
G01 X1.1669 Y2.0541 
G01 X1.1621 Y2.0589 
G01 X1.1564 Y2.0627 
G01 X1.1501 Y2.0653 
G01 X1.1434 Y2.0666 
G01 X1.1366 Y2.0666 
G01 X1.1299 Y2.0653 
G01 X1.1236 Y2.0627 
G01 X1.1179 Y2.0589 
G01 X1.1131 Y2.0541 
G01 X1.1093 Y2.0484 
G01 X1.1067 Y2.0421 
G01 X1.1054 Y2.0354 
G00 Z0.0200 
G00 X1.0054 Y2.0354 
G01 Z-0.0100 F10.00 
G01 X1.0054 Y1.9646 
G01 X1.0067 Y1.9579 
G01 X1.0093 Y1.9516 
G01 X1.0131 Y1.9459 
G01 X1.0179 Y1.9411 
G01 X1.0236 Y1.9373 
G01 X1.0299 Y1.9347 
G01 X1.0366 Y1.9334 
G01 X1.0434 Y1.9334 
G01 X1.0501 Y1.9347 
G01 X1.0564 Y1.9373 
G01 X1.0621 Y1.9411 
G01 X1.0669 Y1.9459 
G01 X1.0707 Y1.9516 
G01 X1.0733 Y1.9579 
G01 X1.0746 Y1.9646 
G01 X1.0746 Y2.0354 
G01 X1.0733 Y2.0421 
G01 X1.0707 Y2.0484 
G01 X1.0669 Y2.0541 
G01 X1.0621 Y2.0589 
G01 X1.0564 Y2.0627 
G01 X1.0501 Y2.0653 
G01 X1.0434 Y2.0666 
G01 X1.0366 Y2.0666 
G01 X1.0299 Y2.0653 
G01 X1.0236 Y2.0627 
G01 X1.0179 Y2.0589 
G01 X1.0131 Y2.0541 
G01 X1.0093 Y2.0484 
G01 X1.0067 Y2.0421 
G01 X1.0054 Y2.0354 
G00 Z0.0200 
G00 X0.9054 Y2.0354 
G01 Z-0.0100 F10.00 
G01 X0.9054 Y1.9646 
G01 X0.9067 Y1.9579 
G01 X0.9093 Y1.9516 
G01 X0.9131 Y1.9459 
G01 X0.9179 Y1.9411 
G01 X0.9236 Y1.9373 
G01 X0.9299 Y1.9347 
G01 X0.9366 Y1.9334 
G01 X0.9434 Y1.9334 
G01 X0.9501 Y1.9347 
G01 X0.9564 Y1.9373 
G01 X0.9621 Y1.9411 
G01 X0.9669 Y1.9459 
G01 X0.9707 Y1.9516 
G01 X0.9733 Y1.9579 
G01 X0.9746 Y1.9646 
G01 X0.9746 Y2.0354 
G01 X0.9733 Y2.0421 
G01 X0.9707 Y2.0484 
G01 X0.9669 Y2.0541 
G01 X0.9621 Y2.0589 
G01 X0.9564 Y2.0627 
G01 X0.9501 Y2.0653 
G01 X0.9434 Y2.0666 
G01 X0.9366 Y2.0666 
G01 X0.9299 Y2.0653 
G01 X0.9236 Y2.0627 
G01 X0.9179 Y2.0589 
G01 X0.9131 Y2.0541 
G01 X0.9093 Y2.0484 
G01 X0.9067 Y2.0421 
G01 X0.9054 Y2.0354 
G00 Z0.0200 
G00 X2.0346 Y0.0646 
G01 Z-0.0100 F10.00 
G01 X2.0346 Y0.1354 
G01 X2.0333 Y0.1421 
G01 X2.0307 Y0.1484 
G01 X2.0269 Y0.1541 
G01 X2.0221 Y0.1589 
G01 X2.0164 Y0.1627 
G01 X2.0146 Y0.1634 
G01 X2.0146 Y0.2657 
G01 X2.0346 Y0.2857 
G01 X2.0346 Y0.3143 
G01 X2.0143 Y0.3346 
G01 X1.9857 Y0.3346 
G01 X1.9654 Y0.3143 
G01 X1.9654 Y0.2857 
G01 X1.9854 Y0.2657 
G01 X1.9854 Y0.1634 
G01 X1.9836 Y0.1627 
G01 X1.9779 Y0.1589 
G01 X1.9731 Y0.1541 
G01 X1.9693 Y0.1484 
G01 X1.9667 Y0.1421 
G01 X1.9654 Y0.1354 
G01 X1.9654 Y0.0646 
G01 X1.9667 Y0.0579 
G01 X1.9693 Y0.0516 
G01 X1.9731 Y0.0459 
G01 X1.9779 Y0.0411 
G01 X1.9836 Y0.0373 
G01 X1.9899 Y0.0347 
G01 X1.9966 Y0.0334 
G01 X2.0034 Y0.0334 
G01 X2.0101 Y0.0347 
G01 X2.0164 Y0.0373 
G01 X2.0221 Y0.0411 
G01 X2.0269 Y0.0459 
G01 X2.0307 Y0.0516 
G01 X2.0333 Y0.0579 
G01 X2.0346 Y0.0646 
G00 Z0.0200 
G00 X2.1346 Y0.0646 
G01 Z-0.0100 F10.00 
G01 X2.1346 Y0.1354 
G01 X2.1333 Y0.1421 
G01 X2.1307 Y0.1484 
G01 X2.1269 Y0.1541 
G01 X2.1221 Y0.1589 
G01 X2.1164 Y0.1627 
G01 X2.1146 Y0.1634 
G01 X2.1146 Y0.4019 
G01 X2.1136 Y0.4056 
G01 X2.1117 Y0.4090 
G01 X2.1090 Y0.4117 
G01 X2.0556 Y0.4650 
G01 X2.0556 Y0.4877 
G01 X2.0396 Y0.5037 
G01 X2.0396 Y0.5713 
G01 X2.0556 Y0.5873 
G01 X2.0556 Y0.6127 
G01 X2.0377 Y0.6306 
G01 X2.0123 Y0.6306 
G01 X1.9944 Y0.6127 
G01 X1.9944 Y0.5873 
G01 X2.0104 Y0.5713 
G01 X2.0104 Y0.5037 
G01 X1.9944 Y0.4877 
G01 X1.9944 Y0.4623 
G01 X2.0123 Y0.4444 
G01 X2.0350 Y0.4444 
G01 X2.0854 Y0.3939 
G01 X2.0854 Y0.1634 
G01 X2.0836 Y0.1627 
G01 X2.0779 Y0.1589 
G01 X2.0731 Y0.1541 
G01 X2.0693 Y0.1484 
G01 X2.0667 Y0.1421 
G01 X2.0654 Y0.1354 
G01 X2.0654 Y0.0646 
G01 X2.0667 Y0.0579 
G01 X2.0693 Y0.0516 
G01 X2.0731 Y0.0459 
G01 X2.0779 Y0.0411 
G01 X2.0836 Y0.0373 
G01 X2.0899 Y0.0347 
G01 X2.0966 Y0.0334 
G01 X2.1034 Y0.0334 
G01 X2.1101 Y0.0347 
G01 X2.1164 Y0.0373 
G01 X2.1221 Y0.0411 
G01 X2.1269 Y0.0459 
G01 X2.1307 Y0.0516 
G01 X2.1333 Y0.0579 
G01 X2.1346 Y0.0646 
G00 Z0.0200 
G00 X2.2346 Y0.0646 
G01 Z-0.0100 F10.00 
G01 X2.2346 Y0.1354 
G01 X2.2333 Y0.1421 
G01 X2.2307 Y0.1484 
G01 X2.2269 Y0.1541 
G01 X2.2221 Y0.1589 
G01 X2.2164 Y0.1627 
G01 X2.2101 Y0.1653 
G01 X2.2034 Y0.1666 
G01 X2.1966 Y0.1666 
G01 X2.1899 Y0.1653 
G01 X2.1836 Y0.1627 
G01 X2.1779 Y0.1589 
G01 X2.1731 Y0.1541 
G01 X2.1693 Y0.1484 
G01 X2.1667 Y0.1421 
G01 X2.1654 Y0.1354 
G01 X2.1654 Y0.0646 
G01 X2.1667 Y0.0579 
G01 X2.1693 Y0.0516 
G01 X2.1731 Y0.0459 
G01 X2.1779 Y0.0411 
G01 X2.1836 Y0.0373 
G01 X2.1899 Y0.0347 
G01 X2.1966 Y0.0334 
G01 X2.2034 Y0.0334 
G01 X2.2101 Y0.0347 
G01 X2.2164 Y0.0373 
G01 X2.2221 Y0.0411 
G01 X2.2269 Y0.0459 
G01 X2.2307 Y0.0516 
G01 X2.2333 Y0.0579 
G01 X2.2346 Y0.0646 
G00 Z0.0200 
G00 X2.3346 Y0.0646 
G01 Z-0.0100 F10.00 
G01 X2.3346 Y0.1354 
G01 X2.3333 Y0.1421 
G01 X2.3307 Y0.1484 
G01 X2.3269 Y0.1541 
G01 X2.3221 Y0.1589 
G01 X2.3164 Y0.1627 
G01 X2.3146 Y0.1634 
G01 X2.3146 Y0.3019 
G01 X2.3136 Y0.3056 
G01 X2.3117 Y0.3090 
G01 X2.3090 Y0.3117 
G01 X2.3090 Y0.3117 
G01 X2.1021 Y0.5185 
G01 X2.1021 Y0.6394 
G01 X2.1011 Y0.6431 
G01 X2.0992 Y0.6465 
G01 X2.0965 Y0.6492 
G01 X2.0742 Y0.6715 
G01 X2.0742 Y0.6715 
G01 X2.0715 Y0.6742 
G01 X2.0681 Y0.6761 
G01 X2.0644 Y0.6771 
G01 X1.9810 Y0.6771 
G01 X1.9521 Y0.7060 
G01 X1.9521 Y1.3189 
G01 X1.9685 Y1.3354 
G01 X1.9963 Y1.3354 
G01 X2.0123 Y1.3194 
G01 X2.0377 Y1.3194 
G01 X2.0537 Y1.3354 
G01 X2.3356 Y1.3354 
G01 X2.3394 Y1.3354 
G01 X2.3431 Y1.3364 
G01 X2.3465 Y1.3383 
G01 X2.5435 Y1.5354 
G01 X2.8533 Y1.5354 
G01 X2.8536 Y1.5346 
G01 X2.8572 Y1.5292 
G01 X2.8617 Y1.5247 
G01 X2.8671 Y1.5211 
G01 X2.8730 Y1.5187 
G01 X2.8793 Y1.5174 
G01 X2.9457 Y1.5174 
G01 X2.9520 Y1.5187 
G01 X2.9579 Y1.5211 
G01 X2.9633 Y1.5247 
G01 X2.9678 Y1.5292 
G01 X2.9714 Y1.5346 
G01 X2.9738 Y1.5405 
G01 X2.9751 Y1.5468 
G01 X2.9751 Y1.5532 
G01 X2.9738 Y1.5595 
G01 X2.9714 Y1.5654 
G01 X2.9678 Y1.5708 
G01 X2.9633 Y1.5753 
G01 X2.9579 Y1.5789 
G01 X2.9520 Y1.5813 
G01 X2.9457 Y1.5826 
G01 X2.8793 Y1.5826 
G01 X2.8730 Y1.5813 
G01 X2.8671 Y1.5789 
G01 X2.8617 Y1.5753 
G01 X2.8572 Y1.5708 
G01 X2.8536 Y1.5654 
G01 X2.8533 Y1.5646 
G01 X2.5356 Y1.5646 
G01 X2.5319 Y1.5636 
G01 X2.5285 Y1.5617 
G01 X2.5258 Y1.5590 
G01 X2.3314 Y1.3646 
G01 X2.0537 Y1.3646 
G01 X2.0377 Y1.3806 
G01 X2.0123 Y1.3806 
G01 X1.9963 Y1.3646 
G01 X1.9606 Y1.3646 
G01 X1.9569 Y1.3636 
G01 X1.9535 Y1.3617 
G01 X1.9508 Y1.3590 
G01 X1.9258 Y1.3340 
G01 X1.9239 Y1.3306 
G01 X1.9229 Y1.3269 
G01 X1.9229 Y1.3231 
G01 X1.9229 Y0.6981 
G01 X1.9239 Y0.6944 
G01 X1.9258 Y0.6910 
G01 X1.9285 Y0.6883 
G01 X1.9660 Y0.6508 
G01 X1.9694 Y0.6489 
G01 X1.9731 Y0.6479 
G01 X1.9769 Y0.6479 
G01 X2.0564 Y0.6479 
G01 X2.0729 Y0.6314 
G01 X2.0729 Y0.5144 
G01 X2.0729 Y0.5106 
G01 X2.0739 Y0.5069 
G01 X2.0758 Y0.5035 
G01 X2.2854 Y0.2939 
G01 X2.2854 Y0.1634 
G01 X2.2836 Y0.1627 
G01 X2.2779 Y0.1589 
G01 X2.2731 Y0.1541 
G01 X2.2693 Y0.1484 
G01 X2.2667 Y0.1421 
G01 X2.2654 Y0.1354 
G01 X2.2654 Y0.0646 
G01 X2.2667 Y0.0579 
G01 X2.2693 Y0.0516 
G01 X2.2731 Y0.0459 
G01 X2.2779 Y0.0411 
G01 X2.2836 Y0.0373 
G01 X2.2899 Y0.0347 
G01 X2.2966 Y0.0334 
G01 X2.3034 Y0.0334 
G01 X2.3101 Y0.0347 
G01 X2.3164 Y0.0373 
G01 X2.3221 Y0.0411 
G01 X2.3269 Y0.0459 
G01 X2.3307 Y0.0516 
G01 X2.3333 Y0.0579 
G01 X2.3346 Y0.0646 
G00 Z0.0200 
G00 X2.5346 Y0.0646 
G01 Z-0.0100 F10.00 
G01 X2.5346 Y0.1354 
G01 X2.5333 Y0.1421 
G01 X2.5307 Y0.1484 
G01 X2.5269 Y0.1541 
G01 X2.5221 Y0.1589 
G01 X2.5164 Y0.1627 
G01 X2.5101 Y0.1653 
G01 X2.5034 Y0.1666 
G01 X2.4966 Y0.1666 
G01 X2.4899 Y0.1653 
G01 X2.4836 Y0.1627 
G01 X2.4779 Y0.1589 
G01 X2.4731 Y0.1541 
G01 X2.4693 Y0.1484 
G01 X2.4667 Y0.1421 
G01 X2.4654 Y0.1354 
G01 X2.4654 Y0.0646 
G01 X2.4667 Y0.0579 
G01 X2.4693 Y0.0516 
G01 X2.4731 Y0.0459 
G01 X2.4779 Y0.0411 
G01 X2.4836 Y0.0373 
G01 X2.4899 Y0.0347 
G01 X2.4966 Y0.0334 
G01 X2.5034 Y0.0334 
G01 X2.5101 Y0.0347 
G01 X2.5164 Y0.0373 
G01 X2.5221 Y0.0411 
G01 X2.5269 Y0.0459 
G01 X2.5307 Y0.0516 
G01 X2.5333 Y0.0579 
G01 X2.5346 Y0.0646 
G00 Z0.0200 
G00 X2.8793 Y0.6424 
G01 Z-0.0100 F10.00 
G01 X2.9457 Y0.6424 
G01 X2.9520 Y0.6437 
G01 X2.9579 Y0.6461 
G01 X2.9633 Y0.6497 
G01 X2.9678 Y0.6542 
G01 X2.9714 Y0.6596 
G01 X2.9717 Y0.6604 
G01 X3.0019 Y0.6604 
G01 X3.0056 Y0.6614 
G01 X3.0090 Y0.6633 
G01 X3.0117 Y0.6660 
G01 X3.0867 Y0.7410 
G01 X3.0886 Y0.7444 
G01 X3.0896 Y0.7481 
G01 X3.0896 Y0.7519 
G01 X3.0896 Y0.8644 
G01 X3.0886 Y0.8681 
G01 X3.0867 Y0.8715 
G01 X3.0840 Y0.8742 
G01 X3.0840 Y0.8742 
G01 X2.9965 Y0.9617 
G01 X2.9931 Y0.9636 
G01 X2.9894 Y0.9646 
G01 X2.9856 Y0.9646 
G01 X2.8060 Y0.9646 
G01 X2.6715 Y1.0992 
G01 X2.6681 Y1.1011 
G01 X2.6644 Y1.1021 
G01 X2.6606 Y1.1021 
G01 X2.6455 Y1.1021 
G01 X2.6423 Y1.1070 
G01 X2.6380 Y1.1113 
G01 X2.6330 Y1.1146 
G01 X2.6274 Y1.1169 
G01 X2.6215 Y1.1181 
G01 X2.5595 Y1.1181 
G01 X2.5536 Y1.1169 
G01 X2.5480 Y1.1146 
G01 X2.5430 Y1.1113 
G01 X2.5387 Y1.1070 
G01 X2.5354 Y1.1020 
G01 X2.5331 Y1.0964 
G01 X2.5319 Y1.0905 
G01 X2.5319 Y1.0845 
G01 X2.5331 Y1.0786 
G01 X2.5354 Y1.0730 
G01 X2.5387 Y1.0680 
G01 X2.5430 Y1.0637 
G01 X2.5480 Y1.0604 
G01 X2.5536 Y1.0581 
G01 X2.5595 Y1.0569 
G01 X2.6215 Y1.0569 
G01 X2.6274 Y1.0581 
G01 X2.6330 Y1.0604 
G01 X2.6380 Y1.0637 
G01 X2.6423 Y1.0680 
G01 X2.6455 Y1.0729 
G01 X2.6564 Y1.0729 
G01 X2.7883 Y0.9410 
G01 X2.7883 Y0.9410 
G01 X2.7910 Y0.9383 
G01 X2.7944 Y0.9364 
G01 X2.7981 Y0.9354 
G01 X2.9814 Y0.9354 
G01 X3.0604 Y0.8564 
G01 X3.0604 Y0.7560 
G01 X2.9939 Y0.6896 
G01 X2.9717 Y0.6896 
G01 X2.9714 Y0.6904 
G01 X2.9678 Y0.6958 
G01 X2.9633 Y0.7003 
G01 X2.9579 Y0.7039 
G01 X2.9520 Y0.7063 
G01 X2.9457 Y0.7076 
G01 X2.8793 Y0.7076 
G01 X2.8730 Y0.7063 
G01 X2.8671 Y0.7039 
G01 X2.8617 Y0.7003 
G01 X2.8572 Y0.6958 
G01 X2.8536 Y0.6904 
G01 X2.8512 Y0.6845 
G01 X2.8499 Y0.6782 
G01 X2.8499 Y0.6718 
G01 X2.8512 Y0.6655 
G01 X2.8536 Y0.6596 
G01 X2.8572 Y0.6542 
G01 X2.8617 Y0.6497 
G01 X2.8671 Y0.6461 
G01 X2.8730 Y0.6437 
G01 X2.8793 Y0.6424 
G00 Z0.0200 
G00 X2.8793 Y1.2549 
G01 Z-0.0100 F10.00 
G01 X2.9457 Y1.2549 
G01 X2.9520 Y1.2562 
G01 X2.9579 Y1.2586 
G01 X2.9633 Y1.2622 
G01 X2.9678 Y1.2667 
G01 X2.9714 Y1.2721 
G01 X2.9738 Y1.2780 
G01 X2.9751 Y1.2843 
G01 X2.9751 Y1.2907 
G01 X2.9738 Y1.2970 
G01 X2.9714 Y1.3029 
G01 X2.9678 Y1.3083 
G01 X2.9633 Y1.3128 
G01 X2.9579 Y1.3164 
G01 X2.9520 Y1.3188 
G01 X2.9457 Y1.3201 
G01 X2.8793 Y1.3201 
G01 X2.8730 Y1.3188 
G01 X2.8671 Y1.3164 
G01 X2.8617 Y1.3128 
G01 X2.8572 Y1.3083 
G01 X2.8536 Y1.3029 
G01 X2.8512 Y1.2970 
G01 X2.8499 Y1.2907 
G01 X2.8499 Y1.2843 
G01 X2.8512 Y1.2780 
G01 X2.8536 Y1.2721 
G01 X2.8572 Y1.2667 
G01 X2.8617 Y1.2622 
G01 X2.8671 Y1.2586 
G01 X2.8730 Y1.2562 
G01 X2.8793 Y1.2549 
G00 Z0.0200 
G00 X2.8793 Y1.1549 
G01 Z-0.0100 F10.00 
G01 X2.9457 Y1.1549 
G01 X2.9520 Y1.1562 
G01 X2.9579 Y1.1586 
G01 X2.9633 Y1.1622 
G01 X2.9678 Y1.1667 
G01 X2.9714 Y1.1721 
G01 X2.9738 Y1.1780 
G01 X2.9751 Y1.1843 
G01 X2.9751 Y1.1907 
G01 X2.9738 Y1.1970 
G01 X2.9714 Y1.2029 
G01 X2.9678 Y1.2083 
G01 X2.9633 Y1.2128 
G01 X2.9579 Y1.2164 
G01 X2.9520 Y1.2188 
G01 X2.9457 Y1.2201 
G01 X2.8793 Y1.2201 
G01 X2.8730 Y1.2188 
G01 X2.8671 Y1.2164 
G01 X2.8617 Y1.2128 
G01 X2.8572 Y1.2083 
G01 X2.8536 Y1.2029 
G01 X2.8533 Y1.2021 
G01 X2.7935 Y1.2021 
G01 X2.7367 Y1.2590 
G01 X2.7367 Y1.2590 
G01 X2.7340 Y1.2617 
G01 X2.7306 Y1.2636 
G01 X2.7269 Y1.2646 
G01 X2.4019 Y1.2646 
G01 X2.3981 Y1.2646 
G01 X2.0481 Y1.2646 
G01 X2.0444 Y1.2636 
G01 X2.0410 Y1.2617 
G01 X2.0383 Y1.2590 
G01 X2.0349 Y1.2556 
G01 X2.0123 Y1.2556 
G01 X1.9944 Y1.2377 
G01 X1.9944 Y1.2123 
G01 X2.0123 Y1.1944 
G01 X2.0377 Y1.1944 
G01 X2.0556 Y1.2123 
G01 X2.0556 Y1.2349 
G01 X2.0560 Y1.2354 
G01 X2.3854 Y1.2354 
G01 X2.3854 Y0.1634 
G01 X2.3836 Y0.1627 
G01 X2.3779 Y0.1589 
G01 X2.3731 Y0.1541 
G01 X2.3693 Y0.1484 
G01 X2.3667 Y0.1421 
G01 X2.3654 Y0.1354 
G01 X2.3654 Y0.0646 
G01 X2.3667 Y0.0579 
G01 X2.3693 Y0.0516 
G01 X2.3731 Y0.0459 
G01 X2.3779 Y0.0411 
G01 X2.3836 Y0.0373 
G01 X2.3899 Y0.0347 
G01 X2.3966 Y0.0334 
G01 X2.4034 Y0.0334 
G01 X2.4101 Y0.0347 
G01 X2.4164 Y0.0373 
G01 X2.4221 Y0.0411 
G01 X2.4269 Y0.0459 
G01 X2.4307 Y0.0516 
G01 X2.4333 Y0.0579 
G01 X2.4346 Y0.0646 
G01 X2.4346 Y0.1354 
G01 X2.4333 Y0.1421 
G01 X2.4307 Y0.1484 
G01 X2.4269 Y0.1541 
G01 X2.4221 Y0.1589 
G01 X2.4164 Y0.1627 
G01 X2.4146 Y0.1634 
G01 X2.4146 Y1.2354 
G01 X2.7189 Y1.2354 
G01 X2.7785 Y1.1758 
G01 X2.7819 Y1.1739 
G01 X2.7856 Y1.1729 
G01 X2.7894 Y1.1729 
G01 X2.8533 Y1.1729 
G01 X2.8536 Y1.1721 
G01 X2.8572 Y1.1667 
G01 X2.8617 Y1.1622 
G01 X2.8671 Y1.1586 
G01 X2.8730 Y1.1562 
G01 X2.8793 Y1.1549 
G00 Z0.0200 
G00 X0.7306 Y1.2248 
G01 Z-0.0100 F10.00 
G01 X0.7306 Y1.2502 
G01 X0.7127 Y1.2681 
G01 X0.6873 Y1.2681 
G01 X0.6713 Y1.2521 
G01 X0.6537 Y1.2521 
G01 X0.6377 Y1.2681 
G01 X0.6123 Y1.2681 
G01 X0.5944 Y1.2502 
G01 X0.5944 Y1.2248 
G01 X0.6123 Y1.2069 
G01 X0.6377 Y1.2069 
G01 X0.6537 Y1.2229 
G01 X0.6713 Y1.2229 
G01 X0.6873 Y1.2069 
G01 X0.7127 Y1.2069 
G01 X0.7306 Y1.2248 
G00 Z0.0200 
G00 X1.0306 Y0.5248 
G01 Z-0.0100 F10.00 
G01 X1.0306 Y0.5502 
G01 X1.0127 Y0.5681 
G01 X0.9900 Y0.5681 
G01 X0.7771 Y0.7810 
G01 X0.7771 Y1.7064 
G01 X0.9060 Y1.8354 
G01 X1.2606 Y1.8354 
G01 X1.2644 Y1.8354 
G01 X1.2681 Y1.8364 
G01 X1.2715 Y1.8383 
G01 X1.3490 Y1.9158 
G01 X1.3517 Y1.9185 
G01 X1.3536 Y1.9219 
G01 X1.3546 Y1.9256 
G01 X1.3546 Y1.9366 
G01 X1.3564 Y1.9373 
G01 X1.3621 Y1.9411 
G01 X1.3669 Y1.9459 
G01 X1.3707 Y1.9516 
G01 X1.3733 Y1.9579 
G01 X1.3746 Y1.9646 
G01 X1.3746 Y2.0354 
G01 X1.3733 Y2.0421 
G01 X1.3707 Y2.0484 
G01 X1.3669 Y2.0541 
G01 X1.3621 Y2.0589 
G01 X1.3564 Y2.0627 
G01 X1.3501 Y2.0653 
G01 X1.3434 Y2.0666 
G01 X1.3366 Y2.0666 
G01 X1.3299 Y2.0653 
G01 X1.3236 Y2.0627 
G01 X1.3179 Y2.0589 
G01 X1.3131 Y2.0541 
G01 X1.3093 Y2.0484 
G01 X1.3067 Y2.0421 
G01 X1.3054 Y2.0354 
G01 X1.3054 Y1.9646 
G01 X1.3067 Y1.9579 
G01 X1.3093 Y1.9516 
G01 X1.3131 Y1.9459 
G01 X1.3179 Y1.9411 
G01 X1.3236 Y1.9373 
G01 X1.3254 Y1.9366 
G01 X1.3254 Y1.9335 
G01 X1.2564 Y1.8646 
G01 X0.8981 Y1.8646 
G01 X0.8944 Y1.8636 
G01 X0.8910 Y1.8617 
G01 X0.8883 Y1.8590 
G01 X0.7535 Y1.7242 
G01 X0.7508 Y1.7215 
G01 X0.7489 Y1.7181 
G01 X0.7479 Y1.7144 
G01 X0.7479 Y0.7769 
G01 X0.7479 Y0.7731 
G01 X0.7489 Y0.7694 
G01 X0.7508 Y0.7660 
G01 X0.9694 Y0.5474 
G01 X0.9694 Y0.5248 
G01 X0.9873 Y0.5069 
G01 X1.0127 Y0.5069 
G01 X1.0306 Y0.5248 
G00 Z0.0200 
G00 X0.7306 Y0.5248 
G01 Z-0.0100 F10.00 
G01 X0.7306 Y0.5502 
G01 X0.7127 Y0.5681 
G01 X0.6873 Y0.5681 
G01 X0.6713 Y0.5521 
G01 X0.6537 Y0.5521 
G01 X0.6377 Y0.5681 
G01 X0.6123 Y0.5681 
G01 X0.5944 Y0.5502 
G01 X0.5944 Y0.5248 
G01 X0.6123 Y0.5069 
G01 X0.6377 Y0.5069 
G01 X0.6537 Y0.5229 
G01 X0.6713 Y0.5229 
G01 X0.6873 Y0.5069 
G01 X0.7127 Y0.5069 
G01 X0.7306 Y0.5248 
G00 Z0.0200 
G00 X1.0306 Y0.6998 
G01 Z-0.0100 F10.00 
G01 X1.0306 Y0.7252 
G01 X1.0127 Y0.7431 
G01 X0.9900 Y0.7431 
G01 X0.8396 Y0.8935 
G01 X0.8396 Y1.6814 
G01 X0.9435 Y1.7854 
G01 X1.3106 Y1.7854 
G01 X1.3144 Y1.7854 
G01 X1.3181 Y1.7864 
G01 X1.3215 Y1.7883 
G01 X1.4490 Y1.9158 
G01 X1.4517 Y1.9185 
G01 X1.4536 Y1.9219 
G01 X1.4546 Y1.9256 
G01 X1.4546 Y1.9366 
G01 X1.4564 Y1.9373 
G01 X1.4621 Y1.9411 
G01 X1.4669 Y1.9459 
G01 X1.4707 Y1.9516 
G01 X1.4733 Y1.9579 
G01 X1.4746 Y1.9646 
G01 X1.4746 Y2.0354 
G01 X1.4733 Y2.0421 
G01 X1.4707 Y2.0484 
G01 X1.4669 Y2.0541 
G01 X1.4621 Y2.0589 
G01 X1.4564 Y2.0627 
G01 X1.4501 Y2.0653 
G01 X1.4434 Y2.0666 
G01 X1.4366 Y2.0666 
G01 X1.4299 Y2.0653 
G01 X1.4236 Y2.0627 
G01 X1.4179 Y2.0589 
G01 X1.4131 Y2.0541 
G01 X1.4093 Y2.0484 
G01 X1.4067 Y2.0421 
G01 X1.4054 Y2.0354 
G01 X1.4054 Y1.9646 
G01 X1.4067 Y1.9579 
G01 X1.4093 Y1.9516 
G01 X1.4131 Y1.9459 
G01 X1.4179 Y1.9411 
G01 X1.4236 Y1.9373 
G01 X1.4254 Y1.9366 
G01 X1.4254 Y1.9335 
G01 X1.3064 Y1.8146 
G01 X0.9356 Y1.8146 
G01 X0.9319 Y1.8136 
G01 X0.9285 Y1.8117 
G01 X0.9258 Y1.8090 
G01 X0.8160 Y1.6992 
G01 X0.8133 Y1.6965 
G01 X0.8114 Y1.6931 
G01 X0.8104 Y1.6894 
G01 X0.8104 Y0.8856 
G01 X0.8114 Y0.8819 
G01 X0.8133 Y0.8785 
G01 X0.8160 Y0.8758 
G01 X0.9694 Y0.7224 
G01 X0.9694 Y0.6998 
G01 X0.9873 Y0.6819 
G01 X1.0127 Y0.6819 
G01 X1.0306 Y0.6998 
G00 Z0.0200 
G00 X1.0306 Y0.8748 
G01 Z-0.0100 F10.00 
G01 X1.0306 Y0.9002 
G01 X1.0127 Y0.9181 
G01 X0.9900 Y0.9181 
G01 X0.8896 Y1.0185 
G01 X0.8896 Y1.6439 
G01 X0.9810 Y1.7354 
G01 X1.3606 Y1.7354 
G01 X1.3644 Y1.7354 
G01 X1.3681 Y1.7364 
G01 X1.3715 Y1.7383 
G01 X1.5490 Y1.9158 
G01 X1.5517 Y1.9185 
G01 X1.5536 Y1.9219 
G01 X1.5546 Y1.9256 
G01 X1.5546 Y1.9366 
G01 X1.5564 Y1.9373 
G01 X1.5621 Y1.9411 
G01 X1.5669 Y1.9459 
G01 X1.5707 Y1.9516 
G01 X1.5733 Y1.9579 
G01 X1.5746 Y1.9646 
G01 X1.5746 Y2.0354 
G01 X1.5733 Y2.0421 
G01 X1.5707 Y2.0484 
G01 X1.5669 Y2.0541 
G01 X1.5621 Y2.0589 
G01 X1.5564 Y2.0627 
G01 X1.5501 Y2.0653 
G01 X1.5434 Y2.0666 
G01 X1.5366 Y2.0666 
G01 X1.5299 Y2.0653 
G01 X1.5236 Y2.0627 
G01 X1.5179 Y2.0589 
G01 X1.5131 Y2.0541 
G01 X1.5093 Y2.0484 
G01 X1.5067 Y2.0421 
G01 X1.5054 Y2.0354 
G01 X1.5054 Y1.9646 
G01 X1.5067 Y1.9579 
G01 X1.5093 Y1.9516 
G01 X1.5131 Y1.9459 
G01 X1.5179 Y1.9411 
G01 X1.5236 Y1.9373 
G01 X1.5254 Y1.9366 
G01 X1.5254 Y1.9335 
G01 X1.3564 Y1.7646 
G01 X0.9731 Y1.7646 
G01 X0.9694 Y1.7636 
G01 X0.9660 Y1.7617 
G01 X0.9633 Y1.7590 
G01 X0.8660 Y1.6617 
G01 X0.8633 Y1.6590 
G01 X0.8614 Y1.6556 
G01 X0.8604 Y1.6519 
G01 X0.8604 Y1.0106 
G01 X0.8614 Y1.0069 
G01 X0.8633 Y1.0035 
G01 X0.8660 Y1.0008 
G01 X0.9694 Y0.8974 
G01 X0.9694 Y0.8748 
G01 X0.9873 Y0.8569 
G01 X1.0127 Y0.8569 
G01 X1.0306 Y0.8748 
G00 Z0.0200 
G00 X0.7306 Y0.8748 
G01 Z-0.0100 F10.00 
G01 X0.7306 Y0.9002 
G01 X0.7127 Y0.9181 
G01 X0.6873 Y0.9181 
G01 X0.6713 Y0.9021 
G01 X0.6537 Y0.9021 
G01 X0.6377 Y0.9181 
G01 X0.6123 Y0.9181 
G01 X0.5944 Y0.9002 
G01 X0.5944 Y0.8748 
G01 X0.6123 Y0.8569 
G01 X0.6377 Y0.8569 
G01 X0.6537 Y0.8729 
G01 X0.6713 Y0.8729 
G01 X0.6873 Y0.8569 
G01 X0.7127 Y0.8569 
G01 X0.7306 Y0.8748 
G00 Z0.0200 
G00 X1.0306 Y1.0498 
G01 Z-0.0100 F10.00 
G01 X1.0306 Y1.0752 
G01 X1.0127 Y1.0931 
G01 X0.9873 Y1.0931 
G01 X0.9713 Y1.0771 
G01 X0.9685 Y1.0771 
G01 X0.9396 Y1.1060 
G01 X0.9396 Y1.6189 
G01 X1.0060 Y1.6854 
G01 X1.4106 Y1.6854 
G01 X1.4144 Y1.6854 
G01 X1.4181 Y1.6864 
G01 X1.4215 Y1.6883 
G01 X1.6490 Y1.9158 
G01 X1.6517 Y1.9185 
G01 X1.6536 Y1.9219 
G01 X1.6546 Y1.9256 
G01 X1.6546 Y1.9366 
G01 X1.6564 Y1.9373 
G01 X1.6621 Y1.9411 
G01 X1.6669 Y1.9459 
G01 X1.6707 Y1.9516 
G01 X1.6733 Y1.9579 
G01 X1.6746 Y1.9646 
G01 X1.6746 Y2.0354 
G01 X1.6733 Y2.0421 
G01 X1.6707 Y2.0484 
G01 X1.6669 Y2.0541 
G01 X1.6621 Y2.0589 
G01 X1.6564 Y2.0627 
G01 X1.6501 Y2.0653 
G01 X1.6434 Y2.0666 
G01 X1.6366 Y2.0666 
G01 X1.6299 Y2.0653 
G01 X1.6236 Y2.0627 
G01 X1.6179 Y2.0589 
G01 X1.6131 Y2.0541 
G01 X1.6093 Y2.0484 
G01 X1.6067 Y2.0421 
G01 X1.6054 Y2.0354 
G01 X1.6054 Y1.9646 
G01 X1.6067 Y1.9579 
G01 X1.6093 Y1.9516 
G01 X1.6131 Y1.9459 
G01 X1.6179 Y1.9411 
G01 X1.6236 Y1.9373 
G01 X1.6254 Y1.9366 
G01 X1.6254 Y1.9335 
G01 X1.4064 Y1.7146 
G01 X0.9981 Y1.7146 
G01 X0.9944 Y1.7136 
G01 X0.9910 Y1.7117 
G01 X0.9883 Y1.7090 
G01 X0.9133 Y1.6340 
G01 X0.9114 Y1.6306 
G01 X0.9104 Y1.6269 
G01 X0.9104 Y1.6231 
G01 X0.9104 Y1.0981 
G01 X0.9114 Y1.0944 
G01 X0.9133 Y1.0910 
G01 X0.9160 Y1.0883 
G01 X0.9535 Y1.0508 
G01 X0.9569 Y1.0489 
G01 X0.9606 Y1.0479 
G01 X0.9644 Y1.0479 
G01 X0.9713 Y1.0479 
G01 X0.9873 Y1.0319 
G01 X1.0127 Y1.0319 
G01 X1.0306 Y1.0498 
G00 Z0.0200 
G00 X0.5556 Y1.3998 
G01 Z-0.0100 F10.00 
G01 X0.5556 Y1.4252 
G01 X0.5396 Y1.4412 
G01 X0.5396 Y1.6689 
G01 X0.7560 Y1.8854 
G01 X1.2106 Y1.8854 
G01 X1.2144 Y1.8854 
G01 X1.2181 Y1.8864 
G01 X1.2215 Y1.8883 
G01 X1.2490 Y1.9158 
G01 X1.2517 Y1.9185 
G01 X1.2536 Y1.9219 
G01 X1.2546 Y1.9256 
G01 X1.2546 Y1.9366 
G01 X1.2564 Y1.9373 
G01 X1.2621 Y1.9411 
G01 X1.2669 Y1.9459 
G01 X1.2707 Y1.9516 
G01 X1.2733 Y1.9579 
G01 X1.2746 Y1.9646 
G01 X1.2746 Y2.0354 
G01 X1.2733 Y2.0421 
G01 X1.2707 Y2.0484 
G01 X1.2669 Y2.0541 
G01 X1.2621 Y2.0589 
G01 X1.2564 Y2.0627 
G01 X1.2501 Y2.0653 
G01 X1.2434 Y2.0666 
G01 X1.2366 Y2.0666 
G01 X1.2299 Y2.0653 
G01 X1.2236 Y2.0627 
G01 X1.2179 Y2.0589 
G01 X1.2131 Y2.0541 
G01 X1.2093 Y2.0484 
G01 X1.2067 Y2.0421 
G01 X1.2054 Y2.0354 
G01 X1.2054 Y1.9646 
G01 X1.2067 Y1.9579 
G01 X1.2093 Y1.9516 
G01 X1.2131 Y1.9459 
G01 X1.2179 Y1.9411 
G01 X1.2236 Y1.9373 
G01 X1.2254 Y1.9366 
G01 X1.2254 Y1.9335 
G01 X1.2064 Y1.9146 
G01 X0.7481 Y1.9146 
G01 X0.7444 Y1.9136 
G01 X0.7410 Y1.9117 
G01 X0.7383 Y1.9090 
G01 X0.5160 Y1.6867 
G01 X0.5133 Y1.6840 
G01 X0.5114 Y1.6806 
G01 X0.5104 Y1.6769 
G01 X0.5104 Y1.4412 
G01 X0.4944 Y1.4252 
G01 X0.4944 Y1.3998 
G01 X0.5104 Y1.3838 
G01 X0.5104 Y1.2662 
G01 X0.4944 Y1.2502 
G01 X0.4944 Y1.2248 
G01 X0.5104 Y1.2088 
G01 X0.5104 Y1.0912 
G01 X0.4944 Y1.0752 
G01 X0.4944 Y1.0498 
G01 X0.5104 Y1.0338 
G01 X0.5104 Y0.9162 
G01 X0.4944 Y0.9002 
G01 X0.4944 Y0.8748 
G01 X0.5104 Y0.8588 
G01 X0.5104 Y0.7412 
G01 X0.4944 Y0.7252 
G01 X0.4944 Y0.6998 
G01 X0.5104 Y0.6838 
G01 X0.5104 Y0.5662 
G01 X0.4944 Y0.5502 
G01 X0.4944 Y0.5248 
G01 X0.5123 Y0.5069 
G01 X0.5377 Y0.5069 
G01 X0.5556 Y0.5248 
G01 X0.5556 Y0.5502 
G01 X0.5396 Y0.5662 
G01 X0.5396 Y0.6838 
G01 X0.5556 Y0.6998 
G01 X0.5556 Y0.7252 
G01 X0.5396 Y0.7412 
G01 X0.5396 Y0.8588 
G01 X0.5556 Y0.8748 
G01 X0.5556 Y0.9002 
G01 X0.5396 Y0.9162 
G01 X0.5396 Y1.0338 
G01 X0.5556 Y1.0498 
G01 X0.5556 Y1.0752 
G01 X0.5396 Y1.0912 
G01 X0.5396 Y1.2088 
G01 X0.5556 Y1.2248 
G01 X0.5556 Y1.2502 
G01 X0.5396 Y1.2662 
G01 X0.5396 Y1.3838 
G01 X0.5556 Y1.3998 
G00 Z0.0200 
G00 X0.6377 Y1.4431 
G01 Z-0.0100 F10.00 
G01 X0.6123 Y1.4431 
G01 X0.5944 Y1.4252 
G01 X0.5944 Y1.3998 
G01 X0.6123 Y1.3819 
G01 X0.6377 Y1.3819 
G01 X0.6537 Y1.3979 
G01 X0.6713 Y1.3979 
G01 X0.6873 Y1.3819 
G01 X0.7127 Y1.3819 
G01 X0.7306 Y1.3998 
G01 X0.7306 Y1.4252 
G01 X0.7127 Y1.4431 
G01 X0.6873 Y1.4431 
G01 X0.6713 Y1.4271 
G01 X0.6537 Y1.4271 
G01 X0.6377 Y1.4431 
G00 Z0.0200 
G00 X0.6377 Y0.7431 
G01 Z-0.0100 F10.00 
G01 X0.6123 Y0.7431 
G01 X0.5944 Y0.7252 
G01 X0.5944 Y0.6998 
G01 X0.6123 Y0.6819 
G01 X0.6377 Y0.6819 
G01 X0.6537 Y0.6979 
G01 X0.6713 Y0.6979 
G01 X0.6873 Y0.6819 
G01 X0.7127 Y0.6819 
G01 X0.7306 Y0.6998 
G01 X0.7306 Y0.7252 
G01 X0.7127 Y0.7431 
G01 X0.6873 Y0.7431 
G01 X0.6713 Y0.7271 
G01 X0.6537 Y0.7271 
G01 X0.6377 Y0.7431 
G00 Z0.0200 
G00 X0.6377 Y1.0931 
G01 Z-0.0100 F10.00 
G01 X0.6123 Y1.0931 
G01 X0.5944 Y1.0752 
G01 X0.5944 Y1.0498 
G01 X0.6123 Y1.0319 
G01 X0.6377 Y1.0319 
G01 X0.6537 Y1.0479 
G01 X0.6713 Y1.0479 
G01 X0.6873 Y1.0319 
G01 X0.7127 Y1.0319 
G01 X0.7306 Y1.0498 
G01 X0.7306 Y1.0752 
G01 X0.7127 Y1.0931 
G01 X0.6873 Y1.0931 
G01 X0.6713 Y1.0771 
G01 X0.6537 Y1.0771 
G01 X0.6377 Y1.0931 
G00 Z0.0200 
G00 X2.0377 Y0.7556 
G01 Z-0.0100 F10.00 
G01 X2.0123 Y0.7556 
G01 X1.9944 Y0.7377 
G01 X1.9944 Y0.7123 
G01 X2.0123 Y0.6944 
G01 X2.0377 Y0.6944 
G01 X2.0537 Y0.7104 
G01 X2.0564 Y0.7104 
G01 X2.1760 Y0.5909 
G01 X2.1759 Y0.5905 
G01 X2.1759 Y0.5845 
G01 X2.1771 Y0.5786 
G01 X2.1794 Y0.5730 
G01 X2.1827 Y0.5680 
G01 X2.1870 Y0.5637 
G01 X2.1920 Y0.5604 
G01 X2.1976 Y0.5581 
G01 X2.2035 Y0.5569 
G01 X2.2655 Y0.5569 
G01 X2.2714 Y0.5581 
G01 X2.2770 Y0.5604 
G01 X2.2820 Y0.5637 
G01 X2.2863 Y0.5680 
G01 X2.2896 Y0.5730 
G01 X2.2919 Y0.5786 
G01 X2.2931 Y0.5845 
G01 X2.2931 Y0.5905 
G01 X2.2919 Y0.5964 
G01 X2.2896 Y0.6020 
G01 X2.2863 Y0.6070 
G01 X2.2820 Y0.6113 
G01 X2.2770 Y0.6146 
G01 X2.2714 Y0.6169 
G01 X2.2655 Y0.6181 
G01 X2.2035 Y0.6181 
G01 X2.1976 Y0.6169 
G01 X2.1931 Y0.6151 
G01 X2.0742 Y0.7340 
G01 X2.0715 Y0.7367 
G01 X2.0681 Y0.7386 
G01 X2.0644 Y0.7396 
G01 X2.0537 Y0.7396 
G01 X2.0377 Y0.7556 
G00 Z0.0200 
G00 X2.0377 Y0.8806 
G01 Z-0.0100 F10.00 
G01 X2.0123 Y0.8806 
G01 X1.9944 Y0.8627 
G01 X1.9944 Y0.8373 
G01 X2.0123 Y0.8194 
G01 X2.0377 Y0.8194 
G01 X2.0537 Y0.8354 
G01 X2.0564 Y0.8354 
G01 X2.1104 Y0.7814 
G01 X2.1104 Y0.7356 
G01 X2.1114 Y0.7319 
G01 X2.1133 Y0.7285 
G01 X2.1160 Y0.7258 
G01 X2.1660 Y0.6758 
G01 X2.1694 Y0.6739 
G01 X2.1731 Y0.6729 
G01 X2.1769 Y0.6729 
G01 X2.1795 Y0.6729 
G01 X2.1827 Y0.6680 
G01 X2.1870 Y0.6637 
G01 X2.1920 Y0.6604 
G01 X2.1976 Y0.6581 
G01 X2.2035 Y0.6569 
G01 X2.2655 Y0.6569 
G01 X2.2714 Y0.6581 
G01 X2.2770 Y0.6604 
G01 X2.2820 Y0.6637 
G01 X2.2863 Y0.6680 
G01 X2.2896 Y0.6730 
G01 X2.2919 Y0.6786 
G01 X2.2931 Y0.6845 
G01 X2.2931 Y0.6905 
G01 X2.2919 Y0.6964 
G01 X2.2896 Y0.7020 
G01 X2.2863 Y0.7070 
G01 X2.2820 Y0.7113 
G01 X2.2770 Y0.7146 
G01 X2.2714 Y0.7169 
G01 X2.2655 Y0.7181 
G01 X2.2035 Y0.7181 
G01 X2.1976 Y0.7169 
G01 X2.1920 Y0.7146 
G01 X2.1870 Y0.7113 
G01 X2.1827 Y0.7070 
G01 X2.1801 Y0.7030 
G01 X2.1396 Y0.7435 
G01 X2.1396 Y0.7856 
G01 X2.1396 Y0.7894 
G01 X2.1386 Y0.7931 
G01 X2.1367 Y0.7965 
G01 X2.0742 Y0.8590 
G01 X2.0715 Y0.8617 
G01 X2.0681 Y0.8636 
G01 X2.0644 Y0.8646 
G01 X2.0537 Y0.8646 
G01 X2.0377 Y0.8806 
G00 Z0.0200 
G00 X2.0556 Y0.9623 
G01 Z-0.0100 F10.00 
G01 X2.0556 Y0.9725 
G01 X2.0560 Y0.9729 
G01 X2.1795 Y0.9729 
G01 X2.1827 Y0.9680 
G01 X2.1870 Y0.9637 
G01 X2.1920 Y0.9604 
G01 X2.1976 Y0.9581 
G01 X2.2035 Y0.9569 
G01 X2.2655 Y0.9569 
G01 X2.2714 Y0.9581 
G01 X2.2770 Y0.9604 
G01 X2.2820 Y0.9637 
G01 X2.2863 Y0.9680 
G01 X2.2896 Y0.9730 
G01 X2.2919 Y0.9786 
G01 X2.2931 Y0.9845 
G01 X2.2931 Y0.9905 
G01 X2.2919 Y0.9964 
G01 X2.2896 Y1.0020 
G01 X2.2863 Y1.0070 
G01 X2.2820 Y1.0113 
G01 X2.2770 Y1.0146 
G01 X2.2714 Y1.0169 
G01 X2.2655 Y1.0181 
G01 X2.2035 Y1.0181 
G01 X2.1976 Y1.0169 
G01 X2.1920 Y1.0146 
G01 X2.1870 Y1.0113 
G01 X2.1827 Y1.0070 
G01 X2.1795 Y1.0021 
G01 X2.0519 Y1.0021 
G01 X2.0481 Y1.0021 
G01 X2.0444 Y1.0011 
G01 X2.0430 Y1.0003 
G01 X2.0377 Y1.0056 
G01 X2.0123 Y1.0056 
G01 X1.9944 Y0.9877 
G01 X1.9944 Y0.9623 
G01 X2.0123 Y0.9444 
G01 X2.0377 Y0.9444 
G01 X2.0556 Y0.9623 
G00 Z0.0200 
G00 X1.0306 Y1.2998 
G01 Z-0.0100 F10.00 
G01 X1.0306 Y1.3252 
G01 X1.0146 Y1.3412 
G01 X1.0146 Y1.3838 
G01 X1.0306 Y1.3998 
G01 X1.0306 Y1.4252 
G01 X1.0146 Y1.4412 
G01 X1.0146 Y1.6064 
G01 X1.0435 Y1.6354 
G01 X1.4356 Y1.6354 
G01 X1.4394 Y1.6354 
G01 X1.4431 Y1.6364 
G01 X1.4465 Y1.6383 
G01 X1.6935 Y1.8854 
G01 X1.8731 Y1.8854 
G01 X1.8769 Y1.8854 
G01 X1.8806 Y1.8864 
G01 X1.8840 Y1.8883 
G01 X1.9090 Y1.9133 
G01 X1.9117 Y1.9160 
G01 X1.9136 Y1.9194 
G01 X1.9146 Y1.9231 
G01 X1.9146 Y1.9366 
G01 X1.9164 Y1.9373 
G01 X1.9221 Y1.9411 
G01 X1.9269 Y1.9459 
G01 X1.9307 Y1.9516 
G01 X1.9333 Y1.9579 
G01 X1.9346 Y1.9646 
G01 X1.9346 Y2.0354 
G01 X1.9333 Y2.0421 
G01 X1.9307 Y2.0484 
G01 X1.9269 Y2.0541 
G01 X1.9221 Y2.0589 
G01 X1.9164 Y2.0627 
G01 X1.9101 Y2.0653 
G01 X1.9034 Y2.0666 
G01 X1.8966 Y2.0666 
G01 X1.8899 Y2.0653 
G01 X1.8836 Y2.0627 
G01 X1.8779 Y2.0589 
G01 X1.8731 Y2.0541 
G01 X1.8693 Y2.0484 
G01 X1.8667 Y2.0421 
G01 X1.8654 Y2.0354 
G01 X1.8654 Y1.9646 
G01 X1.8667 Y1.9579 
G01 X1.8693 Y1.9516 
G01 X1.8731 Y1.9459 
G01 X1.8779 Y1.9411 
G01 X1.8836 Y1.9373 
G01 X1.8854 Y1.9366 
G01 X1.8854 Y1.9310 
G01 X1.8689 Y1.9146 
G01 X1.6856 Y1.9146 
G01 X1.6819 Y1.9136 
G01 X1.6785 Y1.9117 
G01 X1.6758 Y1.9090 
G01 X1.4314 Y1.6646 
G01 X1.0356 Y1.6646 
G01 X1.0319 Y1.6636 
G01 X1.0285 Y1.6617 
G01 X1.0258 Y1.6590 
G01 X0.9883 Y1.6215 
G01 X0.9864 Y1.6181 
G01 X0.9854 Y1.6144 
G01 X0.9854 Y1.6106 
G01 X0.9854 Y1.4412 
G01 X0.9694 Y1.4252 
G01 X0.9694 Y1.3998 
G01 X0.9854 Y1.3838 
G01 X0.9854 Y1.3412 
G01 X0.9694 Y1.3252 
G01 X0.9694 Y1.2998 
G01 X0.9873 Y1.2819 
G01 X1.0127 Y1.2819 
G01 X1.0306 Y1.2998 
G00 Z0.0200 
G00 X1.3306 Y1.3252 
G01 Z-0.0100 F10.00 
G01 X1.3127 Y1.3431 
G01 X1.2873 Y1.3431 
G01 X1.2694 Y1.3252 
G01 X1.2694 Y1.2998 
G01 X1.2873 Y1.2819 
G01 X1.3099 Y1.2819 
G01 X1.3479 Y1.2439 
G01 X1.3479 Y1.1269 
G01 X1.3479 Y1.1231 
G01 X1.3489 Y1.1194 
G01 X1.3508 Y1.1160 
G01 X1.3883 Y1.0785 
G01 X1.3883 Y1.0785 
G01 X1.3910 Y1.0758 
G01 X1.3944 Y1.0739 
G01 X1.3945 Y1.0739 
G01 X1.3949 Y1.0730 
G01 X1.3982 Y1.0680 
G01 X1.4025 Y1.0637 
G01 X1.4075 Y1.0604 
G01 X1.4131 Y1.0581 
G01 X1.4190 Y1.0569 
G01 X1.4810 Y1.0569 
G01 X1.4869 Y1.0581 
G01 X1.4925 Y1.0604 
G01 X1.4975 Y1.0637 
G01 X1.5018 Y1.0680 
G01 X1.5051 Y1.0730 
G01 X1.5074 Y1.0786 
G01 X1.5086 Y1.0845 
G01 X1.5086 Y1.0905 
G01 X1.5074 Y1.0964 
G01 X1.5051 Y1.1020 
G01 X1.5018 Y1.1070 
G01 X1.4975 Y1.1113 
G01 X1.4925 Y1.1146 
G01 X1.4869 Y1.1169 
G01 X1.4810 Y1.1181 
G01 X1.4190 Y1.1181 
G01 X1.4131 Y1.1169 
G01 X1.4075 Y1.1146 
G01 X1.4025 Y1.1113 
G01 X1.3997 Y1.1084 
G01 X1.3771 Y1.1310 
G01 X1.3771 Y1.2481 
G01 X1.3771 Y1.2481 
G01 X1.3771 Y1.2519 
G01 X1.3761 Y1.2556 
G01 X1.3742 Y1.2590 
G01 X1.3306 Y1.3025 
G01 X1.3306 Y1.3252 
G00 Z0.0200 
G00 X1.0306 Y1.1248 
G01 Z-0.0100 F10.00 
G01 X1.0306 Y1.1502 
G01 X1.0146 Y1.1662 
G01 X1.0146 Y1.2088 
G01 X1.0287 Y1.2229 
G01 X1.0481 Y1.2229 
G01 X1.0519 Y1.2229 
G01 X1.0556 Y1.2239 
G01 X1.0590 Y1.2258 
G01 X1.0965 Y1.2633 
G01 X1.0992 Y1.2660 
G01 X1.1011 Y1.2694 
G01 X1.1021 Y1.2731 
G01 X1.1021 Y1.5689 
G01 X1.1185 Y1.5854 
G01 X1.4606 Y1.5854 
G01 X1.4644 Y1.5854 
G01 X1.4681 Y1.5864 
G01 X1.4715 Y1.5883 
G01 X1.7185 Y1.8354 
G01 X1.9231 Y1.8354 
G01 X1.9269 Y1.8354 
G01 X1.9306 Y1.8364 
G01 X1.9340 Y1.8383 
G01 X2.0090 Y1.9133 
G01 X2.0117 Y1.9160 
G01 X2.0136 Y1.9194 
G01 X2.0146 Y1.9231 
G01 X2.0146 Y1.9366 
G01 X2.0164 Y1.9373 
G01 X2.0221 Y1.9411 
G01 X2.0269 Y1.9459 
G01 X2.0307 Y1.9516 
G01 X2.0333 Y1.9579 
G01 X2.0346 Y1.9646 
G01 X2.0346 Y2.0354 
G01 X2.0333 Y2.0421 
G01 X2.0307 Y2.0484 
G01 X2.0269 Y2.0541 
G01 X2.0221 Y2.0589 
G01 X2.0164 Y2.0627 
G01 X2.0101 Y2.0653 
G01 X2.0034 Y2.0666 
G01 X1.9966 Y2.0666 
G01 X1.9899 Y2.0653 
G01 X1.9836 Y2.0627 
G01 X1.9779 Y2.0589 
G01 X1.9731 Y2.0541 
G01 X1.9693 Y2.0484 
G01 X1.9667 Y2.0421 
G01 X1.9654 Y2.0354 
G01 X1.9654 Y1.9646 
G01 X1.9667 Y1.9579 
G01 X1.9693 Y1.9516 
G01 X1.9731 Y1.9459 
G01 X1.9779 Y1.9411 
G01 X1.9836 Y1.9373 
G01 X1.9854 Y1.9366 
G01 X1.9854 Y1.9310 
G01 X1.9189 Y1.8646 
G01 X1.7106 Y1.8646 
G01 X1.7069 Y1.8636 
G01 X1.7035 Y1.8617 
G01 X1.7008 Y1.8590 
G01 X1.4564 Y1.6146 
G01 X1.1106 Y1.6146 
G01 X1.1069 Y1.6136 
G01 X1.1035 Y1.6117 
G01 X1.1008 Y1.6090 
G01 X1.0758 Y1.5840 
G01 X1.0739 Y1.5806 
G01 X1.0729 Y1.5769 
G01 X1.0729 Y1.5731 
G01 X1.0729 Y1.2810 
G01 X1.0439 Y1.2521 
G01 X1.0287 Y1.2521 
G01 X1.0127 Y1.2681 
G01 X0.9873 Y1.2681 
G01 X0.9694 Y1.2502 
G01 X0.9694 Y1.2248 
G01 X0.9854 Y1.2088 
G01 X0.9854 Y1.1662 
G01 X0.9694 Y1.1502 
G01 X0.9694 Y1.1248 
G01 X0.9873 Y1.1069 
G01 X1.0127 Y1.1069 
G01 X1.0306 Y1.1248 
G00 Z0.0200 
G00 X1.4190 Y0.7694 
G01 Z-0.0100 F10.00 
G01 X1.4810 Y0.7694 
G01 X1.4869 Y0.7706 
G01 X1.4925 Y0.7729 
G01 X1.4975 Y0.7762 
G01 X1.5018 Y0.7805 
G01 X1.5051 Y0.7855 
G01 X1.5074 Y0.7911 
G01 X1.5086 Y0.7970 
G01 X1.5086 Y0.8030 
G01 X1.5074 Y0.8089 
G01 X1.5051 Y0.8145 
G01 X1.5018 Y0.8195 
G01 X1.4975 Y0.8238 
G01 X1.4925 Y0.8271 
G01 X1.4869 Y0.8294 
G01 X1.4810 Y0.8306 
G01 X1.4190 Y0.8306 
G01 X1.4131 Y0.8294 
G01 X1.4075 Y0.8271 
G01 X1.4025 Y0.8238 
G01 X1.3982 Y0.8195 
G01 X1.3950 Y0.8146 
G01 X1.3560 Y0.8146 
G01 X1.3146 Y0.8560 
G01 X1.3146 Y1.1088 
G01 X1.3306 Y1.1248 
G01 X1.3306 Y1.1502 
G01 X1.3127 Y1.1681 
G01 X1.2873 Y1.1681 
G01 X1.2694 Y1.1502 
G01 X1.2694 Y1.1248 
G01 X1.2854 Y1.1088 
G01 X1.2854 Y0.8519 
G01 X1.2854 Y0.8481 
G01 X1.2864 Y0.8444 
G01 X1.2883 Y0.8410 
G01 X1.3383 Y0.7910 
G01 X1.3410 Y0.7883 
G01 X1.3444 Y0.7864 
G01 X1.3481 Y0.7854 
G01 X1.3950 Y0.7854 
G01 X1.3982 Y0.7805 
G01 X1.4025 Y0.7762 
G01 X1.4075 Y0.7729 
G01 X1.4131 Y0.7706 
G01 X1.4190 Y0.7694 
G00 Z0.0200 
G00 X1.4190 Y0.8694 
G01 Z-0.0100 F10.00 
G01 X1.4810 Y0.8694 
G01 X1.4869 Y0.8706 
G01 X1.4925 Y0.8729 
G01 X1.4975 Y0.8762 
G01 X1.5018 Y0.8805 
G01 X1.5051 Y0.8855 
G01 X1.5074 Y0.8911 
G01 X1.5086 Y0.8970 
G01 X1.5086 Y0.9030 
G01 X1.5074 Y0.9089 
G01 X1.5051 Y0.9145 
G01 X1.5018 Y0.9195 
G01 X1.4975 Y0.9238 
G01 X1.4925 Y0.9271 
G01 X1.4869 Y0.9294 
G01 X1.4810 Y0.9306 
G01 X1.4190 Y0.9306 
G01 X1.4131 Y0.9294 
G01 X1.4075 Y0.9271 
G01 X1.4025 Y0.9238 
G01 X1.3982 Y0.9195 
G01 X1.3949 Y0.9145 
G01 X1.3926 Y0.9089 
G01 X1.3914 Y0.9030 
G01 X1.3914 Y0.8970 
G01 X1.3926 Y0.8911 
G01 X1.3949 Y0.8855 
G01 X1.3982 Y0.8805 
G01 X1.4025 Y0.8762 
G01 X1.4075 Y0.8729 
G01 X1.4131 Y0.8706 
G01 X1.4190 Y0.8694 
G00 Z0.0200 
G00 X1.4190 Y1.1569 
G01 Z-0.0100 F10.00 
G01 X1.4810 Y1.1569 
G01 X1.4869 Y1.1581 
G01 X1.4925 Y1.1604 
G01 X1.4975 Y1.1637 
G01 X1.5018 Y1.1680 
G01 X1.5051 Y1.1730 
G01 X1.5074 Y1.1786 
G01 X1.5086 Y1.1845 
G01 X1.5086 Y1.1905 
G01 X1.5074 Y1.1964 
G01 X1.5066 Y1.1984 
G01 X1.7185 Y1.4104 
G01 X2.3106 Y1.4104 
G01 X2.3144 Y1.4104 
G01 X2.3181 Y1.4114 
G01 X2.3215 Y1.4133 
G01 X2.5435 Y1.6354 
G01 X2.8533 Y1.6354 
G01 X2.8536 Y1.6346 
G01 X2.8572 Y1.6292 
G01 X2.8617 Y1.6247 
G01 X2.8671 Y1.6211 
G01 X2.8730 Y1.6187 
G01 X2.8793 Y1.6174 
G01 X2.9457 Y1.6174 
G01 X2.9520 Y1.6187 
G01 X2.9579 Y1.6211 
G01 X2.9633 Y1.6247 
G01 X2.9678 Y1.6292 
G01 X2.9714 Y1.6346 
G01 X2.9738 Y1.6405 
G01 X2.9751 Y1.6468 
G01 X2.9751 Y1.6532 
G01 X2.9738 Y1.6595 
G01 X2.9714 Y1.6654 
G01 X2.9678 Y1.6708 
G01 X2.9633 Y1.6753 
G01 X2.9579 Y1.6789 
G01 X2.9520 Y1.6813 
G01 X2.9457 Y1.6826 
G01 X2.8793 Y1.6826 
G01 X2.8730 Y1.6813 
G01 X2.8671 Y1.6789 
G01 X2.8617 Y1.6753 
G01 X2.8572 Y1.6708 
G01 X2.8536 Y1.6654 
G01 X2.8533 Y1.6646 
G01 X2.5394 Y1.6646 
G01 X2.5356 Y1.6646 
G01 X2.5319 Y1.6636 
G01 X2.5285 Y1.6617 
G01 X2.3064 Y1.4396 
G01 X1.7106 Y1.4396 
G01 X1.7069 Y1.4386 
G01 X1.7035 Y1.4367 
G01 X1.7008 Y1.4340 
G01 X1.4843 Y1.2174 
G01 X1.4810 Y1.2181 
G01 X1.4190 Y1.2181 
G01 X1.4131 Y1.2169 
G01 X1.4075 Y1.2146 
G01 X1.4025 Y1.2113 
G01 X1.3982 Y1.2070 
G01 X1.3949 Y1.2020 
G01 X1.3926 Y1.1964 
G01 X1.3914 Y1.1905 
G01 X1.3914 Y1.1845 
G01 X1.3926 Y1.1786 
G01 X1.3949 Y1.1730 
G01 X1.3982 Y1.1680 
G01 X1.4025 Y1.1637 
G01 X1.4075 Y1.1604 
G01 X1.4131 Y1.1581 
G01 X1.4190 Y1.1569 
G00 Z0.0200 
G00 X0.0264 Y-0.1227 
G01 Z-0.0100 F10.00 
G01 X0.0264 Y-0.0773 
G01 X0.0257 Y-0.0756 
G01 X0.0244 Y-0.0743 
G01 X0.0227 Y-0.0736 
G01 X-0.0227 Y-0.0736 
G01 X-0.0244 Y-0.0743 
G01 X-0.0257 Y-0.0756 
G01 X-0.0264 Y-0.0773 
G01 X-0.0264 Y-0.1227 
G01 X-0.0257 Y-0.1244 
G01 X-0.0244 Y-0.1257 
G01 X-0.0227 Y-0.1264 
G01 X0.0227 Y-0.1264 
G01 X0.0244 Y-0.1257 
G01 X0.0257 Y-0.1244 
G01 X0.0264 Y-0.1227 
G00 Z0.0200 
G00 X1.6898 Y0.2133 
G01 Z-0.0100 F10.00 
G01 X1.6867 Y0.2102 
G01 X1.6845 Y0.2064 
G01 X1.6834 Y0.2022 
G01 X1.6834 Y0.1647 
G01 X1.6827 Y0.1644 
G01 X1.6767 Y0.1604 
G01 X1.6716 Y0.1553 
G01 X1.6676 Y0.1493 
G01 X1.6648 Y0.1427 
G01 X1.6634 Y0.1356 
G01 X1.6634 Y0.1166 
G01 X1.6366 Y0.1166 
G01 X1.6366 Y0.1356 
G01 X1.6352 Y0.1427 
G01 X1.6324 Y0.1493 
G01 X1.6284 Y0.1553 
G01 X1.6233 Y0.1604 
G01 X1.6173 Y0.1644 
G01 X1.6107 Y0.1672 
G01 X1.6036 Y0.1686 
G01 X1.5964 Y0.1686 
G01 X1.5893 Y0.1672 
G01 X1.5827 Y0.1644 
G01 X1.5767 Y0.1604 
G01 X1.5716 Y0.1553 
G01 X1.5676 Y0.1493 
G01 X1.5648 Y0.1427 
G01 X1.5634 Y0.1356 
G01 X1.5634 Y0.0644 
G01 X1.5648 Y0.0573 
G01 X1.5676 Y0.0507 
G01 X1.5716 Y0.0447 
G01 X1.5767 Y0.0396 
G01 X1.5827 Y0.0356 
G01 X1.5893 Y0.0328 
G01 X1.5964 Y0.0314 
G01 X1.6036 Y0.0314 
G01 X1.6107 Y0.0328 
G01 X1.6173 Y0.0356 
G01 X1.6233 Y0.0396 
G01 X1.6284 Y0.0447 
G01 X1.6324 Y0.0507 
G01 X1.6352 Y0.0573 
G01 X1.6366 Y0.0644 
G01 X1.6366 Y0.0834 
G01 X1.6634 Y0.0834 
G01 X1.6634 Y0.0644 
G01 X1.6648 Y0.0573 
G01 X1.6676 Y0.0507 
G01 X1.6716 Y0.0447 
G01 X1.6767 Y0.0396 
G01 X1.6827 Y0.0356 
G01 X1.6893 Y0.0328 
G01 X1.6964 Y0.0314 
G01 X1.7036 Y0.0314 
G01 X1.7107 Y0.0328 
G01 X1.7173 Y0.0356 
G01 X1.7233 Y0.0396 
G01 X1.7284 Y0.0447 
G01 X1.7324 Y0.0507 
G01 X1.7352 Y0.0573 
G01 X1.7366 Y0.0644 
G01 X1.7366 Y0.1356 
G01 X1.7352 Y0.1427 
G01 X1.7324 Y0.1493 
G01 X1.7284 Y0.1553 
G01 X1.7233 Y0.1604 
G01 X1.7173 Y0.1644 
G01 X1.7166 Y0.1647 
G01 X1.7166 Y0.1931 
G01 X1.8352 Y0.3117 
G01 X1.8352 Y0.3117 
G01 X1.8383 Y0.3148 
G01 X1.8405 Y0.3186 
G01 X1.8416 Y0.3228 
G01 X1.8416 Y0.5022 
G01 X1.8405 Y0.5064 
G01 X1.8383 Y0.5102 
G01 X1.8352 Y0.5133 
G01 X1.7576 Y0.5909 
G01 X1.7576 Y0.6135 
G01 X1.7416 Y0.6295 
G01 X1.7416 Y0.6955 
G01 X1.7576 Y0.7115 
G01 X1.7576 Y0.7385 
G01 X1.7416 Y0.7545 
G01 X1.7416 Y0.8205 
G01 X1.7576 Y0.8365 
G01 X1.7576 Y0.8635 
G01 X1.7416 Y0.8795 
G01 X1.7416 Y0.9455 
G01 X1.7576 Y0.9615 
G01 X1.7576 Y0.9885 
G01 X1.7416 Y1.0045 
G01 X1.7416 Y1.0705 
G01 X1.7576 Y1.0865 
G01 X1.7576 Y1.1135 
G01 X1.7416 Y1.1295 
G01 X1.7416 Y1.1955 
G01 X1.7576 Y1.2115 
G01 X1.7576 Y1.2385 
G01 X1.7416 Y1.2545 
G01 X1.7416 Y1.2728 
G01 X1.7416 Y1.3205 
G01 X1.7576 Y1.3365 
G01 X1.7576 Y1.3635 
G01 X1.7385 Y1.3826 
G01 X1.7115 Y1.3826 
G01 X1.6924 Y1.3635 
G01 X1.6924 Y1.3365 
G01 X1.7084 Y1.3205 
G01 X1.7084 Y1.2728 
G01 X1.7084 Y1.2545 
G01 X1.6924 Y1.2385 
G01 X1.6924 Y1.2115 
G01 X1.7084 Y1.1955 
G01 X1.7084 Y1.1295 
G01 X1.6924 Y1.1135 
G01 X1.6924 Y1.0865 
G01 X1.7084 Y1.0705 
G01 X1.7084 Y1.0045 
G01 X1.7080 Y1.0041 
G01 X1.5061 Y1.0041 
G01 X1.5033 Y1.0083 
G01 X1.4988 Y1.0128 
G01 X1.4934 Y1.0164 
G01 X1.4875 Y1.0188 
G01 X1.4812 Y1.0201 
G01 X1.4188 Y1.0201 
G01 X1.4125 Y1.0188 
G01 X1.4066 Y1.0164 
G01 X1.4012 Y1.0128 
G01 X1.3967 Y1.0083 
G01 X1.3931 Y1.0029 
G01 X1.3907 Y0.9970 
G01 X1.3894 Y0.9907 
G01 X1.3894 Y0.9843 
G01 X1.3907 Y0.9780 
G01 X1.3931 Y0.9721 
G01 X1.3967 Y0.9667 
G01 X1.4012 Y0.9622 
G01 X1.4066 Y0.9586 
G01 X1.4125 Y0.9562 
G01 X1.4188 Y0.9549 
G01 X1.4812 Y0.9549 
G01 X1.4875 Y0.9562 
G01 X1.4934 Y0.9586 
G01 X1.4988 Y0.9622 
G01 X1.5033 Y0.9667 
G01 X1.5061 Y0.9709 
G01 X1.6924 Y0.9709 
G01 X1.6924 Y0.9615 
G01 X1.7084 Y0.9455 
G01 X1.7084 Y0.8795 
G01 X1.6924 Y0.8635 
G01 X1.6924 Y0.8365 
G01 X1.7084 Y0.8205 
G01 X1.7084 Y0.7545 
G01 X1.6924 Y0.7385 
G01 X1.6924 Y0.7166 
G01 X1.5061 Y0.7166 
G01 X1.5033 Y0.7208 
G01 X1.4988 Y0.7253 
G01 X1.4934 Y0.7289 
G01 X1.4875 Y0.7313 
G01 X1.4812 Y0.7326 
G01 X1.4188 Y0.7326 
G01 X1.4125 Y0.7313 
G01 X1.4066 Y0.7289 
G01 X1.4012 Y0.7253 
G01 X1.3967 Y0.7208 
G01 X1.3931 Y0.7154 
G01 X1.3907 Y0.7095 
G01 X1.3894 Y0.7032 
G01 X1.3894 Y0.6968 
G01 X1.3907 Y0.6905 
G01 X1.3931 Y0.6846 
G01 X1.3967 Y0.6792 
G01 X1.4012 Y0.6747 
G01 X1.4066 Y0.6711 
G01 X1.4125 Y0.6687 
G01 X1.4188 Y0.6674 
G01 X1.4812 Y0.6674 
G01 X1.4875 Y0.6687 
G01 X1.4934 Y0.6711 
G01 X1.4988 Y0.6747 
G01 X1.5033 Y0.6792 
G01 X1.5061 Y0.6834 
G01 X1.7084 Y0.6834 
G01 X1.7084 Y0.6295 
G01 X1.6924 Y0.6135 
G01 X1.6924 Y0.5909 
G01 X1.5556 Y0.4541 
G01 X0.5194 Y0.4541 
G01 X0.4791 Y0.4944 
G01 X0.4791 Y0.5955 
G01 X0.4951 Y0.6115 
G01 X0.4951 Y0.6385 
G01 X0.4791 Y0.6545 
G01 X0.4791 Y0.7705 
G01 X0.4951 Y0.7865 
G01 X0.4951 Y0.8135 
G01 X0.4791 Y0.8295 
G01 X0.4791 Y0.9455 
G01 X0.4951 Y0.9615 
G01 X0.4951 Y0.9885 
G01 X0.4791 Y1.0045 
G01 X0.4791 Y1.1205 
G01 X0.4951 Y1.1365 
G01 X0.4951 Y1.1635 
G01 X0.4791 Y1.1795 
G01 X0.4791 Y1.2955 
G01 X0.4951 Y1.3115 
G01 X0.4951 Y1.3385 
G01 X0.4791 Y1.3545 
G01 X0.4791 Y1.4705 
G01 X0.4951 Y1.4865 
G01 X0.4951 Y1.5135 
G01 X0.4760 Y1.5326 
G01 X0.4490 Y1.5326 
G01 X0.4299 Y1.5135 
G01 X0.4299 Y1.4865 
G01 X0.4459 Y1.4705 
G01 X0.4459 Y1.3545 
G01 X0.4299 Y1.3385 
G01 X0.4299 Y1.3115 
G01 X0.4459 Y1.2955 
G01 X0.4459 Y1.1795 
G01 X0.4299 Y1.1635 
G01 X0.4299 Y1.1365 
G01 X0.4459 Y1.1205 
G01 X0.4459 Y1.0045 
G01 X0.4299 Y0.9885 
G01 X0.4299 Y0.9615 
G01 X0.4459 Y0.9455 
G01 X0.4459 Y0.8295 
G01 X0.4299 Y0.8135 
G01 X0.4299 Y0.7865 
G01 X0.4459 Y0.7705 
G01 X0.4459 Y0.6545 
G01 X0.4299 Y0.6385 
G01 X0.4299 Y0.6115 
G01 X0.4459 Y0.5955 
G01 X0.4459 Y0.4897 
G01 X0.4459 Y0.4853 
G01 X0.4470 Y0.4811 
G01 X0.4492 Y0.4773 
G01 X0.5023 Y0.4242 
G01 X0.5061 Y0.4220 
G01 X0.5103 Y0.4209 
G01 X0.5147 Y0.4209 
G01 X0.5147 Y0.4209 
G01 X1.5603 Y0.4209 
G01 X1.5647 Y0.4209 
G01 X1.5689 Y0.4220 
G01 X1.5727 Y0.4242 
G01 X1.7159 Y0.5674 
G01 X1.7341 Y0.5674 
G01 X1.8084 Y0.4931 
G01 X1.8084 Y0.3319 
G01 X1.6898 Y0.2133 
G00 Z0.0200 
G00 X2.6217 Y1.0201 
G01 Z-0.0100 F10.00 
G01 X2.5593 Y1.0201 
G01 X2.5530 Y1.0188 
G01 X2.5471 Y1.0164 
G01 X2.5417 Y1.0128 
G01 X2.5372 Y1.0083 
G01 X2.5336 Y1.0029 
G01 X2.5312 Y0.9970 
G01 X2.5299 Y0.9907 
G01 X2.5299 Y0.9843 
G01 X2.5312 Y0.9780 
G01 X2.5336 Y0.9721 
G01 X2.5372 Y0.9667 
G01 X2.5417 Y0.9622 
G01 X2.5471 Y0.9586 
G01 X2.5530 Y0.9562 
G01 X2.5593 Y0.9549 
G01 X2.6217 Y0.9549 
G01 X2.6280 Y0.9562 
G01 X2.6339 Y0.9586 
G01 X2.6393 Y0.9622 
G01 X2.6438 Y0.9667 
G01 X2.6466 Y0.9709 
G01 X2.6681 Y0.9709 
G01 X2.7742 Y0.8648 
G01 X2.7773 Y0.8617 
G01 X2.7811 Y0.8595 
G01 X2.7853 Y0.8584 
G01 X2.8520 Y0.8584 
G01 X2.8556 Y0.8529 
G01 X2.8604 Y0.8481 
G01 X2.8661 Y0.8443 
G01 X2.8724 Y0.8417 
G01 X2.8791 Y0.8404 
G01 X2.9459 Y0.8404 
G01 X2.9526 Y0.8417 
G01 X2.9589 Y0.8443 
G01 X2.9646 Y0.8481 
G01 X2.9694 Y0.8529 
G01 X2.9732 Y0.8586 
G01 X2.9758 Y0.8649 
G01 X2.9771 Y0.8716 
G01 X2.9771 Y0.8784 
G01 X2.9758 Y0.8851 
G01 X2.9732 Y0.8914 
G01 X2.9694 Y0.8971 
G01 X2.9646 Y0.9019 
G01 X2.9589 Y0.9057 
G01 X2.9526 Y0.9083 
G01 X2.9459 Y0.9096 
G01 X2.8791 Y0.9096 
G01 X2.8724 Y0.9083 
G01 X2.8661 Y0.9057 
G01 X2.8604 Y0.9019 
G01 X2.8556 Y0.8971 
G01 X2.8520 Y0.8916 
G01 X2.7944 Y0.8916 
G01 X2.6883 Y0.9977 
G01 X2.6852 Y1.0008 
G01 X2.6814 Y1.0030 
G01 X2.6772 Y1.0041 
G01 X2.6466 Y1.0041 
G01 X2.6438 Y1.0083 
G01 X2.6393 Y1.0128 
G01 X2.6339 Y1.0164 
G01 X2.6280 Y1.0188 
G01 X2.6217 Y1.0201 
G00 Z0.0200 
G00 X2.6217 Y0.9201 
G01 Z-0.0100 F10.00 
G01 X2.5593 Y0.9201 
G01 X2.5544 Y0.9191 
G01 X2.5166 Y0.9569 
G01 X2.5166 Y1.1556 
G01 X2.5319 Y1.1709 
G01 X2.5344 Y1.1709 
G01 X2.5372 Y1.1667 
G01 X2.5417 Y1.1622 
G01 X2.5471 Y1.1586 
G01 X2.5530 Y1.1562 
G01 X2.5593 Y1.1549 
G01 X2.6217 Y1.1549 
G01 X2.6280 Y1.1562 
G01 X2.6339 Y1.1586 
G01 X2.6393 Y1.1622 
G01 X2.6438 Y1.1667 
G01 X2.6474 Y1.1721 
G01 X2.6498 Y1.1780 
G01 X2.6511 Y1.1843 
G01 X2.6511 Y1.1907 
G01 X2.6498 Y1.1970 
G01 X2.6474 Y1.2029 
G01 X2.6438 Y1.2083 
G01 X2.6393 Y1.2128 
G01 X2.6339 Y1.2164 
G01 X2.6280 Y1.2188 
G01 X2.6217 Y1.2201 
G01 X2.5593 Y1.2201 
G01 X2.5530 Y1.2188 
G01 X2.5471 Y1.2164 
G01 X2.5417 Y1.2128 
G01 X2.5372 Y1.2083 
G01 X2.5344 Y1.2041 
G01 X2.5272 Y1.2041 
G01 X2.5228 Y1.2041 
G01 X2.5186 Y1.2030 
G01 X2.5148 Y1.2008 
G01 X2.4898 Y1.1758 
G01 X2.4867 Y1.1727 
G01 X2.4845 Y1.1689 
G01 X2.4834 Y1.1647 
G01 X2.4834 Y0.9522 
G01 X2.4834 Y0.9478 
G01 X2.4845 Y0.9436 
G01 X2.4867 Y0.9398 
G01 X2.5309 Y0.8956 
G01 X2.5299 Y0.8907 
G01 X2.5299 Y0.8843 
G01 X2.5312 Y0.8780 
G01 X2.5336 Y0.8721 
G01 X2.5372 Y0.8667 
G01 X2.5417 Y0.8622 
G01 X2.5471 Y0.8586 
G01 X2.5530 Y0.8562 
G01 X2.5593 Y0.8549 
G01 X2.6217 Y0.8549 
G01 X2.6280 Y0.8562 
G01 X2.6339 Y0.8586 
G01 X2.6393 Y0.8622 
G01 X2.6438 Y0.8667 
G01 X2.6466 Y0.8709 
G01 X2.6681 Y0.8709 
G01 X2.7773 Y0.7617 
G01 X2.7811 Y0.7595 
G01 X2.7853 Y0.7584 
G01 X2.7897 Y0.7584 
G01 X2.8520 Y0.7584 
G01 X2.8556 Y0.7529 
G01 X2.8604 Y0.7481 
G01 X2.8661 Y0.7443 
G01 X2.8724 Y0.7417 
G01 X2.8791 Y0.7404 
G01 X2.9459 Y0.7404 
G01 X2.9526 Y0.7417 
G01 X2.9589 Y0.7443 
G01 X2.9646 Y0.7481 
G01 X2.9694 Y0.7529 
G01 X2.9732 Y0.7586 
G01 X2.9758 Y0.7649 
G01 X2.9771 Y0.7716 
G01 X2.9771 Y0.7784 
G01 X2.9758 Y0.7851 
G01 X2.9732 Y0.7914 
G01 X2.9694 Y0.7971 
G01 X2.9646 Y0.8019 
G01 X2.9589 Y0.8057 
G01 X2.9526 Y0.8083 
G01 X2.9459 Y0.8096 
G01 X2.8791 Y0.8096 
G01 X2.8724 Y0.8083 
G01 X2.8661 Y0.8057 
G01 X2.8604 Y0.8019 
G01 X2.8556 Y0.7971 
G01 X2.8520 Y0.7916 
G01 X2.7944 Y0.7916 
G01 X2.6883 Y0.8977 
G01 X2.6852 Y0.9008 
G01 X2.6814 Y0.9030 
G01 X2.6772 Y0.9041 
G01 X2.6466 Y0.9041 
G01 X2.6438 Y0.9083 
G01 X2.6393 Y0.9128 
G01 X2.6339 Y0.9164 
G01 X2.6280 Y0.9188 
G01 X2.6217 Y0.9201 
G00 Z0.0200 
G00 X2.6217 Y0.7201 
G01 Z-0.0100 F10.00 
G01 X2.5593 Y0.7201 
G01 X2.5530 Y0.7188 
G01 X2.5471 Y0.7164 
G01 X2.5417 Y0.7128 
G01 X2.5372 Y0.7083 
G01 X2.5336 Y0.7029 
G01 X2.5312 Y0.6970 
G01 X2.5299 Y0.6907 
G01 X2.5299 Y0.6843 
G01 X2.5312 Y0.6780 
G01 X2.5336 Y0.6721 
G01 X2.5372 Y0.6667 
G01 X2.5417 Y0.6622 
G01 X2.5471 Y0.6586 
G01 X2.5530 Y0.6562 
G01 X2.5593 Y0.6549 
G01 X2.6217 Y0.6549 
G01 X2.6280 Y0.6562 
G01 X2.6339 Y0.6586 
G01 X2.6393 Y0.6622 
G01 X2.6438 Y0.6667 
G01 X2.6466 Y0.6709 
G01 X2.7306 Y0.6709 
G01 X2.8117 Y0.5898 
G01 X2.8148 Y0.5867 
G01 X2.8186 Y0.5845 
G01 X2.8228 Y0.5834 
G01 X2.9931 Y0.5834 
G01 X3.0584 Y0.5181 
G01 X3.0584 Y0.4194 
G01 X2.9931 Y0.3541 
G01 X2.9730 Y0.3541 
G01 X2.9694 Y0.3596 
G01 X2.9646 Y0.3644 
G01 X2.9589 Y0.3682 
G01 X2.9526 Y0.3708 
G01 X2.9459 Y0.3721 
G01 X2.8791 Y0.3721 
G01 X2.8724 Y0.3708 
G01 X2.8661 Y0.3682 
G01 X2.8604 Y0.3644 
G01 X2.8556 Y0.3596 
G01 X2.8518 Y0.3539 
G01 X2.8492 Y0.3476 
G01 X2.8479 Y0.3409 
G01 X2.8479 Y0.3341 
G01 X2.8492 Y0.3274 
G01 X2.8518 Y0.3211 
G01 X2.8556 Y0.3154 
G01 X2.8604 Y0.3106 
G01 X2.8661 Y0.3068 
G01 X2.8724 Y0.3042 
G01 X2.8791 Y0.3029 
G01 X2.9459 Y0.3029 
G01 X2.9526 Y0.3042 
G01 X2.9589 Y0.3068 
G01 X2.9646 Y0.3106 
G01 X2.9694 Y0.3154 
G01 X2.9730 Y0.3209 
G01 X3.0022 Y0.3209 
G01 X3.0064 Y0.3220 
G01 X3.0102 Y0.3242 
G01 X3.0133 Y0.3273 
G01 X3.0883 Y0.4023 
G01 X3.0905 Y0.4061 
G01 X3.0916 Y0.4103 
G01 X3.0916 Y0.4147 
G01 X3.0916 Y0.5272 
G01 X3.0905 Y0.5314 
G01 X3.0883 Y0.5352 
G01 X3.0852 Y0.5383 
G01 X3.0102 Y0.6133 
G01 X3.0064 Y0.6155 
G01 X3.0022 Y0.6166 
G01 X2.9978 Y0.6166 
G01 X2.8319 Y0.6166 
G01 X2.7477 Y0.7008 
G01 X2.7439 Y0.7030 
G01 X2.7397 Y0.7041 
G01 X2.7353 Y0.7041 
G01 X2.6466 Y0.7041 
G01 X2.6438 Y0.7083 
G01 X2.6393 Y0.7128 
G01 X2.6339 Y0.7164 
G01 X2.6280 Y0.7188 
G01 X2.6217 Y0.7201 
G00 Z0.0200 
G00 X2.6217 Y0.6201 
G01 Z-0.0100 F10.00 
G01 X2.5593 Y0.6201 
G01 X2.5530 Y0.6188 
G01 X2.5471 Y0.6164 
G01 X2.5417 Y0.6128 
G01 X2.5372 Y0.6083 
G01 X2.5336 Y0.6029 
G01 X2.5312 Y0.5970 
G01 X2.5299 Y0.5907 
G01 X2.5299 Y0.5843 
G01 X2.5312 Y0.5780 
G01 X2.5336 Y0.5721 
G01 X2.5372 Y0.5667 
G01 X2.5417 Y0.5622 
G01 X2.5471 Y0.5586 
G01 X2.5530 Y0.5562 
G01 X2.5593 Y0.5549 
G01 X2.6217 Y0.5549 
G01 X2.6280 Y0.5562 
G01 X2.6339 Y0.5586 
G01 X2.6393 Y0.5622 
G01 X2.6438 Y0.5667 
G01 X2.6466 Y0.5709 
G01 X2.7431 Y0.5709 
G01 X2.7867 Y0.5273 
G01 X2.7898 Y0.5242 
G01 X2.7936 Y0.5220 
G01 X2.7978 Y0.5209 
G01 X2.8520 Y0.5209 
G01 X2.8556 Y0.5154 
G01 X2.8604 Y0.5106 
G01 X2.8661 Y0.5068 
G01 X2.8724 Y0.5042 
G01 X2.8791 Y0.5029 
G01 X2.9459 Y0.5029 
G01 X2.9526 Y0.5042 
G01 X2.9589 Y0.5068 
G01 X2.9646 Y0.5106 
G01 X2.9694 Y0.5154 
G01 X2.9732 Y0.5211 
G01 X2.9758 Y0.5274 
G01 X2.9771 Y0.5341 
G01 X2.9771 Y0.5409 
G01 X2.9758 Y0.5476 
G01 X2.9732 Y0.5539 
G01 X2.9694 Y0.5596 
G01 X2.9646 Y0.5644 
G01 X2.9589 Y0.5682 
G01 X2.9526 Y0.5708 
G01 X2.9459 Y0.5721 
G01 X2.8791 Y0.5721 
G01 X2.8724 Y0.5708 
G01 X2.8661 Y0.5682 
G01 X2.8604 Y0.5644 
G01 X2.8556 Y0.5596 
G01 X2.8520 Y0.5541 
G01 X2.8069 Y0.5541 
G01 X2.7633 Y0.5977 
G01 X2.7602 Y0.6008 
G01 X2.7564 Y0.6030 
G01 X2.7522 Y0.6041 
G01 X2.6466 Y0.6041 
G01 X2.6438 Y0.6083 
G01 X2.6393 Y0.6128 
G01 X2.6339 Y0.6164 
G01 X2.6280 Y0.6188 
G01 X2.6217 Y0.6201 
G00 Z0.0200 
G00 X2.6217 Y0.5201 
G01 Z-0.0100 F10.00 
G01 X2.5593 Y0.5201 
G01 X2.5544 Y0.5191 
G01 X2.5166 Y0.5569 
G01 X2.5166 Y0.7181 
G01 X2.5544 Y0.7559 
G01 X2.5593 Y0.7549 
G01 X2.6217 Y0.7549 
G01 X2.6280 Y0.7562 
G01 X2.6339 Y0.7586 
G01 X2.6393 Y0.7622 
G01 X2.6438 Y0.7667 
G01 X2.6474 Y0.7721 
G01 X2.6498 Y0.7780 
G01 X2.6511 Y0.7843 
G01 X2.6511 Y0.7907 
G01 X2.6498 Y0.7970 
G01 X2.6474 Y0.8029 
G01 X2.6438 Y0.8083 
G01 X2.6393 Y0.8128 
G01 X2.6339 Y0.8164 
G01 X2.6280 Y0.8188 
G01 X2.6217 Y0.8201 
G01 X2.5593 Y0.8201 
G01 X2.5530 Y0.8188 
G01 X2.5471 Y0.8164 
G01 X2.5417 Y0.8128 
G01 X2.5372 Y0.8083 
G01 X2.5336 Y0.8029 
G01 X2.5312 Y0.7970 
G01 X2.5299 Y0.7907 
G01 X2.5299 Y0.7843 
G01 X2.5309 Y0.7794 
G01 X2.4867 Y0.7352 
G01 X2.4845 Y0.7314 
G01 X2.4834 Y0.7272 
G01 X2.4834 Y0.7228 
G01 X2.4834 Y0.5478 
G01 X2.4845 Y0.5436 
G01 X2.4867 Y0.5398 
G01 X2.4898 Y0.5367 
G01 X2.5309 Y0.4956 
G01 X2.5299 Y0.4907 
G01 X2.5299 Y0.4843 
G01 X2.5312 Y0.4780 
G01 X2.5336 Y0.4721 
G01 X2.5372 Y0.4667 
G01 X2.5417 Y0.4622 
G01 X2.5471 Y0.4586 
G01 X2.5530 Y0.4562 
G01 X2.5593 Y0.4549 
G01 X2.6217 Y0.4549 
G01 X2.6280 Y0.4562 
G01 X2.6339 Y0.4586 
G01 X2.6393 Y0.4622 
G01 X2.6438 Y0.4667 
G01 X2.6466 Y0.4709 
G01 X2.7431 Y0.4709 
G01 X2.7898 Y0.4242 
G01 X2.7936 Y0.4220 
G01 X2.7978 Y0.4209 
G01 X2.8022 Y0.4209 
G01 X2.8520 Y0.4209 
G01 X2.8556 Y0.4154 
G01 X2.8604 Y0.4106 
G01 X2.8661 Y0.4068 
G01 X2.8724 Y0.4042 
G01 X2.8791 Y0.4029 
G01 X2.9459 Y0.4029 
G01 X2.9526 Y0.4042 
G01 X2.9589 Y0.4068 
G01 X2.9646 Y0.4106 
G01 X2.9694 Y0.4154 
G01 X2.9732 Y0.4211 
G01 X2.9758 Y0.4274 
G01 X2.9771 Y0.4341 
G01 X2.9771 Y0.4409 
G01 X2.9758 Y0.4476 
G01 X2.9732 Y0.4539 
G01 X2.9694 Y0.4596 
G01 X2.9646 Y0.4644 
G01 X2.9589 Y0.4682 
G01 X2.9526 Y0.4708 
G01 X2.9459 Y0.4721 
G01 X2.8791 Y0.4721 
G01 X2.8724 Y0.4708 
G01 X2.8661 Y0.4682 
G01 X2.8604 Y0.4644 
G01 X2.8556 Y0.4596 
G01 X2.8520 Y0.4541 
G01 X2.8069 Y0.4541 
G01 X2.7633 Y0.4977 
G01 X2.7602 Y0.5008 
G01 X2.7564 Y0.5030 
G01 X2.7522 Y0.5041 
G01 X2.6466 Y0.5041 
G01 X2.6438 Y0.5083 
G01 X2.6393 Y0.5128 
G01 X2.6339 Y0.5164 
G01 X2.6280 Y0.5188 
G01 X2.6217 Y0.5201 
G00 Z0.0200 
G00 X2.2033 Y0.7549 
G01 Z-0.0100 F10.00 
G01 X2.2657 Y0.7549 
G01 X2.2720 Y0.7562 
G01 X2.2779 Y0.7586 
G01 X2.2833 Y0.7622 
G01 X2.2878 Y0.7667 
G01 X2.2914 Y0.7721 
G01 X2.2938 Y0.7780 
G01 X2.2951 Y0.7843 
G01 X2.2951 Y0.7907 
G01 X2.2938 Y0.7970 
G01 X2.2914 Y0.8029 
G01 X2.2878 Y0.8083 
G01 X2.2833 Y0.8128 
G01 X2.2779 Y0.8164 
G01 X2.2720 Y0.8188 
G01 X2.2657 Y0.8201 
G01 X2.2033 Y0.8201 
G01 X2.1970 Y0.8188 
G01 X2.1911 Y0.8164 
G01 X2.1857 Y0.8128 
G01 X2.1812 Y0.8083 
G01 X2.1776 Y0.8029 
G01 X2.1752 Y0.7970 
G01 X2.1739 Y0.7907 
G01 X2.1739 Y0.7843 
G01 X2.1752 Y0.7780 
G01 X2.1776 Y0.7721 
G01 X2.1812 Y0.7667 
G01 X2.1857 Y0.7622 
G01 X2.1911 Y0.7586 
G01 X2.1970 Y0.7562 
G01 X2.2033 Y0.7549 
G00 Z0.0200 
G00 X2.2033 Y0.8549 
G01 Z-0.0100 F10.00 
G01 X2.2657 Y0.8549 
G01 X2.2720 Y0.8562 
G01 X2.2779 Y0.8586 
G01 X2.2833 Y0.8622 
G01 X2.2878 Y0.8667 
G01 X2.2914 Y0.8721 
G01 X2.2938 Y0.8780 
G01 X2.2951 Y0.8843 
G01 X2.2951 Y0.8907 
G01 X2.2938 Y0.8970 
G01 X2.2914 Y0.9029 
G01 X2.2878 Y0.9083 
G01 X2.2833 Y0.9128 
G01 X2.2779 Y0.9164 
G01 X2.2720 Y0.9188 
G01 X2.2657 Y0.9201 
G01 X2.2033 Y0.9201 
G01 X2.1970 Y0.9188 
G01 X2.1911 Y0.9164 
G01 X2.1857 Y0.9128 
G01 X2.1812 Y0.9083 
G01 X2.1776 Y0.9029 
G01 X2.1752 Y0.8970 
G01 X2.1739 Y0.8907 
G01 X2.1739 Y0.8843 
G01 X2.1752 Y0.8780 
G01 X2.1776 Y0.8721 
G01 X2.1812 Y0.8667 
G01 X2.1857 Y0.8622 
G01 X2.1911 Y0.8586 
G01 X2.1970 Y0.8562 
G01 X2.2033 Y0.8549 
G00 Z0.0200 
G00 X2.2033 Y0.4549 
G01 Z-0.0100 F10.00 
G01 X2.2657 Y0.4549 
G01 X2.2720 Y0.4562 
G01 X2.2779 Y0.4586 
G01 X2.2833 Y0.4622 
G01 X2.2878 Y0.4667 
G01 X2.2914 Y0.4721 
G01 X2.2938 Y0.4780 
G01 X2.2951 Y0.4843 
G01 X2.2951 Y0.4907 
G01 X2.2938 Y0.4970 
G01 X2.2914 Y0.5029 
G01 X2.2878 Y0.5083 
G01 X2.2833 Y0.5128 
G01 X2.2779 Y0.5164 
G01 X2.2720 Y0.5188 
G01 X2.2657 Y0.5201 
G01 X2.2033 Y0.5201 
G01 X2.1970 Y0.5188 
G01 X2.1911 Y0.5164 
G01 X2.1857 Y0.5128 
G01 X2.1812 Y0.5083 
G01 X2.1776 Y0.5029 
G01 X2.1752 Y0.4970 
G01 X2.1739 Y0.4907 
G01 X2.1739 Y0.4843 
G01 X2.1752 Y0.4780 
G01 X2.1776 Y0.4721 
G01 X2.1812 Y0.4667 
G01 X2.1857 Y0.4622 
G01 X2.1911 Y0.4586 
G01 X2.1970 Y0.4562 
G01 X2.2033 Y0.4549 
G00 Z0.0200 
G00 X2.2033 Y1.0549 
G01 Z-0.0100 F10.00 
G01 X2.2657 Y1.0549 
G01 X2.2720 Y1.0562 
G01 X2.2779 Y1.0586 
G01 X2.2833 Y1.0622 
G01 X2.2878 Y1.0667 
G01 X2.2914 Y1.0721 
G01 X2.2938 Y1.0780 
G01 X2.2951 Y1.0843 
G01 X2.2951 Y1.0907 
G01 X2.2938 Y1.0970 
G01 X2.2914 Y1.1029 
G01 X2.2878 Y1.1083 
G01 X2.2833 Y1.1128 
G01 X2.2779 Y1.1164 
G01 X2.2720 Y1.1188 
G01 X2.2657 Y1.1201 
G01 X2.2033 Y1.1201 
G01 X2.1970 Y1.1188 
G01 X2.1911 Y1.1164 
G01 X2.1857 Y1.1128 
G01 X2.1857 Y1.1128 
G01 X2.1852 Y1.1133 
G01 X2.1814 Y1.1155 
G01 X2.1772 Y1.1166 
G01 X2.1728 Y1.1166 
G01 X2.1728 Y1.1166 
G01 X2.0545 Y1.1166 
G01 X2.0385 Y1.1326 
G01 X2.0115 Y1.1326 
G01 X1.9924 Y1.1135 
G01 X1.9924 Y1.0865 
G01 X2.0115 Y1.0674 
G01 X2.0385 Y1.0674 
G01 X2.0545 Y1.0834 
G01 X2.1681 Y1.0834 
G01 X2.1763 Y1.0752 
G01 X2.1776 Y1.0721 
G01 X2.1812 Y1.0667 
G01 X2.1857 Y1.0622 
G01 X2.1911 Y1.0586 
G01 X2.1970 Y1.0562 
G01 X2.2033 Y1.0549 
G00 Z0.0200 
G00 X2.2033 Y1.1549 
G01 Z-0.0100 F10.00 
G01 X2.2657 Y1.1549 
G01 X2.2720 Y1.1562 
G01 X2.2779 Y1.1586 
G01 X2.2833 Y1.1622 
G01 X2.2878 Y1.1667 
G01 X2.2914 Y1.1721 
G01 X2.2938 Y1.1780 
G01 X2.2951 Y1.1843 
G01 X2.2951 Y1.1907 
G01 X2.2938 Y1.1970 
G01 X2.2914 Y1.2029 
G01 X2.2878 Y1.2083 
G01 X2.2833 Y1.2128 
G01 X2.2779 Y1.2164 
G01 X2.2720 Y1.2188 
G01 X2.2657 Y1.2201 
G01 X2.2033 Y1.2201 
G01 X2.1970 Y1.2188 
G01 X2.1911 Y1.2164 
G01 X2.1857 Y1.2128 
G01 X2.1812 Y1.2083 
G01 X2.1776 Y1.2029 
G01 X2.1752 Y1.1970 
G01 X2.1739 Y1.1907 
G01 X2.1739 Y1.1843 
G01 X2.1752 Y1.1780 
G01 X2.1776 Y1.1721 
G01 X2.1812 Y1.1667 
G01 X2.1857 Y1.1622 
G01 X2.1911 Y1.1586 
G01 X2.1970 Y1.1562 
G01 X2.2033 Y1.1549 
G00 Z0.0200 
G00 X0.2951 Y0.6990 
G01 Z-0.0100 F10.00 
G01 X0.2951 Y0.7260 
G01 X0.2760 Y0.7451 
G01 X0.2490 Y0.7451 
G01 X0.2299 Y0.7260 
G01 X0.2299 Y0.6990 
G01 X0.2459 Y0.6830 
G01 X0.2459 Y0.6545 
G01 X0.2330 Y0.6416 
G01 X0.1977 Y0.6416 
G01 X0.1777 Y0.6616 
G01 X0.1473 Y0.6616 
G01 X0.1259 Y0.6402 
G01 X0.1259 Y0.6098 
G01 X0.1473 Y0.5884 
G01 X0.1777 Y0.5884 
G01 X0.1977 Y0.6084 
G01 X0.2330 Y0.6084 
G01 X0.2490 Y0.5924 
G01 X0.2760 Y0.5924 
G01 X0.2951 Y0.6115 
G01 X0.2951 Y0.6385 
G01 X0.2791 Y0.6545 
G01 X0.2791 Y0.6830 
G01 X0.2951 Y0.6990 
G00 Z0.0200 
G00 X0.2951 Y0.8740 
G01 Z-0.0100 F10.00 
G01 X0.2951 Y0.9010 
G01 X0.2760 Y0.9201 
G01 X0.2490 Y0.9201 
G01 X0.2299 Y0.9010 
G01 X0.2299 Y0.8740 
G01 X0.2459 Y0.8580 
G01 X0.2459 Y0.8295 
G01 X0.2330 Y0.8166 
G01 X0.1977 Y0.8166 
G01 X0.1777 Y0.8366 
G01 X0.1473 Y0.8366 
G01 X0.1259 Y0.8152 
G01 X0.1259 Y0.7848 
G01 X0.1473 Y0.7634 
G01 X0.1777 Y0.7634 
G01 X0.1977 Y0.7834 
G01 X0.2330 Y0.7834 
G01 X0.2490 Y0.7674 
G01 X0.2760 Y0.7674 
G01 X0.2951 Y0.7865 
G01 X0.2951 Y0.8135 
G01 X0.2791 Y0.8295 
G01 X0.2791 Y0.8580 
G01 X0.2951 Y0.8740 
G00 Z0.0200 
G00 X0.2951 Y0.9615 
G01 Z-0.0100 F10.00 
G01 X0.2951 Y0.9885 
G01 X0.2791 Y1.0045 
G01 X0.2791 Y1.0330 
G01 X0.2951 Y1.0490 
G01 X0.2951 Y1.0760 
G01 X0.2760 Y1.0951 
G01 X0.2490 Y1.0951 
G01 X0.2299 Y1.0760 
G01 X0.2299 Y1.0490 
G01 X0.2459 Y1.0330 
G01 X0.2459 Y1.0045 
G01 X0.2330 Y0.9916 
G01 X0.1977 Y0.9916 
G01 X0.1777 Y1.0116 
G01 X0.1473 Y1.0116 
G01 X0.1259 Y0.9902 
G01 X0.1259 Y0.9598 
G01 X0.1473 Y0.9384 
G01 X0.1777 Y0.9384 
G01 X0.1977 Y0.9584 
G01 X0.2330 Y0.9584 
G01 X0.2490 Y0.9424 
G01 X0.2760 Y0.9424 
G01 X0.2951 Y0.9615 
G00 Z0.0200 
G00 X0.2951 Y1.1365 
G01 Z-0.0100 F10.00 
G01 X0.2951 Y1.1635 
G01 X0.2791 Y1.1795 
G01 X0.2791 Y1.2080 
G01 X0.2951 Y1.2240 
G01 X0.2951 Y1.2510 
G01 X0.2760 Y1.2701 
G01 X0.2490 Y1.2701 
G01 X0.2299 Y1.2510 
G01 X0.2299 Y1.2240 
G01 X0.2459 Y1.2080 
G01 X0.2459 Y1.1795 
G01 X0.2330 Y1.1666 
G01 X0.1977 Y1.1666 
G01 X0.1777 Y1.1866 
G01 X0.1473 Y1.1866 
G01 X0.1259 Y1.1652 
G01 X0.1259 Y1.1348 
G01 X0.1473 Y1.1134 
G01 X0.1777 Y1.1134 
G01 X0.1977 Y1.1334 
G01 X0.2330 Y1.1334 
G01 X0.2490 Y1.1174 
G01 X0.2760 Y1.1174 
G01 X0.2951 Y1.1365 
G00 Z0.0200 
G00 X0.2951 Y1.3115 
G01 Z-0.0100 F10.00 
G01 X0.2951 Y1.3385 
G01 X0.2791 Y1.3545 
G01 X0.2791 Y1.3830 
G01 X0.2951 Y1.3990 
G01 X0.2951 Y1.4260 
G01 X0.2760 Y1.4451 
G01 X0.2490 Y1.4451 
G01 X0.2299 Y1.4260 
G01 X0.2299 Y1.3990 
G01 X0.2459 Y1.3830 
G01 X0.2459 Y1.3545 
G01 X0.2330 Y1.3416 
G01 X0.1976 Y1.3416 
G01 X0.1777 Y1.3616 
G01 X0.1473 Y1.3616 
G01 X0.1259 Y1.3402 
G01 X0.1259 Y1.3098 
G01 X0.1473 Y1.2884 
G01 X0.1777 Y1.2884 
G01 X0.1976 Y1.3084 
G01 X0.2330 Y1.3084 
G01 X0.2490 Y1.2924 
G01 X0.2760 Y1.2924 
G01 X0.2951 Y1.3115 
G00 Z0.0200 
G00 X0.2951 Y1.5740 
G01 Z-0.0100 F10.00 
G01 X0.2951 Y1.6010 
G01 X0.2760 Y1.6201 
G01 X0.2490 Y1.6201 
G01 X0.2299 Y1.6010 
G01 X0.2299 Y1.5740 
G01 X0.2459 Y1.5580 
G01 X0.2459 Y1.5295 
G01 X0.2330 Y1.5166 
G01 X0.1977 Y1.5166 
G01 X0.1777 Y1.5366 
G01 X0.1473 Y1.5366 
G01 X0.1259 Y1.5152 
G01 X0.1259 Y1.4848 
G01 X0.1473 Y1.4634 
G01 X0.1777 Y1.4634 
G01 X0.1977 Y1.4834 
G01 X0.2330 Y1.4834 
G01 X0.2490 Y1.4674 
G01 X0.2760 Y1.4674 
G01 X0.2951 Y1.4865 
G01 X0.2951 Y1.5135 
G01 X0.2791 Y1.5295 
G01 X0.2791 Y1.5580 
G01 X0.2951 Y1.5740 
G00 Z0.0200 
G00 X1.3366 Y0.0644 
G01 Z-0.0100 F10.00 
G01 X1.3366 Y0.1356 
G01 X1.3352 Y0.1427 
G01 X1.3324 Y0.1493 
G01 X1.3284 Y0.1553 
G01 X1.3233 Y0.1604 
G01 X1.3173 Y0.1644 
G01 X1.3107 Y0.1672 
G01 X1.3036 Y0.1686 
G01 X1.2964 Y0.1686 
G01 X1.2893 Y0.1672 
G01 X1.2827 Y0.1644 
G01 X1.2767 Y0.1604 
G01 X1.2716 Y0.1553 
G01 X1.2676 Y0.1493 
G01 X1.2648 Y0.1427 
G01 X1.2634 Y0.1356 
G01 X1.2634 Y0.0644 
G01 X1.2648 Y0.0573 
G01 X1.2676 Y0.0507 
G01 X1.2716 Y0.0447 
G01 X1.2767 Y0.0396 
G01 X1.2827 Y0.0356 
G01 X1.2893 Y0.0328 
G01 X1.2964 Y0.0314 
G01 X1.3036 Y0.0314 
G01 X1.3107 Y0.0328 
G01 X1.3173 Y0.0356 
G01 X1.3233 Y0.0396 
G01 X1.3284 Y0.0447 
G01 X1.3324 Y0.0507 
G01 X1.3352 Y0.0573 
G01 X1.3366 Y0.0644 
G00 Z0.0200 
G00 X1.4366 Y0.0644 
G01 Z-0.0100 F10.00 
G01 X1.4366 Y0.1356 
G01 X1.4352 Y0.1427 
G01 X1.4324 Y0.1493 
G01 X1.4284 Y0.1553 
G01 X1.4233 Y0.1604 
G01 X1.4173 Y0.1644 
G01 X1.4107 Y0.1672 
G01 X1.4036 Y0.1686 
G01 X1.3964 Y0.1686 
G01 X1.3893 Y0.1672 
G01 X1.3827 Y0.1644 
G01 X1.3767 Y0.1604 
G01 X1.3716 Y0.1553 
G01 X1.3676 Y0.1493 
G01 X1.3648 Y0.1427 
G01 X1.3634 Y0.1356 
G01 X1.3634 Y0.0644 
G01 X1.3648 Y0.0573 
G01 X1.3676 Y0.0507 
G01 X1.3716 Y0.0447 
G01 X1.3767 Y0.0396 
G01 X1.3827 Y0.0356 
G01 X1.3893 Y0.0328 
G01 X1.3964 Y0.0314 
G01 X1.4036 Y0.0314 
G01 X1.4107 Y0.0328 
G01 X1.4173 Y0.0356 
G01 X1.4233 Y0.0396 
G01 X1.4284 Y0.0447 
G01 X1.4324 Y0.0507 
G01 X1.4352 Y0.0573 
G01 X1.4366 Y0.0644 
G00 Z0.0200 
G00 X1.5366 Y0.0644 
G01 Z-0.0100 F10.00 
G01 X1.5366 Y0.1356 
G01 X1.5352 Y0.1427 
G01 X1.5324 Y0.1493 
G01 X1.5284 Y0.1553 
G01 X1.5233 Y0.1604 
G01 X1.5173 Y0.1644 
G01 X1.5166 Y0.1647 
G01 X1.5166 Y0.3334 
G01 X1.5978 Y0.3334 
G01 X1.6022 Y0.3334 
G01 X1.6064 Y0.3345 
G01 X1.6102 Y0.3367 
G01 X1.7159 Y0.4424 
G01 X1.7385 Y0.4424 
G01 X1.7576 Y0.4615 
G01 X1.7576 Y0.4885 
G01 X1.7385 Y0.5076 
G01 X1.7115 Y0.5076 
G01 X1.6924 Y0.4885 
G01 X1.6924 Y0.4659 
G01 X1.5931 Y0.3666 
G01 X1.5022 Y0.3666 
G01 X1.4978 Y0.3666 
G01 X0.1694 Y0.3666 
G01 X0.0791 Y0.4569 
G01 X0.0791 Y0.6830 
G01 X0.0951 Y0.6990 
G01 X0.0951 Y0.7260 
G01 X0.0791 Y0.7420 
G01 X0.0791 Y0.8580 
G01 X0.0951 Y0.8740 
G01 X0.0951 Y0.9010 
G01 X0.0791 Y0.9170 
G01 X0.0791 Y1.0330 
G01 X0.0951 Y1.0490 
G01 X0.0951 Y1.0760 
G01 X0.0791 Y1.0920 
G01 X0.0791 Y1.2080 
G01 X0.0951 Y1.2240 
G01 X0.0951 Y1.2510 
G01 X0.0791 Y1.2670 
G01 X0.0791 Y1.3830 
G01 X0.0951 Y1.3990 
G01 X0.0951 Y1.4260 
G01 X0.0791 Y1.4420 
G01 X0.0791 Y1.5580 
G01 X0.0951 Y1.5740 
G01 X0.0951 Y1.6010 
G01 X0.0791 Y1.6170 
G01 X0.0791 Y2.0306 
G01 X0.1694 Y2.1209 
G01 X2.9431 Y2.1209 
G01 X3.0709 Y1.9931 
G01 X3.0709 Y1.4666 
G01 X2.9730 Y1.4666 
G01 X2.9694 Y1.4721 
G01 X2.9646 Y1.4769 
G01 X2.9589 Y1.4807 
G01 X2.9526 Y1.4833 
G01 X2.9459 Y1.4846 
G01 X2.8791 Y1.4846 
G01 X2.8724 Y1.4833 
G01 X2.8661 Y1.4807 
G01 X2.8604 Y1.4769 
G01 X2.8556 Y1.4721 
G01 X2.8518 Y1.4664 
G01 X2.8492 Y1.4601 
G01 X2.8479 Y1.4534 
G01 X2.8479 Y1.4466 
G01 X2.8492 Y1.4399 
G01 X2.8518 Y1.4336 
G01 X2.8556 Y1.4279 
G01 X2.8604 Y1.4231 
G01 X2.8661 Y1.4193 
G01 X2.8724 Y1.4167 
G01 X2.8791 Y1.4154 
G01 X2.9459 Y1.4154 
G01 X2.9526 Y1.4167 
G01 X2.9589 Y1.4193 
G01 X2.9646 Y1.4231 
G01 X2.9694 Y1.4279 
G01 X2.9730 Y1.4334 
G01 X3.0709 Y1.4334 
G01 X3.0709 Y1.1944 
G01 X2.9806 Y1.1041 
G01 X2.9730 Y1.1041 
G01 X2.9694 Y1.1096 
G01 X2.9646 Y1.1144 
G01 X2.9589 Y1.1182 
G01 X2.9526 Y1.1208 
G01 X2.9459 Y1.1221 
G01 X2.8791 Y1.1221 
G01 X2.8724 Y1.1208 
G01 X2.8661 Y1.1182 
G01 X2.8604 Y1.1144 
G01 X2.8556 Y1.1096 
G01 X2.8518 Y1.1039 
G01 X2.8492 Y1.0976 
G01 X2.8479 Y1.0909 
G01 X2.8479 Y1.0841 
G01 X2.8492 Y1.0774 
G01 X2.8518 Y1.0711 
G01 X2.8556 Y1.0654 
G01 X2.8604 Y1.0606 
G01 X2.8661 Y1.0568 
G01 X2.8724 Y1.0542 
G01 X2.8791 Y1.0529 
G01 X2.9459 Y1.0529 
G01 X2.9526 Y1.0542 
G01 X2.9589 Y1.0568 
G01 X2.9646 Y1.0606 
G01 X2.9694 Y1.0654 
G01 X2.9730 Y1.0709 
G01 X2.9897 Y1.0709 
G01 X2.9939 Y1.0720 
G01 X2.9977 Y1.0742 
G01 X3.0008 Y1.0773 
G01 X3.1008 Y1.1773 
G01 X3.1030 Y1.1811 
G01 X3.1041 Y1.1853 
G01 X3.1041 Y1.1897 
G01 X3.1041 Y1.4478 
G01 X3.1041 Y1.4522 
G01 X3.1041 Y1.9978 
G01 X3.1041 Y2.0022 
G01 X3.1030 Y2.0064 
G01 X3.1008 Y2.0102 
G01 X2.9633 Y2.1477 
G01 X2.9602 Y2.1508 
G01 X2.9564 Y2.1530 
G01 X2.9522 Y2.1541 
G01 X0.1603 Y2.1541 
G01 X0.1561 Y2.1530 
G01 X0.1523 Y2.1508 
G01 X0.1492 Y2.1477 
G01 X0.1492 Y2.1477 
G01 X0.0523 Y2.0508 
G01 X0.0523 Y2.0508 
G01 X0.0492 Y2.0477 
G01 X0.0470 Y2.0439 
G01 X0.0459 Y2.0397 
G01 X0.0459 Y1.6170 
G01 X0.0299 Y1.6010 
G01 X0.0299 Y1.5740 
G01 X0.0459 Y1.5580 
G01 X0.0459 Y1.4420 
G01 X0.0299 Y1.4260 
G01 X0.0299 Y1.3990 
G01 X0.0459 Y1.3830 
G01 X0.0459 Y1.2670 
G01 X0.0299 Y1.2510 
G01 X0.0299 Y1.2240 
G01 X0.0459 Y1.2080 
G01 X0.0459 Y1.0920 
G01 X0.0299 Y1.0760 
G01 X0.0299 Y1.0490 
G01 X0.0459 Y1.0330 
G01 X0.0459 Y0.9170 
G01 X0.0299 Y0.9010 
G01 X0.0299 Y0.8740 
G01 X0.0459 Y0.8580 
G01 X0.0459 Y0.7420 
G01 X0.0299 Y0.7260 
G01 X0.0299 Y0.6990 
G01 X0.0459 Y0.6830 
G01 X0.0459 Y0.4522 
G01 X0.0459 Y0.4478 
G01 X0.0470 Y0.4436 
G01 X0.0492 Y0.4398 
G01 X0.1492 Y0.3398 
G01 X0.1523 Y0.3367 
G01 X0.1561 Y0.3345 
G01 X0.1603 Y0.3334 
G01 X1.4834 Y0.3334 
G01 X1.4834 Y0.1647 
G01 X1.4827 Y0.1644 
G01 X1.4767 Y0.1604 
G01 X1.4716 Y0.1553 
G01 X1.4676 Y0.1493 
G01 X1.4648 Y0.1427 
G01 X1.4634 Y0.1356 
G01 X1.4634 Y0.0644 
G01 X1.4648 Y0.0573 
G01 X1.4676 Y0.0507 
G01 X1.4716 Y0.0447 
G01 X1.4767 Y0.0396 
G01 X1.4827 Y0.0356 
G01 X1.4893 Y0.0328 
G01 X1.4964 Y0.0314 
G01 X1.5036 Y0.0314 
G01 X1.5107 Y0.0328 
