(www.cuttingedgecnc.com)
(HELLO)
(Program Name:3D DEMO ONLY)
(Endmill Size: NONE)
(Origin: MIDDLE OF MACHINE)
(Footprint: 75x75x35 mm)
(IN METRIC UNITS)
N40 G21 G90
N50 G92 X0 Y0 Z0
N60 F400
N70 G01 X6.317 Y11.209 Z10.859 
N80 G01 X6.301 Y11.295 Z11.112 
N90 X6.286 Y11.386 Z11.368
N100 X6.272 Y11.483 Z11.629
N110 X6.258 Y11.586 Z11.894
N120 X6.244 Y11.694 Z12.163
N130 X6.23 Y11.809 Z12.435
N140 X6.217 Y11.929 Z12.711
N150 X6.205 Y12.054 Z12.991
N160 X6.193 Y12.186 Z13.274
N170 X6.181 Y12.324 Z13.56
N180 X6.17 Y12.467 Z13.849
N190 X6.159 Y12.616 Z14.141
N200 X6.149 Y12.771 Z14.435
N210 X6.138 Y12.932 Z14.732
N220 X6.129 Y13.099 Z15.031
N230 X6.119 Y13.271 Z15.332
N240 X6.11 Y13.448 Z15.635
N250 X6.102 Y13.631 Z15.939
N260 X6.093 Y13.82 Z16.245
N270 X6.085 Y14.014 Z16.551
N280 X6.077 Y14.213 Z16.859
N290 X6.07 Y14.417 Z17.166
N300 X6.062 Y14.626 Z17.474
N310 X6.055 Y14.84 Z17.782
N320 X6.049 Y15.059 Z18.09
N330 X6.042 Y15.282 Z18.397
N340 X6.035 Y15.509 Z18.703
N350 X6.029 Y15.741 Z19.008
N360 X6.023 Y15.977 Z19.312
N370 X6.017 Y16.216 Z19.615
N380 X6.011 Y16.46 Z19.915
N390 X6.005 Y16.706 Z20.214
N400 X5.999 Y16.957 Z20.511
N410 X5.993 Y17.21 Z20.804
N420 X5.987 Y17.467 Z21.096
N430 X5.981 Y17.726 Z21.384
N440 X5.975 Y17.988 Z21.67
N450 X5.971 Y18.163 Z21.857
N460 X5.967 Y18.34 Z22.044
N470 X5.961 Y18.607 Z22.321
N480 X5.954 Y18.876 Z22.595
N490 X5.948 Y19.148 Z22.865
N500 X5.942 Y19.421 Z23.132
N510 X5.935 Y19.695 Z23.394
N520 X5.928 Y19.971 Z23.652
N530 X5.921 Y20.249 Z23.905
N540 X5.914 Y20.527 Z24.155
N550 X5.907 Y20.807 Z24.399
N560 X5.899 Y21.087 Z24.64
N570 X5.891 Y21.368 Z24.875
N580 X5.883 Y21.649 Z25.106
N590 X5.875 Y21.931 Z25.332
N600 X5.866 Y22.213 Z25.553
N610 X5.857 Y22.496 Z25.769
N620 X5.848 Y22.778 Z25.98
N630 X5.839 Y23.061 Z26.186
N640 X5.829 Y23.343 Z26.387
N650 X5.819 Y23.625 Z26.583
N660 X5.809 Y23.907 Z26.774
N670 X5.798 Y24.189 Z26.96
N680 X5.787 Y24.47 Z27.141
N690 X5.776 Y24.75 Z27.317
N700 X5.764 Y25.03 Z27.488
N710 X5.752 Y25.309 Z27.653
N720 X5.739 Y25.588 Z27.814
N730 X5.727 Y25.865 Z27.969
N740 X5.714 Y26.142 Z28.12
N750 X5.7 Y26.418 Z28.265
N760 X5.686 Y26.693 Z28.406
N770 X5.672 Y26.967 Z28.541
N780 X5.657 Y27.239 Z28.671
N790 X5.643 Y27.511 Z28.797
N800 X5.627 Y27.782 Z28.917
N810 X5.612 Y28.051 Z29.033
N820 X5.596 Y28.319 Z29.144
N830 X5.579 Y28.586 Z29.25
N840 X5.562 Y28.852 Z29.352
N850 X5.545 Y29.117 Z29.448
N860 X5.528 Y29.38 Z29.54
N870 X5.51 Y29.642 Z29.628
N880 X5.491 Y29.903 Z29.71
N890 X5.473 Y30.163 Z29.788
N900 X5.454 Y30.421 Z29.862
N910 X5.434 Y30.678 Z29.931
N920 X5.414 Y30.933 Z29.996
N930 X5.394 Y31.187 Z30.056
N940 X5.373 Y31.44 Z30.112
N950 X5.352 Y31.692 Z30.163
N960 X5.331 Y31.942 Z30.21
N970 X5.309 Y32.191 Z30.253
N980 X5.287 Y32.439 Z30.292
N990 X5.265 Y32.685 Z30.326
N1000 X5.242 Y32.93 Z30.356
N1010 X5.218 Y33.174 Z30.382
N1020 X5.195 Y33.416 Z30.404
N1030 X5.17 Y33.658 Z30.422
N1040 X5.146 Y33.898 Z30.435
N1050 X5.121 Y34.136 Z30.445
N1060 X5.096 Y34.374 Z30.451
N1070 X5.07 Y34.61 Z30.452
N1080 X5.044 Y34.845 Z30.45
N1090 X5.017 Y35.08 Z30.444
N1100 X4.998 Y35.247 Z30.437
N1110 X4.971 Y35.479 Z30.424
N1120 X4.943 Y35.713 Z30.407
N1130 X4.914 Y35.947 Z30.385
N1140 X4.885 Y36.184 Z30.36
N1150 X4.854 Y36.421 Z30.331
N1160 X4.824 Y36.66 Z30.297
N1170 X4.792 Y36.901 Z30.259
N1180 X4.76 Y37.143 Z30.217
N1190 X4.727 Y37.387 Z30.171
N1200 X4.693 Y37.632 Z30.12
N1210 X4.659 Y37.879 Z30.065
N1220 X4.623 Y38.128 Z30.005
N1230 X4.587 Y38.379 Z29.941
N1240 X4.551 Y38.631 Z29.873
N1250 X4.513 Y38.886 Z29.799
N1260 X4.475 Y39.142 Z29.721
N1270 X4.435 Y39.4 Z29.639
N1280 X4.396 Y39.66 Z29.551
N1290 X4.355 Y39.922 Z29.459
N1300 X4.313 Y40.186 Z29.361
N1310 X4.271 Y40.453 Z29.259
N1320 X4.228 Y40.721 Z29.151
N1330 X4.184 Y40.992 Z29.039
N1340 X4.139 Y41.265 Z28.921
N1350 X4.093 Y41.54 Z28.798
N1360 X4.046 Y41.818 Z28.669
N1370 X3.999 Y42.098 Z28.535
N1380 X3.95 Y42.38 Z28.395
N1390 X3.901 Y42.665 Z28.25
N1400 X3.851 Y42.952 Z28.099
N1410 X3.8 Y43.242 Z27.942
N1420 X3.748 Y43.535 Z27.779
N1430 X3.696 Y43.83 Z27.61
N1440 X3.642 Y44.128 Z27.435
N1450 X3.587 Y44.428 Z27.254
N1460 X3.532 Y44.732 Z27.066
N1470 X3.476 Y45.038 Z26.872
N1480 X3.418 Y45.348 Z26.671
N1490 X3.36 Y45.66 Z26.464
N1500 X3.301 Y45.975 Z26.249
N1510 X3.241 Y46.294 Z26.028
N1520 X3.18 Y46.615 Z25.8
N1530 X3.119 Y46.94 Z25.565
N1540 X3.056 Y47.268 Z25.322
N1550 X2.992 Y47.6 Z25.072
N1560 X2.928 Y47.935 Z24.814
N1570 X2.863 Y48.274 Z24.549
N1580 X2.796 Y48.616 Z24.275
N1590 X2.729 Y48.962 Z23.994
N1600 X2.662 Y49.312 Z23.704
N1610 X2.593 Y49.666 Z23.406
N1620 X2.523 Y50.023 Z23.1
N1630 X2.453 Y50.385 Z22.785
N1640 X2.382 Y50.752 Z22.46
N1650 X2.31 Y51.122 Z22.127
N1660 X2.238 Y51.497 Z21.785
N1670 X2.165 Y51.877 Z21.432
N1680 X2.091 Y52.262 Z21.071
N1690 X2.017 Y52.652 Z20.699
N1700 X1.942 Y53.046 Z20.317
N1710 X1.867 Y53.447 Z19.924
N1720 X1.791 Y53.852 Z19.521
N1730 X1.715 Y54.263 Z19.107
N1740 X1.64 Y54.68 Z18.682
N1750 X1.564 Y55.103 Z18.246
N1760 X1.489 Y55.531 Z17.8
N1770 X1.414 Y55.965 Z17.342
N1780 X1.341 Y56.404 Z16.875
N1790 X1.268 Y56.846 Z16.399
N1800 X1.198 Y57.292 Z15.916
N1810 X1.13 Y57.738 Z15.429
N1820 X1.066 Y58.182 Z14.94
N1830 X1.005 Y58.62 Z14.455
N1840 X.95 Y59.049 Z13.978
N1850 X.899 Y59.465 Z13.513
N1860 X.855 Y59.865 Z13.066
N1870 X.817 Y60.246 Z12.64
N1880 X.791 Y60.532 Z12.319
N1890 X.763 Y60.878 Z11.933
N1900 X.741 Y61.205 Z11.57
N1910 X.724 Y61.512 Z11.229
N1920 X.712 Y61.801 Z10.91
N1930 X.711 Y61.847 Z10.859
N1940 X.704 Y62.117 Z10.564
N1950 X.701 Y62.378 Z10.281
N1960 X.702 Y62.631 Z10.009
N1970 X.706 Y62.875 Z9.749
N1980 X.714 Y63.111 Z9.5
N1990 X.725 Y63.339 Z9.261
N2000 X.739 Y63.559 Z9.034
N2010 X.752 Y63.718 Z8.871
N2020 X.771 Y63.924 Z8.662
N2030 X.793 Y64.122 Z8.464
N2040 X.818 Y64.313 Z8.275
N2050 X.845 Y64.497 Z8.097
N2060 X.874 Y64.673 Z7.928
N2070 X.905 Y64.842 Z7.768
N2080 X.938 Y65.005 Z7.618
N2090 X.973 Y65.161 Z7.477
N2100 X1.01 Y65.31 Z7.344
N2110 X1.048 Y65.453 Z7.22
N2120 X1.087 Y65.59 Z7.104
N2130 X1.128 Y65.722 Z6.996
N2140 X1.17 Y65.847 Z6.896
N2150 X1.213 Y65.967 Z6.803
N2160 X1.257 Y66.081 Z6.717
N2170 X1.301 Y66.191 Z6.637
N2180 X1.346 Y66.295 Z6.565
N2190 X1.392 Y66.395 Z6.498
N2200 X1.439 Y66.49 Z6.438
N2210 X1.486 Y66.58 Z6.384
N2220 X1.517 Y66.638 Z6.351
N2230 X1.565 Y66.722 Z6.305
N2240 X1.613 Y66.801 Z6.265
N2250 X1.661 Y66.877 Z6.23
N2260 X1.71 Y66.95 Z6.199
N2270 X1.758 Y67.019 Z6.173
N2280 X1.807 Y67.085 Z6.151
N2290 X1.856 Y67.147 Z6.134
N2300 X1.906 Y67.207 Z6.12
N2310 X1.955 Y67.264 Z6.11
N2320 X2.005 Y67.319 Z6.104
N2330 X2.055 Y67.37 Z6.102
N2340 X2.106 Y67.42 Z6.103
N2350 X2.157 Y67.467 Z6.108
N2360 X2.208 Y67.512 Z6.116
N2370 X2.26 Y67.556 Z6.128
N2380 X2.312 Y67.597 Z6.143
N2390 X2.365 Y67.636 Z6.162
N2400 X2.419 Y67.674 Z6.184
N2410 X2.473 Y67.709 Z6.21
N2420 X2.528 Y67.743 Z6.239
N2430 X2.584 Y67.775 Z6.272
N2440 X2.641 Y67.806 Z6.309
N2450 X2.7 Y67.835 Z6.351
N2460 X2.759 Y67.862 Z6.396
N2470 X2.819 Y67.887 Z6.446
N2480 X2.881 Y67.911 Z6.501
N2490 X2.944 Y67.933 Z6.56
N2500 X3.009 Y67.953 Z6.625
N2510 X3.075 Y67.97 Z6.695
N2520 X3.142 Y67.986 Z6.77
N2530 X3.211 Y68. Z6.851
N2540 X3.281 Y68.011 Z6.939
N2550 X3.353 Y68.02 Z7.032
N2560 X3.427 Y68.027 Z7.133
N2570 X3.502 Y68.031 Z7.24
N2580 X3.579 Y68.033 Z7.355
N2590 X3.657 Y68.031 Z7.477
N2600 X3.738 Y68.027 Z7.607
N2610 X3.819 Y68.02 Z7.745
N2620 X3.902 Y68.01 Z7.892
N2630 X3.987 Y67.996 Z8.047
N2640 X4.073 Y67.979 Z8.211
N2650 X4.161 Y67.958 Z8.385
N2660 X4.25 Y67.934 Z8.568
N2670 X4.341 Y67.906 Z8.761
N2680 X4.433 Y67.875 Z8.964
N2690 X4.526 Y67.839 Z9.178
N2700 X4.62 Y67.799 Z9.402
N2710 X4.715 Y67.755 Z9.637
N2720 X4.812 Y67.707 Z9.884
N2730 X4.909 Y67.655 Z10.141
N2740 X5.007 Y67.598 Z10.41
N2750 X5.105 Y67.537 Z10.691
N2760 X5.163 Y67.499 Z10.859
N2770 X5.262 Y67.431 Z11.159
N2780 X5.367 Y67.354 Z11.485
N2790 X5.478 Y67.269 Z11.842
N2800 X5.598 Y67.172 Z12.236
N2810 X5.728 Y67.061 Z12.676
N2820 X5.873 Y66.934 Z13.174
N2830 X6.037 Y66.783 Z13.749
N2840 X6.229 Y66.603 Z14.422
N2850 X6.406 Y66.436 Z15.038
N2860 X6.587 Y66.263 Z15.665
N2870 X6.747 Y66.11 Z16.209
N2880 X6.885 Y65.981 Z16.666
N2890 X7.051 Y65.827 Z17.207
N2900 X7.209 Y65.684 Z17.706
N2910 X7.329 Y65.577 Z18.077
N2920 X7.477 Y65.447 Z18.523
N2930 X7.622 Y65.324 Z18.945
N2940 X7.764 Y65.206 Z19.347
N2950 X7.904 Y65.092 Z19.732
N2960 X8.008 Y65.01 Z20.008
N2970 X8.146 Y64.904 Z20.367
N2980 X8.284 Y64.801 Z20.712
N2990 X8.421 Y64.701 Z21.045
N3000 X8.558 Y64.605 Z21.367
N3010 X8.694 Y64.511 Z21.678
N3020 X8.831 Y64.421 Z21.978
N3030 X8.967 Y64.333 Z22.27
N3040 X9.104 Y64.248 Z22.551
N3050 X9.241 Y64.165 Z22.825
N3060 X9.378 Y64.084 Z23.09
N3070 X9.468 Y64.033 Z23.259
N3080 X9.606 Y63.956 Z23.511
N3090 X9.744 Y63.882 Z23.755
N3100 X9.883 Y63.809 Z23.992
N3110 X10.022 Y63.739 Z24.222
N3120 X10.162 Y63.671 Z24.445
N3130 X10.302 Y63.605 Z24.661
N3140 X10.443 Y63.54 Z24.871
N3150 X10.585 Y63.478 Z25.074
N3160 X10.727 Y63.417 Z25.272
N3170 X10.869 Y63.358 Z25.464
N3180 X11.013 Y63.301 Z25.65
N3190 X11.157 Y63.246 Z25.83
N3200 X11.302 Y63.192 Z26.005
N3210 X11.447 Y63.14 Z26.175
N3220 X11.593 Y63.089 Z26.339
N3230 X11.74 Y63.04 Z26.498
N3240 X11.888 Y62.992 Z26.653
N3250 X12.037 Y62.946 Z26.802
N3260 X12.186 Y62.902 Z26.947
N3270 X12.336 Y62.859 Z27.087
N3280 X12.487 Y62.817 Z27.222
N3290 X12.639 Y62.777 Z27.353
N3300 X12.792 Y62.738 Z27.48
N3310 X12.946 Y62.701 Z27.602
N3320 X13.1 Y62.664 Z27.72
N3330 X13.256 Y62.63 Z27.834
N3340 X13.413 Y62.596 Z27.944
N3350 X13.57 Y62.564 Z28.05
N3360 X13.729 Y62.533 Z28.152
N3370 X13.889 Y62.503 Z28.25
N3380 X14.05 Y62.474 Z28.344
N3390 X14.212 Y62.447 Z28.434
N3400 X14.375 Y62.421 Z28.521
N3410 X14.54 Y62.396 Z28.604
N3420 X14.706 Y62.372 Z28.683
N3430 X14.789 Y62.361 Z28.721
N3440 X14.873 Y62.35 Z28.758
N3450 X15.041 Y62.328 Z28.83
N3460 X15.211 Y62.308 Z28.899
N3470 X15.383 Y62.289 Z28.963
N3480 X15.556 Y62.271 Z29.025
N3490 X15.73 Y62.254 Z29.082
N3500 X15.906 Y62.238 Z29.137
N3510 X16.084 Y62.224 Z29.187
N3520 X16.264 Y62.21 Z29.235
N3530 X16.445 Y62.198 Z29.278
N3540 X16.628 Y62.187 Z29.319
N3550 X16.813 Y62.177 Z29.355
N3560 X17. Y62.168 Z29.389
N3570 X17.189 Y62.161 Z29.418
N3580 X17.38 Y62.154 Z29.444
N3590 X17.573 Y62.149 Z29.467
N3600 X17.768 Y62.145 Z29.486
N3610 X17.965 Y62.142 Z29.501
N3620 X18.165 Y62.141 Z29.513
N3630 X18.367 Z29.521
N3640 X18.572 Z29.525
N3650 X18.778 Y62.144
N3660 X18.988 Y62.147 Z29.522
N3670 X19.073 Y62.149 Z29.52
N3680 X19.286 Y62.154 Z29.511
N3690 X19.504 Y62.161 Z29.498
N3700 X19.728 Y62.169 Z29.481
N3710 X19.956 Y62.178 Z29.46
N3720 X20.19 Y62.189 Z29.434
N3730 X20.429 Y62.202 Z29.405
N3740 X20.674 Y62.216 Z29.37
N3750 X20.925 Y62.232 Z29.331
N3760 X21.182 Y62.249 Z29.287
N3770 X21.445 Y62.268 Z29.239
N3780 X21.714 Y62.289 Z29.185
N3790 X21.989 Y62.312 Z29.126
N3800 X22.271 Y62.336 Z29.062
N3810 X22.56 Y62.362 Z28.992
N3820 X22.856 Y62.39 Z28.917
N3830 X23.158 Y62.421 Z28.836
N3840 X23.468 Y62.453 Z28.749
N3850 X23.785 Y62.487 Z28.657
N3860 X24.109 Y62.524 Z28.558
N3870 X24.441 Y62.562 Z28.452
N3880 X24.781 Y62.603 Z28.341
N3890 X25.129 Y62.646 Z28.222
N3900 X25.485 Y62.692 Z28.097
N3910 X25.85 Y62.74 Z27.965
N3920 X26.223 Y62.791 Z27.826
N3930 X26.605 Y62.844 Z27.679
N3940 X26.997 Y62.9 Z27.525
N3950 X27.397 Y62.958 Z27.363
N3960 X27.807 Y63.02 Z27.193
N3970 X28.227 Y63.084 Z27.014
N3980 X28.658 Y63.151 Z26.828
N3990 X29.098 Y63.222 Z26.632
N4000 X29.549 Y63.295 Z26.428
N4010 X30.012 Y63.372 Z26.215
N4020 X30.486 Y63.452 Z25.992
N4030 X30.971 Y63.536 Z25.759
N4040 X31.469 Y63.623 Z25.517
N4050 X31.979 Y63.714 Z25.264
N4060 X32.503 Y63.809 Z25.
N4070 X33.04 Y63.908 Z24.725
N4080 X33.591 Y64.011 Z24.439
N4090 X34.157 Y64.118 Z24.141
N4100 X34.739 Y64.23 Z23.83
N4110 X35.338 Y64.347 Z23.506
N4120 X35.954 Y64.469 Z23.168
N4130 X36.588 Y64.596 Z22.816
N4140 X37.243 Y64.729 Z22.449
N4150 X37.919 Y64.868 Z22.065
N4160 X38.618 Y65.013 Z21.664
N4170 X39.344 Y65.166 Z21.244
N4180 X40.098 Y65.327 Z20.802
N4190 X40.884 Y65.496 Z20.338
N4200 X41.708 Y65.676 Z19.847
N4210 X42.577 Y65.867 Z19.326
N4220 X43.501 Y66.073 Z18.767
N4230 X44.496 Y66.297 Z18.162
N4240 X45.585 Y66.544 Z17.496
N4250 X46.815 Y66.827 Z16.741
N4260 X48.25 Y67.16 Z15.858
N4270 X49.502 Y67.453 Z15.089
N4280 X50.452 Y67.677 Z14.507
N4290 X51.38 Y67.897 Z13.942
N4300 X52.157 Y68.081 Z13.472
N4310 X52.789 Y68.231 Z13.093
N4320 X53.522 Y68.406 Z12.658
N4330 X54.179 Y68.562 Z12.272
N4340 X54.649 Y68.674 Z12.
N4350 X55.207 Y68.806 Z11.68
N4360 X55.721 Y68.928 Z11.391
N4370 X56.196 Y69.04 Z11.128
N4380 X56.637 Y69.144 Z10.889
N4390 X56.692 Y69.157 Z10.859
N4400 X57.099 Y69.252 Z10.643
N4410 X57.492 Y69.344 Z10.439
N4420 X57.873 Y69.433 Z10.246
N4430 X58.241 Y69.518 Z10.064
N4440 X58.596 Y69.6 Z9.892
N4450 X58.939 Y69.678 Z9.731
N4460 X59.271 Y69.753 Z9.579
N4470 X59.59 Y69.825 Z9.437
N4480 X59.899 Y69.895 Z9.304
N4490 X60.197 Y69.961 Z9.181
N4500 X60.484 Y70.024 Z9.066
N4510 X60.761 Y70.085 Z8.959
N4520 X61.029 Y70.142 Z8.86
N4530 X61.286 Y70.198 Z8.77
N4540 X61.534 Y70.25 Z8.686
N4550 X61.773 Y70.3 Z8.61
N4560 X62.003 Y70.347 Z8.541
N4570 X62.225 Y70.393 Z8.478
N4580 X62.439 Y70.435 Z8.422
N4590 X62.644 Y70.476 Z8.372
N4600 X62.842 Y70.514 Z8.327
N4610 X63.032 Y70.55 Z8.289
N4620 X63.216 Y70.584 Z8.256
N4630 X63.392 Y70.616 Z8.228
N4640 X63.561 Y70.646 Z8.205
N4650 X63.724 Y70.675 Z8.187
N4660 X63.881 Y70.701 Z8.173
N4670 X64.032 Y70.725 Z8.164
N4680 X64.178 Y70.748 Z8.159
N4690 X64.317 Y70.769 Z8.158
N4700 X64.452 Y70.789 Z8.162
N4710 X64.581 Y70.807 Z8.168
N4720 X64.705 Y70.823 Z8.179
N4730 X64.825 Y70.837 Z8.192
N4740 X64.94 Y70.851 Z8.21
N4750 X65.051 Y70.863 Z8.23
N4760 X65.158 Y70.873 Z8.253
N4770 X65.261 Y70.882 Z8.28
N4780 X65.36 Y70.89 Z8.309
N4790 X65.456 Y70.896 Z8.342
N4800 X65.548 Y70.901 Z8.377
N4810 X65.638 Y70.905 Z8.415
N4820 X65.724 Y70.907 Z8.455
N4830 X65.807 Y70.908 Z8.499
N4840 X65.887 Z8.545
N4850 X65.965 Y70.906 Z8.594
N4860 X66.04 Y70.903 Z8.646
N4870 X66.113 Y70.899 Z8.701
N4880 X66.184 Y70.893 Z8.758
N4890 X66.253 Y70.886 Z8.819
N4900 X66.319 Y70.877 Z8.882
N4910 X66.384 Y70.866 Z8.949
N4920 X66.446 Y70.854 Z9.019
N4930 X66.507 Y70.841 Z9.093
N4940 X66.567 Y70.825 Z9.17
N4950 X66.624 Y70.807 Z9.251
N4960 X66.681 Y70.787 Z9.336
N4970 X66.735 Y70.765 Z9.426
N4980 X66.789 Y70.74 Z9.519
N4990 X66.841 Y70.712 Z9.618
N5000 X66.893 Y70.681 Z9.722
N5010 X66.943 Y70.647 Z9.831
N5020 X66.993 Y70.608 Z9.945
N5030 X67.042 Y70.565 Z10.066
N5040 X67.09 Y70.518 Z10.192
N5050 X67.139 Y70.465 Z10.324
N5060 X67.187 Y70.407 Z10.46
N5070 X67.235 Y70.345 Z10.596
N5080 X67.281 Y70.28 Z10.729
N5090 X67.317 Y70.227 Z10.832
N5100 X67.327 Y70.212 Z10.859
N5110 X67.37 Y70.147 Z10.975
N5120 X67.411 Y70.081 Z11.084
N5130 X67.451 Y70.014 Z11.186
N5140 X67.49 Y69.947 Z11.282
N5150 X67.527 Y69.879 Z11.372
N5160 X67.562 Y69.81 Z11.456
N5170 X67.595 Y69.74 Z11.535
N5180 X67.627 Y69.669 Z11.61
N5190 X67.657 Y69.598 Z11.679
N5200 X67.685 Y69.525 Z11.745
N5210 X67.711 Y69.451 Z11.806
N5220 X67.736 Y69.375 Z11.864
N5230 X67.759 Y69.298 Z11.918
N5240 X67.779 Y69.22 Z11.968
N5250 X67.798 Y69.14 Z12.015
N5260 X67.816 Y69.058 Z12.059
N5270 X67.831 Y68.974 Z12.1
N5280 X67.844 Y68.888 Z12.139
N5290 X67.856 Y68.8 Z12.174
N5300 X67.865 Y68.71 Z12.206
N5310 X67.873 Y68.617 Z12.236
N5320 X67.878 Y68.521 Z12.263
N5330 X67.881 Y68.423 Z12.288
N5340 X67.882 Y68.322 Z12.31
N5350 X67.88 Y68.217 Z12.329
N5360 X67.877 Y68.109 Z12.345
N5370 X67.87 Y67.998 Z12.359
N5380 X67.861 Y67.882 Z12.37
N5390 X67.849 Y67.763 Z12.378
N5400 X67.834 Y67.64 Z12.383
N5410 X67.816 Y67.512 Z12.386
N5420 X67.794 Y67.38 Z12.385
N5430 X67.769 Y67.243 Z12.381
N5440 X67.741 Y67.101 Z12.374
N5450 X67.709 Y66.954 Z12.364
N5460 X67.672 Y66.801 Z12.35
N5470 X67.632 Y66.643 Z12.333
N5480 X67.587 Y66.478 Z12.312
N5490 X67.537 Y66.308 Z12.288
N5500 X67.483 Y66.131 Z12.259
N5510 X67.423 Y65.947 Z12.227
N5520 X67.358 Y65.756 Z12.19
N5530 X67.287 Y65.558 Z12.149
N5540 X67.21 Y65.353 Z12.103
N5550 X67.127 Y65.139 Z12.053
N5560 X67.038 Y64.918 Z11.998
N5570 X66.941 Y64.688 Z11.938
N5580 X66.838 Y64.449 Z11.873
N5590 X66.727 Y64.202 Z11.803
N5600 X66.608 Y63.945 Z11.727
N5610 X66.481 Y63.678 Z11.646
N5620 X66.346 Y63.402 Z11.559
N5630 X66.202 Y63.116 Z11.466
N5640 X66.049 Y62.819 Z11.367
N5650 X65.886 Y62.511 Z11.261
N5660 X65.713 Y62.192 Z11.149
N5670 X65.53 Y61.861 Z11.031
N5680 X65.337 Y61.519 Z10.905
N5690 X65.266 Y61.395 Z10.859
N5700 X65.058 Y61.037 Z10.724
N5710 X64.83 Y60.652 Z10.577
N5720 X64.582 Y60.24 Z10.417
N5730 X64.311 Y59.797 Z10.243
N5740 X64.014 Y59.319 Z10.053
N5750 X63.69 Y58.805 Z9.847
N5760 X63.335 Y58.248 Z9.622
N5770 X62.946 Y57.646 Z9.377
N5780 X62.521 Y56.995 Z9.113
N5790 X62.06 Y56.297 Z8.828
N5800 X61.568 Y55.557 Z8.528
N5810 X61.056 Y54.794 Z8.221
N5820 X60.54 Y54.03 Z7.915
N5830 X60.035 Y53.285 Z7.621
N5840 X59.611 Y52.661 Z7.377
N5850 X59.141 Y51.972 Z7.112
N5860 X58.771 Y51.431 Z6.906
N5870 X58.338 Y50.798 Z6.67
N5880 X57.924 Y50.192 Z6.448
N5890 X57.527 Y49.611 Z6.24
N5900 X57.217 Y49.157 Z6.08
N5910 X56.848 Y48.617 Z5.893
N5920 X56.493 Y48.096 Z5.718
N5930 X56.151 Y47.594 Z5.553
N5940 X55.822 Y47.109 Z5.398
N5950 X55.505 Y46.64 Z5.253
N5960 X55.263 Y46.282 Z5.145
N5970 X54.965 Y45.84 Z5.015
N5980 X54.678 Y45.413 Z4.894
N5990 X54.401 Y44.998 Z4.781
N6000 X54.134 Y44.596 Z4.675
N6010 X53.876 Y44.207 Z4.577
N6020 X53.626 Y43.829 Z4.485
N6030 X53.386 Y43.463 Z4.401
N6040 X53.153 Y43.107 Z4.323
N6050 X52.929 Y42.762 Z4.252
N6060 X52.766 Y42.51 Z4.202
N6070 X52.556 Y42.183 Z4.142
N6080 X52.352 Y41.865 Z4.087
N6090 X52.156 Y41.556 Z4.037
N6100 X51.967 Y41.256 Z3.993
N6110 X51.784 Y40.965 Z3.954
N6120 X51.609 Y40.682 Z3.921
N6130 X51.439 Y40.408 Z3.892
N6140 X51.276 Y40.141 Z3.868
N6150 X51.119 Y39.883 Z3.849
N6160 X50.968 Y39.632 Z3.834
N6170 X50.823 Y39.388 Z3.823
N6180 X50.683 Y39.151 Z3.817
N6190 X50.548 Y38.921 Z3.815
N6200 X50.426 Y38.709 Z3.816
N6210 X50.301 Y38.493 Z3.821
N6220 X50.18 Y38.278 Z3.83
N6230 X50.061 Y38.066 Z3.842
N6240 X49.945 Y37.857 Z3.859
N6250 X49.832 Y37.65 Z3.878
N6260 X49.721 Y37.445 Z3.901
N6270 X49.613 Y37.243 Z3.928
N6280 X49.508 Y37.042 Z3.958
N6290 X49.405 Y36.844 Z3.992
N6300 X49.304 Y36.648 Z4.028
N6310 X49.206 Y36.453 Z4.069
N6320 X49.111 Y36.261 Z4.112
N6330 X49.018 Y36.07 Z4.159
N6340 X48.927 Y35.881 Z4.209
N6350 X48.839 Y35.694 Z4.262
N6360 X48.753 Y35.509 Z4.318
N6370 X48.669 Y35.325 Z4.378
N6380 X48.587 Y35.143 Z4.44
N6390 X48.508 Y34.962 Z4.506
N6400 X48.431 Y34.782 Z4.575
N6410 X48.357 Y34.604 Z4.647
N6420 X48.284 Y34.427 Z4.722
N6430 X48.214 Y34.251 Z4.801
N6440 X48.146 Y34.076 Z4.882
N6450 X48.08 Y33.903 Z4.967
N6460 X48.017 Y33.73 Z5.054
N6470 X47.956 Y33.558 Z5.145
N6480 X47.896 Y33.387 Z5.239
N6490 X47.839 Y33.216 Z5.337
N6500 X47.785 Y33.047 Z5.437
N6510 X47.732 Y32.878 Z5.541
N6520 X47.682 Y32.709 Z5.648
N6530 X47.634 Y32.541 Z5.759
N6540 X47.588 Y32.373 Z5.873
N6550 X47.545 Y32.205 Z5.99
N6560 X47.504 Y32.037 Z6.111
N6570 X47.465 Y31.87 Z6.235
N6580 X47.429 Y31.702 Z6.363
N6590 X47.396 Y31.534 Z6.495
N6600 X47.364 Y31.365 Z6.63
N6610 X47.336 Y31.196 Z6.769
N6620 X47.31 Y31.026 Z6.911
N6630 X47.287 Y30.856 Z7.058
N6640 X47.267 Y30.684 Z7.209
N6650 X47.249 Y30.512 Z7.363
N6660 X47.235 Y30.338 Z7.521
N6670 X47.224 Y30.162 Z7.684
N6680 X47.216 Y29.986 Z7.85
N6690 X47.212 Y29.807 Z8.021
N6700 Y29.626 Z8.194
N6710 X47.215 Y29.444 Z8.371
N6720 X47.222 Y29.26 Z8.551
N6730 X47.233 Y29.075 Z8.733
N6740 X47.248 Y28.889 Z8.915
N6750 X47.267 Y28.704 Z9.097
N6760 X47.289 Y28.52 Z9.276
N6770 X47.315 Y28.338 Z9.451
N6780 X47.344 Y28.16 Z9.62
N6790 X47.376 Y27.986 Z9.782
N6800 X47.409 Y27.817 Z9.936
N6810 X47.444 Y27.654 Z10.082
N6820 X47.472 Y27.528 Z10.191
N6830 X47.509 Y27.375 Z10.321
N6840 X47.547 Y27.226 Z10.442
N6850 X47.585 Y27.083 Z10.554
N6860 X47.623 Y26.944 Z10.659
N6870 X47.661 Y26.809 Z10.756
N6880 X47.699 Y26.677 Z10.846
N6890 X47.705 Y26.657 Z10.859
N6900 X47.743 Y26.529 Z10.941
N6910 X47.782 Y26.402 Z11.019
N6920 X47.822 Y26.273 Z11.093
N6930 X47.863 Y26.144 Z11.163
N6940 X47.906 Y26.015 Z11.228
N6950 X47.949 Y25.885 Z11.291
N6960 X47.994 Y25.754 Z11.349
N6970 X48.04 Y25.622 Z11.404
N6980 X48.087 Y25.49 Z11.455
N6990 X48.135 Y25.356 Z11.502
N7000 X48.185 Y25.222 Z11.546
N7010 X48.237 Y25.086 Z11.586
N7020 X48.29 Y24.949 Z11.623
N7030 X48.344 Y24.811 Z11.656
N7040 X48.401 Y24.671 Z11.686
N7050 X48.459 Y24.529 Z11.712
N7060 X48.519 Y24.386 Z11.735
N7070 X48.581 Y24.241 Z11.755
N7080 X48.646 Y24.095 Z11.771
N7090 X48.713 Y23.946 Z11.783
N7100 X48.782 Y23.795 Z11.792
N7110 X48.853 Y23.641 Z11.798
N7120 X48.928 Y23.485 Z11.8
N7130 X49.006 Y23.326 Z11.798
N7140 X49.086 Y23.165 Z11.793
N7150 X49.171 Y23. Z11.783
N7160 X49.258 Y22.831 Z11.77
N7170 X49.35 Y22.66 Z11.754
N7180 X49.447 Y22.484 Z11.733
N7190 X49.548 Y22.304 Z11.708
N7200 X49.654 Y22.12 Z11.68
N7210 X49.765 Y21.931 Z11.647
N7220 X49.883 Y21.737 Z11.61
N7230 X50.006 Y21.538 Z11.57
N7240 X50.137 Y21.334 Z11.525
N7250 X50.274 Y21.125 Z11.476
N7260 X50.419 Y20.912 Z11.425
N7270 X50.57 Y20.695 Z11.37
N7280 X50.727 Y20.477 Z11.313
N7290 X50.888 Y20.26 Z11.256
N7300 X51.052 Y20.045 Z11.199
N7310 X51.218 Y19.835 Z11.143
N7320 X51.383 Y19.632 Z11.089
N7330 X51.548 Y19.436 Z11.038
N7340 X51.686 Y19.275 Z10.998
N7350 X51.847 Y19.093 Z10.953
N7360 X52.005 Y18.918 Z10.913
N7370 X52.162 Y18.751 Z10.876
N7380 X52.24 Y18.669 Z10.859
N7390 X52.393 Y18.511 Z10.828
N7400 X52.551 Y18.352 Z10.8
N7410 X52.716 Y18.19 Z10.773
N7420 X52.886 Y18.026 Z10.749
N7430 X53.063 Y17.86 Z10.727
N7440 X53.248 Y17.691 Z10.707
N7450 X53.439 Y17.518 Z10.689
N7460 X53.639 Y17.341 Z10.674
N7470 X53.848 Y17.159 Z10.662
N7480 X54.067 Y16.972 Z10.652
N7490 X54.297 Y16.779 Z10.645
N7500 X54.54 Y16.577 Z10.641
N7510 X54.798 Y16.366 Z10.639
N7520 X55.073 Y16.143 Z10.642
N7530 X55.37 Y15.904 Z10.647
N7540 X55.693 Y15.645 Z10.657
N7550 X56.049 Y15.361 Z10.672
N7560 X56.436 Y15.05 Z10.692
N7570 X56.79 Y14.762 Z10.713
N7580 X57.113 Y14.497 Z10.733
N7590 X57.377 Y14.275 Z10.751
N7600 X57.638 Y14.053 Z10.768
N7610 X57.867 Y13.853 Z10.784
N7620 X58.068 Y13.674 Z10.797
N7630 X58.289 Y13.472 Z10.811
N7640 X58.492 Y13.281 Z10.823
N7650 X58.656 Y13.121 Z10.833
N7660 X58.834 Y12.944 Z10.842
N7670 X59. Y12.774 Z10.849
N7680 X59.131 Y12.634 Z10.854
N7690 X59.279 Y12.472 Z10.858
N7700 X59.33 Y12.415 Z10.859
N7710 X59.466 Y12.258 Z10.862
N7720 X59.599 Y12.099 Z10.863
N7730 X59.728 Y11.938 Z10.862
N7740 X59.854 Y11.776 Z10.861
N7750 X59.976 Y11.612 Z10.858
N7760 X60.095 Y11.447 Z10.855
N7770 X60.21 Y11.28 Z10.851
N7780 X60.32 Y11.113 Z10.845
N7790 X60.427 Y10.944 Z10.839
N7800 X60.53 Y10.774 Z10.833
N7810 X60.628 Y10.604 Z10.826
N7820 X60.723 Y10.433 Z10.818
N7830 X60.813 Y10.262 Z10.811
N7840 X60.898 Y10.09 Z10.803
N7850 X60.979 Y9.919 Z10.795
N7860 X61.056 Y9.748 Z10.787
N7870 X61.128 Y9.577 Z10.779
N7880 X61.195 Y9.407 Z10.771
N7890 X61.258 Y9.238 Z10.764
N7900 X61.316 Y9.069 Z10.757
N7910 X61.37 Y8.902 Z10.751
N7920 X61.419 Y8.736 Z10.745
N7930 X61.464 Y8.571 Z10.74
N7940 X61.504 Y8.408 Z10.736
N7950 X61.539 Y8.247 Z10.733
N7960 X61.57 Y8.088 Z10.731
N7970 X61.597 Y7.931 Z10.73
N7980 X61.62 Y7.776
N7990 X61.638 Y7.623 Z10.731
N8000 X61.653 Y7.472 Z10.733
N8010 X61.663 Y7.324 Z10.737
N8020 X61.67 Y7.178 Z10.742
N8030 X61.672 Y7.034 Z10.748
N8040 X61.671 Y6.893 Z10.756
N8050 X61.666 Y6.754 Z10.765
N8060 X61.658 Y6.618 Z10.776
N8070 X61.648 Y6.508 Z10.786
N8080 X61.634 Y6.376 Z10.799
N8090 X61.616 Y6.247 Z10.814
N8100 X61.594 Y6.121 Z10.831
N8110 X61.57 Y5.997 Z10.849
N8120 X61.556 Y5.934 Z10.859
N8130 X61.527 Y5.814 Z10.88
N8140 X61.494 Y5.694 Z10.903
N8150 X61.458 Y5.576 Z10.927
N8160 X61.418 Y5.458 Z10.952
N8170 X61.374 Y5.341 Z10.979
N8180 X61.327 Y5.225 Z11.007
N8190 X61.276 Y5.11 Z11.036
N8200 X61.221 Y4.996 Z11.066
N8210 X61.162 Y4.884 Z11.096
N8220 X61.1 Y4.773 Z11.127
N8230 X61.034 Y4.663 Z11.158
N8240 X60.964 Y4.555 Z11.189
N8250 X60.89 Y4.449 Z11.219
N8260 X60.813 Y4.345 Z11.249
N8270 X60.747 Y4.26 Z11.273
N8280 X60.663 Y4.159 Z11.301
N8290 X60.577 Y4.061 Z11.328
N8300 X60.487 Y3.965 Z11.354
N8310 X60.395 Y3.87 Z11.378
N8320 X60.299 Y3.778 Z11.401
N8330 X60.2 Y3.688 Z11.422
N8340 X60.099 Y3.601 Z11.44
N8350 X59.995 Y3.515 Z11.457
N8360 X59.888 Y3.431 Z11.471
N8370 X59.779 Y3.35 Z11.483
N8380 X59.667 Y3.27 Z11.493
N8390 X59.553 Y3.193 Z11.5
N8400 X59.436 Y3.118 Z11.505
N8410 X59.317 Y3.044 Z11.506
N8420 X59.195 Y2.972 Z11.505
N8430 X59.071 Y2.903 Z11.501
N8440 X58.945 Y2.835 Z11.494
N8450 X58.816 Y2.768 Z11.483
N8460 X58.685 Y2.704 Z11.47
N8470 X58.552 Y2.641 Z11.453
N8480 X58.417 Y2.58 Z11.433
N8490 X58.279 Y2.52 Z11.409
N8500 X58.138 Y2.462 Z11.382
N8510 X57.996 Y2.405 Z11.351
N8520 X57.851 Y2.35 Z11.316
N8530 X57.703 Y2.296 Z11.278
N8540 X57.553 Y2.244 Z11.235
N8550 X57.401 Y2.193 Z11.189
N8560 X57.246 Y2.144 Z11.138
N8570 X57.089 Y2.096 Z11.083
N8580 X56.929 Y2.049 Z11.024
N8590 X56.767 Y2.004 Z10.96
N8600 X56.602 Y1.96 Z10.892
N8610 X56.527 Y1.94 Z10.859
N8620 X56.358 Y1.898 Z10.784
N8630 X56.179 Y1.856 Z10.701
N8640 X55.989 Y1.813 Z10.61
N8650 X55.788 Y1.771 Z10.51
N8660 X55.576 Y1.73 Z10.404
N8670 X55.356 Y1.691 Z10.291
N8680 X55.13 Y1.655 Z10.175
N8690 X54.903 Y1.623 Z10.057
N8700 X54.714 Y1.599 Z9.96
N8710 X54.491 Y1.575 Z9.846
N8720 X54.272 Y1.555 Z9.736
N8730 X54.058 Y1.539 Z9.631
N8740 X53.849 Y1.528 Z9.53
N8750 X53.688 Y1.521 Z9.454
N8760 X53.489 Y1.516 Z9.362
N8770 X53.293 Y1.515 Z9.275
N8780 X53.102 Y1.516 Z9.193
N8790 X52.915 Y1.52 Z9.115
N8800 X52.731 Y1.528 Z9.042
N8810 X52.55 Y1.538 Z8.974
N8820 X52.372 Y1.55 Z8.909
N8830 X52.242 Y1.561 Z8.864
N8840 X52.069 Y1.577 Z8.806
N8850 X51.897 Y1.596 Z8.753
N8860 X51.728 Y1.618 Z8.704
N8870 X51.561 Y1.641 Z8.658
N8880 X51.396 Y1.667 Z8.617
N8890 X51.232 Y1.694 Z8.579
N8900 X51.07 Y1.724 Z8.544
N8910 X50.91 Y1.755 Z8.514
N8920 X50.75 Y1.789 Z8.487
N8930 X50.592 Y1.825 Z8.464
N8940 X50.435 Y1.862 Z8.444
N8950 X50.278 Y1.902 Z8.427
N8960 X50.123 Y1.943 Z8.415
N8970 X49.969 Y1.986 Z8.405
N8980 X49.815 Y2.031 Z8.4
N8990 X49.661 Y2.078 Z8.397
N9000 X49.509 Y2.127 Z8.399
N9010 X49.356 Y2.178 Z8.404
N9020 X49.204 Y2.231 Z8.412
N9030 X49.053 Y2.286 Z8.424
N9040 X48.901 Y2.342 Z8.439
N9050 X48.75 Y2.401 Z8.459
N9060 X48.599 Y2.462 Z8.481
N9070 X48.499 Y2.503 Z8.498
N9080 X48.348 Y2.567 Z8.527
N9090 X48.197 Y2.633 Z8.56
N9100 X48.046 Y2.701 Z8.597
N9110 X47.894 Y2.772 Z8.637
N9120 X47.743 Y2.844 Z8.682
N9130 X47.591 Y2.919 Z8.73
N9140 X47.439 Y2.996 Z8.782
N9150 X47.286 Y3.075 Z8.839
N9160 X47.134 Y3.157 Z8.9
N9170 X46.98 Y3.241 Z8.965
N9180 X46.827 Y3.327 Z9.035
N9190 X46.672 Y3.416 Z9.109
N9200 X46.518 Y3.507 Z9.187
N9210 X46.362 Y3.601 Z9.27
N9220 X46.206 Y3.698 Z9.359
N9230 X46.049 Y3.797 Z9.451
N9240 X45.892 Y3.899 Z9.549
N9250 X45.734 Y4.003 Z9.652
N9260 X45.575 Y4.111 Z9.761
N9270 X45.415 Y4.221 Z9.874
N9280 X45.255 Y4.335 Z9.993
N9290 X45.093 Y4.451 Z10.118
N9300 X44.931 Y4.57 Z10.248
N9310 X44.768 Y4.693 Z10.385
N9320 X44.604 Y4.819 Z10.527
N9330 X44.439 Y4.948 Z10.675
N9340 X44.274 Y5.08 Z10.83
N9350 X44.242 Y5.105 Z10.859
N9360 X44.075 Y5.241 Z11.021
N9370 X43.903 Y5.385 Z11.194
N9380 X43.726 Y5.535 Z11.378
N9390 X43.543 Y5.693 Z11.573
N9400 X43.353 Y5.859 Z11.781
N9410 X43.157 Y6.034 Z12.001
N9420 X42.954 Y6.218 Z12.237
N9430 X42.742 Y6.413 Z12.487
N9440 X42.522 Y6.619 Z12.754
N9450 X42.292 Y6.837 Z13.038
N9460 X42.052 Y7.068 Z13.343
N9470 X41.798 Y7.315 Z13.67
N9480 X41.531 Y7.58 Z14.021
N9490 X41.246 Y7.865 Z14.402
N9500 X40.94 Y8.175 Z14.818
N9510 X40.607 Y8.516 Z15.276
N9520 X40.238 Y8.898 Z15.789
N9530 X39.818 Y9.338 Z16.381
N9540 X39.317 Y9.867 Z17.091
N9550 X38.771 Y10.449 Z17.869
N9560 X38.343 Y10.906 Z18.475
N9570 X37.975 Y11.3 Z18.995
N9580 X37.761 Y11.53 Z19.296
N9590 X37.452 Y11.86 Z19.726
N9600 X37.269 Y12.056 Z19.98
N9610 X36.917 Y12.431 Z20.461
N9620 X36.669 Y12.695 Z20.797
N9630 X36.36 Y13.021 Z21.208
N9640 X36.068 Y13.329 Z21.59
N9650 X35.79 Y13.619 Z21.948
N9660 X35.525 Y13.895 Z22.284
N9670 X35.336 Y14.09 Z22.518
N9680 X35.088 Y14.346 Z22.822
N9690 X34.847 Y14.591 Z23.109
N9700 X34.615 Y14.827 Z23.381
N9710 X34.389 Y15.053 Z23.639
N9720 X34.169 Y15.272 Z23.884
N9730 X33.955 Y15.483 Z24.117
N9740 X33.747 Y15.687 Z24.338
N9750 X33.543 Y15.885 Z24.548
N9760 X33.344 Y16.075 Z24.747
N9770 X33.217 Y16.197 Z24.872
N9780 X33.089 Y16.318 Z24.995
N9790 X32.9 Y16.495 Z25.171
N9800 X32.715 Y16.667 Z25.339
N9810 X32.533 Y16.833 Z25.498
N9820 X32.356 Y16.995 Z25.649
N9830 X32.181 Y17.152 Z25.792
N9840 X32.01 Y17.304 Z25.927
N9850 X31.841 Y17.452 Z26.054
N9860 X31.676 Y17.595 Z26.174
N9870 X31.514 Y17.734 Z26.287
N9880 X31.354 Y17.87 Z26.393
N9890 X31.197 Y18.001 Z26.493
N9900 X31.042 Y18.129 Z26.587
N9910 X30.89 Y18.253 Z26.674
N9920 X30.74 Y18.373 Z26.755
N9930 X30.593 Y18.491 Z26.831
N9940 X30.447 Y18.604 Z26.901
N9950 X30.304 Y18.715 Z26.965
N9960 X30.162 Y18.823 Z27.025
N9970 X30.023 Y18.927 Z27.079
N9980 X29.885 Y19.029 Z27.128
N9990 X29.75 Y19.128 Z27.172
N10 X29.615 Y19.224 Z27.211
N20 X29.483 Y19.318 Z27.246
N30 X29.418 Y19.363 Z27.262
N40 X29.354 Y19.408 Z27.276
N50 X29.224 Y19.496 Z27.302
N60 X29.096 Y19.582 Z27.324
N70 X28.969 Y19.666 Z27.342
N80 X28.844 Y19.748 Z27.355
N90 X28.72 Y19.827 Z27.364
N100 X28.597 Y19.905 Z27.37
N110 X28.475 Y19.98 Z27.371
N120 X28.354 Y20.053 Z27.369
N130 X28.234 Y20.124 Z27.363
N140 X28.115 Y20.193 Z27.353
N150 X27.997 Y20.261 Z27.339
N160 X27.88 Y20.327 Z27.322
N170 X27.763 Y20.391 Z27.301
N180 X27.647 Y20.453 Z27.276
N190 X27.532 Y20.513 Z27.247
N200 X27.455 Y20.553 Z27.226
N210 X27.34 Y20.611 Z27.192
N220 X27.225 Y20.668 Z27.154
N230 X27.109 Y20.723 Z27.111
N240 X26.992 Y20.778 Z27.064
N250 X26.874 Y20.832 Z27.014
N260 X26.755 Y20.885 Z26.959
N270 X26.635 Y20.937 Z26.899
N280 X26.514 Y20.988 Z26.835
N290 X26.391 Y21.038 Z26.767
N300 X26.268 Y21.087 Z26.694
N310 X26.143 Y21.135 Z26.617
N320 X26.017 Y21.182 Z26.534
N330 X25.89 Y21.228 Z26.447
N340 X25.761 Y21.273 Z26.355
N350 X25.631 Y21.317 Z26.257
N360 X25.5 Y21.359 Z26.154
N370 X25.366 Y21.401 Z26.046
N380 X25.232 Y21.441 Z25.933
N390 X25.095 Y21.48 Z25.813
N400 X24.957 Y21.518 Z25.688
N410 X24.818 Y21.554 Z25.557
N420 X24.676 Y21.589 Z25.42
N430 X24.533 Y21.623 Z25.277
N440 X24.388 Y21.655 Z25.127
N450 X24.241 Y21.685 Z24.971
N460 X24.092 Y21.714 Z24.809
N470 X23.941 Y21.741 Z24.639
N480 X23.788 Y21.767 Z24.463
N490 X23.633 Y21.791 Z24.279
N500 X23.476 Y21.813 Z24.088
N510 X23.317 Y21.833 Z23.89
N520 X23.156 Y21.851 Z23.684
N530 X22.993 Y21.867 Z23.47
N540 X22.828 Y21.881 Z23.249
N550 X22.66 Y21.892 Z23.02
N560 X22.49 Y21.902 Z22.782
N570 X22.318 Y21.908 Z22.536
N580 X22.143 Y21.913 Z22.282
N590 X21.966 Y21.914 Z22.02
N600 X21.787 Y21.913 Z21.748
N610 X21.606 Y21.91 Z21.468
N620 X21.422 Y21.903 Z21.179
N630 X21.236 Y21.893 Z20.882
N640 X21.047 Y21.88 Z20.575
N650 X20.856 Y21.864 Z20.259
N660 X20.663 Y21.845 Z19.934
N670 X20.467 Y21.822 Z19.6
N680 X20.269 Y21.796 Z19.257
N690 X20.069 Y21.766 Z18.905
N700 X19.867 Y21.732 Z18.544
N710 X19.662 Y21.694 Z18.174
N720 X19.456 Y21.652 Z17.796
N730 X19.247 Y21.606 Z17.409
N740 X19.037 Y21.556 Z17.014
N750 X18.825 Y21.502 Z16.612
N760 X18.611 Y21.443 Z16.203
N770 X18.396 Y21.38 Z15.786
N780 X18.18 Y21.313 Z15.364
N790 X17.963 Y21.241 Z14.936
N800 X17.745 Y21.165 Z14.504
N810 X17.528 Y21.085 Z14.068
N820 X17.31 Y21. Z13.63
N830 X17.093 Y20.911 Z13.19
N840 X16.876 Y20.819 Z12.749
N850 X16.661 Y20.722 Z12.309
N860 X16.448 Y20.622 Z11.871
N870 X16.236 Y20.519 Z11.436
N880 X16.027 Y20.413 Z11.005
N890 X15.821 Y20.304 Z10.58
N900 X15.618 Y20.193 Z10.161
N910 X15.418 Y20.079 Z9.749
N920 X15.222 Y19.964 Z9.346
N930 X15.031 Y19.847 Z8.952
N940 X14.843 Y19.728 Z8.567
N950 X14.659 Y19.609 Z8.193
N960 X14.48 Y19.489 Z7.83
N970 X14.305 Y19.368 Z7.477
N980 X14.135 Y19.247 Z7.136
N990 X13.969 Y19.126 Z6.807
N1000 X13.807 Y19.005 Z6.489
N1010 X13.65 Y18.884 Z6.182
N1020 X13.497 Y18.764 Z5.888
N1030 X13.349 Y18.644 Z5.604
N1040 X13.205 Y18.524 Z5.333
N1050 X13.065 Y18.406 Z5.072
N1060 X12.975 Y18.328 Z4.908
N1070 X12.887 Y18.25 Z4.746
N1080 X12.756 Y18.134 Z4.511
N1090 X12.629 Y18.018 Z4.287
N1100 X12.506 Y17.903 Z4.073
N1110 X12.386 Y17.79 Z3.869
N1120 X12.27 Y17.677 Z3.676
N1130 X12.158 Y17.566 Z3.492
N1140 X12.049 Y17.456 Z3.317
N1150 X12.006 Y17.412 Z3.25
N1160 X11.901 Y17.304 Z3.088
N1170 X11.798 Y17.195 Z2.933
N1180 X11.696 Y17.086 Z2.783
N1190 X11.596 Y16.977 Z2.64
N1200 X11.497 Y16.867 Z2.503
N1210 X11.4 Y16.757 Z2.371
N1220 X11.304 Y16.647 Z2.246
N1230 X11.209 Y16.537 Z2.126
N1240 X11.116 Y16.427 Z2.012
N1250 X11.024 Y16.317 Z1.904
N1260 X10.934 Y16.207 Z1.801
N1270 X10.845 Y16.097 Z1.703
N1280 X10.757 Y15.987 Z1.611
N1290 X10.67 Y15.878 Z1.524
N1300 X10.585 Y15.768 Z1.442
N1310 X10.501 Y15.659 Z1.366
N1320 X10.419 Y15.551 Z1.294
N1330 X10.337 Y15.442 Z1.227
N1340 X10.257 Y15.334 Z1.166
N1350 X10.178 Y15.227 Z1.108
N1360 X10.1 Y15.12 Z1.056
N1370 X10.023 Y15.013 Z1.008
N1380 X9.947 Y14.907 Z.965
N1390 X9.873 Y14.801 Z.926
N1400 X9.799 Y14.696 Z.892
N1410 X9.727 Y14.591 Z.862
N1420 X9.656 Y14.487 Z.837
N1430 X9.585 Y14.384 Z.815
N1440 X9.516 Y14.281 Z.798
N1450 X9.447 Y14.179 Z.785
N1460 X9.38 Y14.077 Z.776
N1470 X9.313 Y13.976 Z.771
N1480 X9.247 Y13.876 Z.77
N1490 X9.182 Y13.776 Z.773
N1500 X9.118 Y13.677 Z.78
N1510 X9.055 Y13.579 Z.791
N1520 X8.993 Y13.481 Z.806
N1530 X8.931 Y13.385 Z.825
N1540 X8.87 Y13.289 Z.847
N1550 X8.81 Y13.193 Z.874
N1560 X8.751 Y13.099 Z.904
N1570 X8.692 Y13.005 Z.938
N1580 X8.634 Y12.912 Z.976
N1590 X8.577 Y12.82 Z1.018
N1600 X8.52 Y12.729 Z1.064
N1610 X8.464 Y12.638 Z1.113
N1620 X8.408 Y12.549 Z1.167
N1630 X8.354 Y12.46 Z1.224
N1640 X8.299 Y12.373 Z1.285
N1650 X8.246 Y12.286 Z1.351
N1660 X8.193 Y12.201 Z1.42
N1670 X8.141 Y12.116 Z1.493
N1680 X8.089 Y12.033 Z1.57
N1690 X8.038 Y11.951 Z1.652
N1700 X7.987 Y11.871 Z1.737
N1710 X7.937 Y11.791 Z1.826
N1720 X7.888 Y11.713 Z1.92
N1730 X7.839 Y11.637 Z2.017
N1740 X7.791 Y11.562 Z2.119
N1750 X7.744 Y11.489 Z2.225
N1760 X7.697 Y11.417 Z2.335
N1770 X7.65 Y11.347 Z2.449
N1780 X7.605 Y11.279 Z2.567
N1790 X7.56 Y11.213 Z2.69
N1800 X7.515 Y11.149 Z2.816
N1810 X7.472 Y11.087 Z2.947
N1820 X7.429 Y11.027 Z3.082
N1830 X7.386 Y10.97 Z3.221
N1840 X7.344 Y10.915 Z3.364
N1850 X7.303 Y10.862 Z3.511
N1860 X7.263 Y10.812 Z3.663
N1870 X7.223 Y10.765 Z3.818
N1880 X7.185 Y10.72 Z3.977
N1890 X7.146 Y10.678 Z4.14
N1900 X7.109 Y10.639 Z4.307
N1910 X7.072 Y10.603 Z4.478
N1920 X7.036 Y10.57 Z4.653
N1930 X7.001 Y10.54 Z4.831
N1940 X6.966 Y10.514 Z5.013
N1950 X6.932 Y10.491 Z5.198
N1960 X6.899 Y10.471 Z5.387
N1970 X6.867 Y10.455 Z5.58
N1980 X6.835 Y10.442 Z5.776
N1990 X6.804 Y10.433 Z5.975
N2000 X6.774 Y10.428 Z6.177
N2010 X6.745 Y10.426 Z6.383
N2020 X6.716 Y10.428 Z6.592
N2030 X6.689 Y10.434 Z6.803
N2040 X6.661 Y10.444 Z7.018
N2050 X6.635 Y10.458 Z7.235
N2060 X6.609 Y10.476 Z7.455
N2070 X6.584 Y10.499 Z7.678
N2080 X6.56 Y10.525 Z7.903
N2090 X6.536 Y10.556 Z8.131
N2100 X6.514 Y10.591 Z8.361
N2110 X6.491 Y10.63 Z8.594
N2120 X6.47 Y10.673 Z8.829
N2130 X6.449 Y10.721 Z9.066
N2140 X6.429 Y10.774 Z9.305
N2150 X6.41 Y10.831 Z9.546
N2160 X6.391 Y10.892 Z9.79
N2170 X6.373 Y10.958 Z10.035
N2180 X6.355 Y11.028 Z10.282
N2190 X6.338 Y11.103 Z10.53
N2200 X6.322 Y11.183 Z10.781
N2210 X6.317 Y11.209 Z10.859 
N2220 G0 X0 Y0 Z0
M00
