( Made using CamBam - http://www.cambam.co.uk )
( DXF473 7/2/2010 8:20:21 PM )
( T0 : 0.0 )
G21 G90 G64 G40
G0 Z1.5
( T0 : 0.0 )
T0 M6
( Engrave1 )
G17
M3 S0
G0 X5.2787 Y0.01
G1 F30.0 Z0.0
G1 F300.0 X5.2579 Y0.0181
G1 X5.244 Y0.023
G1 X5.2323 Y0.0274
G1 X5.217 Y0.0342
G1 X5.2058 Y0.0393
G1 X5.1966 Y0.0431
G1 X5.189 Y0.0456
G1 X5.183 Y0.047
G1 X5.1784 Y0.0471
G1 X5.1765 Y0.0467
G1 X5.175 Y0.046
G1 X5.1737 Y0.045
G1 X5.1726 Y0.0438
G1 X5.1712 Y0.0404
G1 X5.1702 Y0.0382
G1 X5.1686 Y0.0366
G1 X5.1667 Y0.0357
G1 X5.1645 Y0.0355
G1 X5.1622 Y0.036
G1 X5.1599 Y0.0371
G1 X5.1579 Y0.0388
G1 X5.1563 Y0.0412
G1 X5.153 Y0.0467
G1 X5.1486 Y0.052
G1 X5.1431 Y0.0573
G1 X5.1362 Y0.0627
G1 X5.1279 Y0.0683
G1 X5.1179 Y0.0742
G1 X5.106 Y0.0805
G1 X5.0922 Y0.0873
G1 X5.0722 Y0.0967
G1 X5.0656 Y0.0995
G1 X5.0608 Y0.101
G1 X5.0574 Y0.1014
G1 X5.0549 Y0.1007
G1 X5.0528 Y0.0992
G1 X5.0509 Y0.0969
G1 X5.0483 Y0.0937
G1 X5.0473 Y0.0929
G1 X5.0463 Y0.0924
G1 X5.0453
G1 X5.0443 Y0.0928
G1 X5.0416 Y0.0947
G1 X5.0349 Y0.0993
G1 X5.0254 Y0.1048
G1 X5.0138 Y0.1116
G1 X5.0022 Y0.1193
G1 X4.9958 Y0.1233
G1 X4.9869 Y0.128
G1 X4.9766 Y0.133
G1 X4.9662 Y0.1375
G1 X4.9497 Y0.1447
G1 X4.9337 Y0.1527
G1 X4.919 Y0.1611
G1 X4.9058 Y0.1695
G1 X4.8947 Y0.1776
G1 X4.8901 Y0.1815
G1 X4.8862 Y0.1851
G1 X4.883 Y0.1886
G1 X4.8807 Y0.1917
G1 X4.8793 Y0.1946
G1 X4.8788 Y0.1971
G1 X4.8785 Y0.2003
G1 X4.8778 Y0.2037
G1 X4.8766 Y0.2071
G1 X4.875 Y0.2106
G1 X4.8731 Y0.214
G1 X4.8708 Y0.2174
G1 X4.8652 Y0.224
G1 X4.8586 Y0.23
G1 X4.8512 Y0.2353
G1 X4.8473 Y0.2376
G1 X4.8433 Y0.2395
G1 X4.8392 Y0.2412
G1 X4.8351 Y0.2424
G1 X4.8258 Y0.2444
G1 X4.8226 Y0.2447
G1 X4.8211 Y0.2444
G1 X4.8201 Y0.2442
G1 X4.8183 Y0.2447
G1 X4.816 Y0.2457
G1 X4.8134 Y0.2472
G1 X4.8113 Y0.2485
G1 X4.8094 Y0.2494
G1 X4.8074 Y0.2499
G1 X4.805
G1 X4.7981 Y0.2489
G1 X4.787 Y0.2461
G1 X4.7604 Y0.2392
G1 X4.7595 Y0.2388
G1 X4.7599 Y0.2382
G1 X4.7644 Y0.2368
G1 X4.7736 Y0.2351
G1 X4.7875 Y0.233
G1 X4.799 Y0.2312
G1 X4.8082 Y0.2296
G1 X4.8151 Y0.228
G1 X4.8202 Y0.2262
G1 X4.8237 Y0.2241
G1 X4.8259 Y0.2217
G1 X4.827 Y0.2187
G1 X4.8273 Y0.2151
G1 X4.8269 Y0.2128
G1 X4.8257 Y0.2103
G1 X4.8239 Y0.2078
G1 X4.8216 Y0.2054
G1 X4.8191 Y0.2033
G1 X4.8164 Y0.2016
G1 X4.8138 Y0.2004
G1 X4.8114 Y0.2
G1 X4.8081 Y0.2005
G1 X4.8027 Y0.2019
G1 X4.7884 Y0.2064
G1 X4.78 Y0.2092
G1 X4.7716 Y0.2116
G1 X4.7632 Y0.2137
G1 X4.7547 Y0.2155
G1 X4.746 Y0.217
G1 X4.7371 Y0.2181
G1 X4.718 Y0.2197
G1 X4.6833 Y0.2216
G1 X4.6769 Y0.2218
G1 X4.6699 Y0.2216
G1 X4.6632 Y0.2211
G1 X4.6576 Y0.2203
G1 X4.6464 Y0.2184
G1 X4.6357 Y0.217
G1 X4.6231 Y0.2152
G1 X4.605 Y0.212
G1 X4.5843 Y0.2081
G1 X4.5637 Y0.2039
G1 X4.5529 Y0.202
G1 X4.537 Y0.1996
G1 X4.4981 Y0.1946
G1 X4.4325 Y0.1867
G1 X4.4167 Y0.1847
G1 X4.404 Y0.1834
G1 X4.3943 Y0.1824
G1 X4.386 Y0.1811
G1 X4.3686 Y0.1788
G1 X4.3373 Y0.1756
G1 X4.2872 Y0.1704
G1 X4.2525 Y0.1665
G1 X4.1507 Y0.1552
G1 X4.0968 Y0.1489
G1 X4.0638 Y0.1448
G1 X4.046 Y0.1419
G1 X4.0233 Y0.1379
G1 X4.0032 Y0.1339
G1 X3.9927 Y0.1315
G1 X3.9907 Y0.1309
G1 X3.9895 Y0.1312
G1 X3.989 Y0.1324
G1 X3.9892 Y0.1346
G1 X3.9898 Y0.1362
G1 X3.9912 Y0.1377
G1 X3.9938 Y0.1392
G1 X3.998 Y0.1408
G1 X4.0132 Y0.1449
G1 X4.0403 Y0.1512
G1 X4.0467 Y0.1523
G1 X4.0556 Y0.1534
G1 X4.0761 Y0.155
G1 X4.0974 Y0.1566
G1 X4.1146 Y0.1586
G1 X4.1276 Y0.1603
G1 X4.1386 Y0.1611
G1 X4.1516 Y0.162
G1 X4.1694 Y0.1639
G1 X4.2319 Y0.1705
G1 X4.2833 Y0.176
G1 X4.2944 Y0.1771
G1 X4.3065 Y0.1781
G1 X4.3254 Y0.1799
G1 X4.3528 Y0.1831
G1 X4.4081 Y0.1897
G1 X4.4706 Y0.1967
G1 X4.5161 Y0.2025
G1 X4.5479 Y0.2075
G1 X4.5849 Y0.214
G1 X4.616 Y0.2198
G1 X4.6258 Y0.2218
G1 X4.6298 Y0.223
G1 Y0.2232
G1 X4.6295 Y0.2233
G1 X4.6279 Y0.2236
G1 X4.6209 Y0.224
G1 X4.5968 Y0.2239
G1 X4.567 Y0.2228
G1 X4.5529 Y0.222
G1 X4.5411 Y0.2211
G1 X4.5225 Y0.2194
G1 X4.511 Y0.2186
G1 X4.503 Y0.2181
G1 X4.493 Y0.2171
G1 X4.4685 Y0.2139
G1 X4.4634 Y0.2131
G1 X4.459 Y0.212
G1 X4.4557 Y0.2108
G1 X4.454 Y0.2097
G1 X4.453 Y0.2088
G1 X4.4517 Y0.2084
G1 X4.45 Y0.2087
G1 X4.448 Y0.2096
G1 X4.4454 Y0.2105
G1 X4.4419 Y0.2108
G1 X4.4376 Y0.2106
G1 X4.4329 Y0.2098
G1 X4.4143 Y0.2067
G1 X4.3853 Y0.2025
G1 X4.3555 Y0.1986
G1 X4.3348 Y0.1963
G1 X4.3242 Y0.1952
G1 X4.3168 Y0.1941
G1 X4.3071 Y0.1928
G1 X4.291 Y0.1913
G1 X4.2668 Y0.1891
G1 X4.2443 Y0.1866
G1 X4.2256 Y0.1842
G1 X4.2126 Y0.182
G1 X4.2018 Y0.1802
G1 X4.1834 Y0.1782
G1 X4.1187 Y0.1727
G1 X4.0994 Y0.1705
G1 X4.0711 Y0.1667
G1 X4.0293 Y0.161
G1 X4.0129 Y0.1591
G1 X3.9994 Y0.1578
G1 X3.9887 Y0.1571
G1 X3.9806
G1 X3.9752 Y0.1576
G1 X3.9734 Y0.1581
G1 X3.9723 Y0.1587
G1 X3.9701 Y0.1609
G1 X3.9687 Y0.1628
G1 X3.9682 Y0.1646
G1 X3.9685 Y0.1662
G1 X3.9697 Y0.1675
G1 X3.9716 Y0.1685
G1 X3.9744 Y0.1693
G1 X3.9779 Y0.1696
G1 X3.9953 Y0.171
G1 X4.0086 Y0.1719
G1 X4.03 Y0.1728
G1 X4.0562 Y0.1743
G1 X4.0814 Y0.1766
G1 X4.1406 Y0.1833
G1 X4.2236 Y0.1923
G1 X4.2653 Y0.1975
G1 X4.2882 Y0.2004
G1 X4.318 Y0.2038
G1 X4.3773 Y0.2109
G1 X4.4492 Y0.2205
G1 X4.4634 Y0.2225
G1 X4.4492 Y0.2234
G1 X4.4388 Y0.2239
G1 X4.4282
G1 X4.3836 Y0.2222
G1 X4.3071 Y0.2193
G1 X4.2269 Y0.2168
G1 X4.2009 Y0.2157
G1 X4.1766 Y0.2137
G1 X4.1522 Y0.2106
G1 X4.1255 Y0.2061
G1 X4.1171 Y0.2048
G1 X4.1099 Y0.2039
G1 X4.1047 Y0.2037
G1 X4.1032 Y0.2038
G1 X4.1024 Y0.2041
G1 X4.102 Y0.2049
G1 X4.1022 Y0.2057
G1 X4.1028 Y0.2064
G1 X4.104 Y0.207
G1 X4.1073 Y0.2089
G1 X4.1109 Y0.2118
G1 X4.1126 Y0.2132
G1 X4.1146 Y0.2144
G1 X4.1168 Y0.2152
G1 X4.1187 Y0.2155
G1 X4.1209 Y0.2158
G1 X4.1239 Y0.2166
G1 X4.1306 Y0.2195
G1 X4.1346 Y0.221
G1 X4.1405 Y0.2225
G1 X4.148 Y0.224
G1 X4.1573 Y0.2253
G1 X4.1805 Y0.2277
G1 X4.2095 Y0.2296
G1 X4.2358 Y0.2317
G1 X4.264 Y0.2347
G1 X4.2746 Y0.2359
G1 X4.2858 Y0.2369
G1 X4.3108 Y0.2381
G1 X4.3411 Y0.2384
G1 X4.3785 Y0.2378
G1 X4.4092 Y0.2381
G1 X4.4505 Y0.2395
G1 X4.4905 Y0.2405
G1 X4.5472 Y0.241
G1 X4.6203 Y0.2409
G1 X4.709 Y0.2402
G1 X4.7202
G1 X4.7301 Y0.2406
G1 X4.7394 Y0.2414
G1 X4.7485 Y0.2426
G1 X4.758 Y0.2445
G1 X4.7683 Y0.2471
G1 X4.7938 Y0.2546
G1 X4.7987 Y0.2562
G1 X4.8007 Y0.2573
G1 X4.8006 Y0.2578
G1 X4.7999 Y0.2583
G1 X4.7966 Y0.2596
G1 X4.7918 Y0.2604
G1 X4.7833 Y0.2605
G1 X4.772 Y0.26
G1 X4.7585 Y0.259
G1 X4.7355 Y0.2575
G1 X4.7281 Y0.2574
G1 X4.725 Y0.2578
G1 X4.7244 Y0.259
G1 X4.7248 Y0.2601
G1 X4.7261 Y0.2612
G1 X4.7282 Y0.2622
G1 X4.731 Y0.2631
G1 X4.7343 Y0.2638
G1 X4.7424 Y0.2645
G1 X4.7669 Y0.2659
G1 X4.7746 Y0.2666
G1 X4.7803 Y0.2675
G1 X4.784 Y0.2687
G1 X4.7852 Y0.2693
G1 X4.7858 Y0.27
G1 X4.7859 Y0.2709
G1 X4.7856 Y0.2718
G1 X4.7836 Y0.274
G1 X4.7796 Y0.2768
G1 X4.7739 Y0.2801
G1 X4.7669 Y0.2837
G1 X4.764 Y0.2848
G1 X4.7612 Y0.2855
G1 X4.7583 Y0.2858
G1 X4.755 Y0.2857
G1 X4.7462 Y0.2847
G1 X4.7383 Y0.2841
G1 X4.7281 Y0.2838
G1 X4.7171 Y0.284
G1 X4.7064 Y0.2846
G1 X4.6912 Y0.2854
G1 X4.6678 Y0.286
G1 X4.6395 Y0.2863
G1 X4.6094
G1 X4.5809
G1 X4.5571 Y0.2865
G1 X4.5405 Y0.2871
G1 X4.5357 Y0.2874
G1 X4.5336 Y0.2878
G1 X4.5317 Y0.2882
G1 X4.5287 Y0.288
G1 X4.5252 Y0.2872
G1 X4.5214 Y0.2859
G1 X4.5186 Y0.285
G1 X4.515 Y0.2841
G1 X4.505 Y0.2827
G1 X4.4912 Y0.2817
G1 X4.4737 Y0.2809
G1 X4.4161 Y0.2787
G1 X4.3597 Y0.2758
G1 X4.3161 Y0.2728
G1 X4.3028 Y0.2715
G1 X4.2989 Y0.271
G1 X4.2971 Y0.2705
G1 X4.2943 Y0.27
G1 X4.2881 Y0.2693
G1 X4.2688 Y0.2679
G1 X4.2424 Y0.2656
G1 X4.2165 Y0.2625
G1 X4.1954 Y0.2597
G1 X4.1811 Y0.2585
G1 X4.1763
G1 X4.1728 Y0.2588
G1 X4.1707 Y0.2596
G1 X4.1696 Y0.2608
G1 X4.1697 Y0.262
G1 X4.1706 Y0.2633
G1 X4.1724 Y0.2646
G1 X4.1752 Y0.2659
G1 X4.1835 Y0.2685
G1 X4.1956 Y0.2711
G1 X4.2114 Y0.2738
G1 X4.2311 Y0.2765
G1 X4.2546 Y0.2793
G1 X4.282 Y0.2822
G1 X4.3158 Y0.2854
G1 X4.3434 Y0.2876
G1 X4.3714 Y0.2894
G1 X4.4068 Y0.2913
G1 X4.4505 Y0.2939
G1 X4.4764 Y0.2955
G1 X4.5075 Y0.2968
G1 X4.5425 Y0.2977
G1 X4.5802 Y0.2983
G1 X4.6193 Y0.2984
G1 X4.6584 Y0.2982
G1 X4.6963 Y0.2976
G1 X4.7317 Y0.2965
G1 X4.7556 Y0.2957
G1 X4.7631
G1 X4.7683 Y0.2959
G1 X4.7716 Y0.2964
G1 X4.7735 Y0.2973
G1 X4.7746 Y0.2986
G1 X4.7751 Y0.3003
G1 X4.7764 Y0.3028
G1 X4.7787 Y0.3052
G1 X4.7817 Y0.3073
G1 X4.7854 Y0.3092
G1 X4.7893 Y0.3107
G1 X4.7933 Y0.3117
G1 X4.7971 Y0.312
G1 X4.8006 Y0.3116
G1 X4.8033 Y0.3111
G1 X4.8062 Y0.311
G1 X4.8088 Y0.3112
G1 X4.8109 Y0.3117
G1 X4.8131 Y0.3127
G1 X4.8137 Y0.3132
G1 X4.8139 Y0.3138
G1 X4.8131 Y0.3154
G1 X4.8109 Y0.318
G1 X4.8093 Y0.3192
G1 X4.8068 Y0.3203
G1 X4.8033 Y0.3213
G1 X4.7985 Y0.3222
G1 X4.7852 Y0.3237
G1 X4.7658 Y0.3248
G1 X4.7395 Y0.3256
G1 X4.7054 Y0.3262
G1 X4.61 Y0.3266
G1 X4.5424 Y0.3264
G1 X4.4828 Y0.3258
G1 X4.4299 Y0.3247
G1 X4.3823 Y0.3232
G1 X4.3388 Y0.321
G1 X4.2979 Y0.3182
G1 X4.2584 Y0.3148
G1 X4.219 Y0.3106
G1 X4.1877 Y0.307
G1 X4.1783 Y0.3061
G1 X4.1721 Y0.3058
G1 X4.1685 Y0.3059
G1 X4.1668 Y0.3066
G1 X4.1664 Y0.3079
G1 X4.1667 Y0.3096
G1 X4.1672 Y0.311
G1 X4.1682 Y0.3123
G1 X4.1699 Y0.3135
G1 X4.1725 Y0.3147
G1 X4.1762 Y0.3158
G1 X4.1811 Y0.3168
G1 X4.1951 Y0.319
G1 X4.2162 Y0.3213
G1 X4.2456 Y0.324
G1 X4.3348 Y0.3311
G1 X4.3681 Y0.3335
G1 X4.3965 Y0.3352
G1 X4.4273 Y0.3365
G1 X4.4677 Y0.3378
G1 X4.5005 Y0.3389
G1 X4.5176 Y0.34
G1 X4.5216 Y0.3407
G1 X4.5235 Y0.3416
G1 X4.5238 Y0.3422
G1 Y0.3428
G1 X4.523 Y0.3444
G1 X4.5218 Y0.3469
G1 X4.5215 Y0.3494
G1 X4.5218 Y0.3518
G1 X4.5229 Y0.3539
G1 X4.5246 Y0.3556
G1 X4.5269 Y0.357
G1 X4.5297 Y0.3579
G1 X4.5329 Y0.3582
G1 X4.5367 Y0.3579
G1 X4.5381 Y0.3574
G1 X4.5392 Y0.3567
G1 X4.5402 Y0.3556
G1 X4.541 Y0.3542
G1 X4.5423 Y0.3501
G1 X4.5434 Y0.3469
G1 X4.5449 Y0.344
G1 X4.5466 Y0.3418
G1 X4.5483 Y0.3406
G1 X4.5533 Y0.34
G1 X4.5629 Y0.3399
G1 X4.5894 Y0.3407
G1 X4.6146 Y0.3424
G1 X4.6226 Y0.3434
G1 X4.6247 Y0.3439
G1 X4.6252 Y0.3443
G1 Y0.3448
G1 X4.6254 Y0.3452
G1 X4.6268 Y0.3462
G1 X4.6292 Y0.347
G1 X4.6324 Y0.3477
G1 X4.6606 Y0.3524
G1 X4.6696 Y0.3542
G1 X4.6753 Y0.3556
G1 X4.6781 Y0.3569
G1 X4.6785 Y0.3575
G1 X4.6782 Y0.358
G1 X4.6758 Y0.3591
G1 X4.6711 Y0.3602
G1 X4.6636 Y0.361
G1 X4.6517 Y0.3618
G1 X4.6173 Y0.3628
G1 X4.5721 Y0.3633
G1 X4.5205 Y0.3632
G1 X4.4669 Y0.3626
G1 X4.4156 Y0.3616
G1 X4.371 Y0.3601
G1 X4.3525 Y0.3592
G1 X4.3373 Y0.3581
G1 X4.2975 Y0.3555
G1 X4.2723 Y0.3537
G1 X4.246 Y0.3515
G1 X4.2081 Y0.3482
G1 X4.1763 Y0.3464
G1 X4.1636 Y0.346
G1 X4.1537
G1 X4.1469 Y0.3464
G1 X4.1448 Y0.3468
G1 X4.1437 Y0.3473
G1 X4.1425 Y0.3485
G1 X4.1419 Y0.3498
G1 Y0.351
G1 X4.1424 Y0.3519
G1 X4.1455 Y0.353
G1 X4.1524 Y0.3543
G1 X4.1743 Y0.3576
G1 X4.2017 Y0.3609
G1 X4.228 Y0.3634
G1 X4.2627 Y0.366
G1 X4.3102 Y0.3697
G1 X4.3613 Y0.3731
G1 X4.4139 Y0.376
G1 X4.466 Y0.3785
G1 X4.5153 Y0.3803
G1 X4.56 Y0.3814
G1 X4.5978 Y0.3817
G1 X4.6267 Y0.3812
G1 X4.6488 Y0.3801
G1 X4.6671 Y0.3787
G1 X4.6819 Y0.377
G1 X4.6935 Y0.3748
G1 X4.6982 Y0.3736
G1 X4.7022 Y0.3722
G1 X4.7055 Y0.3706
G1 X4.7082 Y0.3689
G1 X4.7103 Y0.3671
G1 X4.7119 Y0.3651
G1 X4.713 Y0.3629
G1 X4.7136 Y0.3605
G1 X4.7137 Y0.3574
G1 X4.7131 Y0.3545
G1 X4.7117 Y0.352
G1 X4.7096 Y0.3498
G1 X4.7067 Y0.348
G1 X4.703 Y0.3464
G1 X4.6986 Y0.3451
G1 X4.6934 Y0.3442
G1 X4.6843 Y0.3427
G1 X4.6827 Y0.3421
G1 X4.6826 Y0.3419
G1 X4.6832 Y0.3417
G1 X4.691 Y0.341
G1 X4.709 Y0.3402
G1 X4.7662 Y0.3376
G1 X4.7808 Y0.337
G1 X4.791
G1 X4.797 Y0.3375
G1 X4.7985 Y0.338
G1 X4.799 Y0.3386
G1 X4.7984 Y0.3404
G1 X4.7967 Y0.3431
G1 X4.7909 Y0.3507
G1 X4.7831 Y0.3593
G1 X4.7749 Y0.3672
G1 X4.7703 Y0.371
G1 X4.7657 Y0.3744
G1 X4.761 Y0.3775
G1 X4.7563 Y0.3803
G1 X4.7516 Y0.3827
G1 X4.7468 Y0.3848
G1 X4.742 Y0.3865
G1 X4.7372 Y0.3878
G1 X4.7316 Y0.3894
G1 X4.7279 Y0.391
G1 X4.7267 Y0.3919
G1 X4.7259 Y0.3929
G1 X4.7255 Y0.3939
G1 X4.7254 Y0.395
G1 X4.7252 Y0.3961
G1 X4.7246 Y0.3971
G1 X4.7233 Y0.3981
G1 X4.7215 Y0.3989
G1 X4.7161 Y0.4003
G1 X4.708 Y0.4015
G1 X4.6971 Y0.4023
G1 X4.683 Y0.4029
G1 X4.6447 Y0.4035
G1 X4.6124 Y0.4033
G1 X4.5736 Y0.4026
G1 X4.5306 Y0.4014
G1 X4.4858 Y0.3998
G1 X4.4416 Y0.3979
G1 X4.4003 Y0.3959
G1 X4.3644 Y0.3937
G1 X4.336 Y0.3916
G1 X4.3039 Y0.3891
G1 X4.2653 Y0.3862
G1 X4.2328 Y0.384
G1 X4.2219 Y0.3831
G1 X4.2181 Y0.3825
G1 X4.2161 Y0.382
G1 X4.2134 Y0.3813
G1 X4.2077 Y0.3805
G1 X4.1907 Y0.3788
G1 X4.1739 Y0.3772
G1 X4.1683 Y0.3765
G1 X4.1658 Y0.3759
G1 X4.1629 Y0.3751
G1 X4.1576 Y0.3746
G1 X4.1434 Y0.3743
G1 X4.1299 Y0.3749
G1 X4.1256 Y0.3755
G1 X4.1244 Y0.3759
G1 X4.124 Y0.3763
G1 X4.1244 Y0.3768
G1 X4.1253 Y0.3774
G1 X4.1286 Y0.3788
G1 X4.1338 Y0.3802
G1 X4.1403 Y0.3816
G1 X4.1561 Y0.3843
G1 X4.1734 Y0.3862
G1 X4.1952 Y0.3886
G1 X4.2267 Y0.3926
G1 X4.2707 Y0.3979
G1 X4.3168 Y0.4026
G1 X4.3651 Y0.4066
G1 X4.4158 Y0.4098
G1 X4.469 Y0.4124
G1 X4.5247 Y0.4143
G1 X4.583 Y0.4154
G1 X4.6441 Y0.4159
G1 X4.6646 Y0.4162
G1 X4.6811 Y0.4167
G1 X4.6921 Y0.4175
G1 X4.6951 Y0.4179
G1 X4.6961 Y0.4184
G1 X4.6956 Y0.4195
G1 X4.6939 Y0.4213
G1 X4.6879 Y0.4265
G1 X4.6791 Y0.4335
G1 X4.6683 Y0.4415
G1 X4.6446 Y0.4581
G1 X4.6336 Y0.4652
G1 X4.6244 Y0.4707
G1 X4.6127 Y0.4776
G1 X4.6048 Y0.4831
G1 X4.6013 Y0.4855
G1 X4.5955 Y0.4886
G1 X4.5883 Y0.4922
G1 X4.5804 Y0.4957
G1 X4.5688 Y0.5002
G1 X4.5637 Y0.5017
G1 X4.5581 Y0.5029
G1 X4.5518 Y0.5037
G1 X4.5441 Y0.5044
G1 X4.5225 Y0.5055
G1 X4.4946 Y0.5065
G1 X4.4692 Y0.5071
G1 X4.4446 Y0.507
G1 X4.4193 Y0.5063
G1 X4.3919 Y0.5049
G1 X4.3606 Y0.5028
G1 X4.2808 Y0.4959
G1 X4.2475 Y0.4933
G1 X4.2075 Y0.4907
G1 X4.1881 Y0.4893
G1 X4.1689 Y0.4876
G1 X4.1518 Y0.4859
G1 X4.1393 Y0.4842
G1 X4.129 Y0.4827
G1 X4.1182 Y0.4815
G1 X4.108 Y0.4807
G1 X4.0999 Y0.4804
G1 X4.0932 Y0.4802
G1 X4.087 Y0.4796
G1 X4.0819 Y0.4788
G1 X4.0787 Y0.4777
G1 X4.0759 Y0.4767
G1 X4.0717 Y0.4757
G1 X4.0667 Y0.475
G1 X4.0616 Y0.4745
G1 X4.0554 Y0.4744
G1 X4.0515 Y0.475
G1 X4.0503 Y0.4755
G1 X4.0494 Y0.4763
G1 X4.0485 Y0.4786
G1 X4.0484 Y0.4807
G1 X4.0491 Y0.4824
G1 X4.0504 Y0.4837
G1 X4.0524 Y0.4846
G1 X4.0544 Y0.4855
G1 X4.0565 Y0.4871
G1 X4.0583 Y0.4891
G1 X4.0597 Y0.4914
G1 X4.0605 Y0.493
G1 X4.0615 Y0.4944
G1 X4.0629 Y0.4956
G1 X4.0647 Y0.4967
G1 X4.067 Y0.4977
G1 X4.0699 Y0.4985
G1 X4.0779 Y0.4997
G1 X4.0895 Y0.5005
G1 X4.1055 Y0.5009
G1 X4.1534 Y0.501
G1 X4.1676 Y0.5013
G1 X4.1841 Y0.5021
G1 X4.2011 Y0.5033
G1 X4.2165 Y0.5048
G1 X4.2413 Y0.5075
G1 X4.2691 Y0.5101
G1 X4.3292 Y0.5148
G1 X4.3893 Y0.5185
G1 X4.4169 Y0.5197
G1 X4.4415 Y0.5205
G1 X4.4853 Y0.5219
G1 X4.4995 Y0.5226
G1 X4.5058 Y0.5232
G1 X4.5065 Y0.5236
G1 X4.5068 Y0.5241
G1 X4.5066 Y0.5247
G1 X4.506 Y0.5254
G1 X4.5034 Y0.5271
G1 X4.4991 Y0.5293
G1 X4.4944 Y0.5316
G1 X4.4906 Y0.5338
G1 X4.4877 Y0.5359
G1 X4.4857 Y0.5378
G1 X4.4845 Y0.5396
G1 X4.4843 Y0.5413
G1 X4.485 Y0.543
G1 X4.4865 Y0.5446
G1 X4.4882 Y0.5458
G1 X4.4903 Y0.5465
G1 X4.4931 Y0.5466
G1 X4.4971 Y0.546
G1 X4.5098 Y0.5426
G1 X4.5316 Y0.5356
G1 X4.5469 Y0.5308
G1 X4.5525 Y0.5294
G1 X4.5573 Y0.5284
G1 X4.5617 Y0.528
G1 X4.5661
G1 X4.5766 Y0.5289
G1 X4.5871 Y0.53
G1 X4.598 Y0.5308
G1 X4.6193 Y0.5316
G1 X4.6284 Y0.5315
G1 X4.6356 Y0.5312
G1 X4.6404 Y0.5305
G1 X4.6417 Y0.53
G1 X4.6421 Y0.5295
G1 X4.6419 Y0.528
G1 X4.6412 Y0.5269
G1 X4.6396 Y0.526
G1 X4.637 Y0.5253
G1 X4.6276 Y0.5244
G1 X4.6112 Y0.5239
G1 X4.5976 Y0.5235
G1 X4.5879 Y0.523
G1 X4.5844 Y0.5225
G1 X4.5819 Y0.522
G1 X4.5803 Y0.5212
G1 X4.5797 Y0.5203
G1 X4.58 Y0.5191
G1 X4.5812 Y0.5177
G1 X4.5864 Y0.514
G1 X4.6076 Y0.5021
G1 X4.623 Y0.4934
G1 X4.6404 Y0.4828
G1 X4.6578 Y0.4716
G1 X4.6729 Y0.4613
G1 X4.7055 Y0.4384
G1 X4.718 Y0.4301
G1 X4.7282 Y0.4237
G1 X4.7364 Y0.419
G1 X4.7429 Y0.4158
G1 X4.748 Y0.4141
G1 X4.7519 Y0.4135
G1 X4.7552 Y0.4132
G1 X4.7582 Y0.4125
G1 X4.761 Y0.4114
G1 X4.7634 Y0.4098
G1 X4.7654 Y0.408
G1 X4.7669 Y0.4059
G1 X4.7678 Y0.4035
G1 X4.7682 Y0.401
G1 X4.769 Y0.399
G1 X4.7714 Y0.3957
G1 X4.7799 Y0.3864
G1 X4.7918 Y0.375
G1 X4.8052 Y0.3633
G1 X4.8098 Y0.358
G1 X4.8164 Y0.3489
G1 X4.8197 Y0.3443
G1 X4.8225 Y0.3407
G1 X4.8252 Y0.3381
G1 X4.828 Y0.3362
G1 X4.8311 Y0.3349
G1 X4.8348 Y0.3342
G1 X4.8449 Y0.3337
G1 X4.8593 Y0.3329
G1 X4.8751 Y0.331
G1 X4.8884 Y0.3285
G1 X4.8928 Y0.3273
G1 X4.8951 Y0.3262
G1 X4.8959 Y0.3248
G1 X4.8962 Y0.3226
G1 Y0.32
G1 X4.8958 Y0.3173
G1 X4.895 Y0.3148
G1 X4.8938 Y0.3128
G1 X4.892 Y0.3112
G1 X4.8893 Y0.31
G1 X4.8856 Y0.3091
G1 X4.8805 Y0.3083
G1 X4.8654 Y0.3071
G1 X4.8581 Y0.3063
G1 X4.8511 Y0.3052
G1 X4.8451 Y0.3039
G1 X4.841 Y0.3024
G1 X4.8378 Y0.3006
G1 X4.8354 Y0.2987
G1 X4.8338 Y0.2966
G1 X4.833 Y0.2946
G1 X4.8331 Y0.2927
G1 X4.834 Y0.291
G1 X4.8358 Y0.2896
G1 X4.8385 Y0.2886
G1 X4.8419 Y0.2875
G1 X4.8449 Y0.2859
G1 X4.8474 Y0.284
G1 X4.8495 Y0.2818
G1 X4.8511 Y0.2794
G1 X4.8521 Y0.2767
G1 X4.8524 Y0.2741
G1 X4.8521 Y0.2713
G1 X4.8518 Y0.2688
G1 X4.8521 Y0.2661
G1 X4.8529 Y0.2633
G1 X4.8543 Y0.2603
G1 X4.8562 Y0.2573
G1 X4.8585 Y0.2543
G1 X4.8613 Y0.2514
G1 X4.8645 Y0.2485
G1 X4.8681 Y0.2465
G1 X4.8742 Y0.2443
G1 X4.8818 Y0.2421
G1 X4.8901 Y0.2402
G1 X4.8997 Y0.2381
G1 X4.9078 Y0.2359
G1 X4.9145 Y0.2337
G1 X4.9199 Y0.2314
G1 X4.9239 Y0.229
G1 X4.9267 Y0.2264
G1 X4.9282 Y0.2236
G1 X4.9287 Y0.2206
G1 X4.9279 Y0.2148
G1 X4.9265 Y0.2099
G1 X4.9264 Y0.2089
G1 X4.9268 Y0.2076
G1 X4.9291 Y0.2045
G1 X4.9334 Y0.2006
G1 X4.9397 Y0.196
G1 X4.948 Y0.1905
G1 X4.9582 Y0.1843
G1 X4.9704 Y0.1774
G1 X4.9844 Y0.1698
G1 X5.0053 Y0.1585
G1 X5.0215 Y0.1492
G1 X5.0605 Y0.1258
G1 X5.073 Y0.1184
G1 X5.086 Y0.1113
G1 X5.0993 Y0.1043
G1 X5.1132 Y0.0975
G1 X5.1275 Y0.0908
G1 X5.1424 Y0.0842
G1 X5.1578 Y0.0778
G1 X5.1739 Y0.0714
G1 X5.1983 Y0.0614
G1 X5.2061 Y0.0578
G1 X5.2094 Y0.0558
G1 X5.2102 Y0.0549
G1 X5.2115 Y0.0541
G1 X5.2131 Y0.0536
G1 X5.2147 Y0.0534
G1 X5.2175 Y0.0528
G1 X5.2224 Y0.0511
G1 X5.2357 Y0.0454
G1 X5.2607 Y0.0341
G1 X5.2861 Y0.0227
G1 X5.2949 Y0.0182
G1 X5.3014 Y0.0144
G1 X5.3059 Y0.0112
G1 X5.3085 Y0.0083
G1 X5.3092 Y0.0069
G1 X5.3095 Y0.0056
G1 Y0.0043
G1 X5.3091 Y0.003
G1 X5.3085 Y0.0015
G1 X5.3078 Y0.0004
G1 X5.3066 Y0.0
G1 X5.3044 Y0.0003
G1 X5.2958 Y0.0032
G1 X5.2787 Y0.01
G0 Z1.5
G0 X4.9135 Y0.2164
G1 F30.0 Z0.0
G1 F300.0 X4.916 Y0.2184
G1 X4.9166 Y0.2192
G1 X4.9168 Y0.2199
G1 X4.9164 Y0.2205
G1 X4.9156 Y0.2212
G1 X4.9123 Y0.2231
G1 X4.9059 Y0.226
G1 X4.899 Y0.2284
G1 X4.8958 Y0.2291
G1 X4.8935 Y0.229
G1 X4.8921 Y0.2283
G1 X4.8915 Y0.2271
G1 X4.8919 Y0.2254
G1 X4.8932 Y0.2233
G1 X4.8953 Y0.2209
G1 X4.8984 Y0.2182
G1 X4.9032 Y0.2146
G1 X4.905 Y0.2137
G1 X4.9066 Y0.2132
G1 X4.908 Y0.2133
G1 X4.9096 Y0.2139
G1 X4.9135 Y0.2164
G0 Z1.5
G0 X4.8402 Y0.2529
G1 F30.0 Z0.0
G1 F300.0 X4.8399 Y0.2552
G1 X4.8391 Y0.2574
G1 X4.8378 Y0.2593
G1 X4.836 Y0.261
G1 X4.8339 Y0.2624
G1 X4.8315 Y0.2634
G1 X4.8288 Y0.2641
G1 X4.8259 Y0.2643
G1 X4.8226 Y0.2641
G1 X4.82 Y0.2634
G1 X4.8182 Y0.2623
G1 X4.8171 Y0.261
G1 X4.8169 Y0.2594
G1 X4.8175 Y0.2577
G1 X4.8191 Y0.256
G1 X4.8215 Y0.2542
G1 X4.8237 Y0.2533
G1 X4.8265 Y0.2525
G1 X4.8326 Y0.2516
G1 X4.8379 Y0.2517
G1 X4.8396 Y0.2522
G1 X4.8402 Y0.2529
G0 Z1.5
G0 X4.8166 Y0.2737
G1 F30.0 Z0.0
G1 F300.0 X4.8191 Y0.2746
G1 X4.8203 Y0.2756
G1 Y0.2766
G1 X4.8192 Y0.2775
G1 X4.8171 Y0.2784
G1 X4.8142 Y0.2791
G1 X4.8105 Y0.2795
G1 X4.8062 Y0.2797
G1 X4.8016 Y0.2796
G1 X4.7989 Y0.2789
G1 X4.7982 Y0.2784
G1 X4.7978 Y0.2778
G1 X4.7981 Y0.2759
G1 X4.7989 Y0.2745
G1 X4.8002 Y0.2735
G1 X4.802 Y0.2727
G1 X4.8042 Y0.2723
G1 X4.8067 Y0.2722
G1 X4.8097 Y0.2724
G1 X4.8166 Y0.2737
G0 Z1.5
G0 X4.8479 Y0.3156
G1 F30.0 Z0.0
G1 F300.0 X4.8514 Y0.3167
G1 X4.8522 Y0.3171
G1 X4.8524 Y0.3175
G1 X4.8507 Y0.3183
G1 X4.846 Y0.3194
G1 X4.8401 Y0.3202
G1 X4.8377 Y0.3201
G1 X4.8357 Y0.3197
G1 X4.8343 Y0.3191
G1 X4.8335 Y0.3181
G1 X4.8333 Y0.317
G1 X4.8339 Y0.3156
G1 X4.8346 Y0.3147
G1 X4.8355 Y0.3141
G1 X4.8366 Y0.3137
G1 X4.838 Y0.3135
G1 X4.842 Y0.3141
G1 X4.8479 Y0.3156
G0 Z1.5
G0 X4.7077 Y0.2592
G1 F30.0 Z0.0
G1 F300.0 X4.7076 Y0.2602
G1 X4.7085 Y0.261
G1 X4.7102 Y0.2616
G1 X4.7127 Y0.2617
G1 X4.7153 Y0.2615
G1 X4.7174 Y0.261
G1 X4.7188 Y0.2602
G1 X4.7193 Y0.2592
G1 X4.7189 Y0.2582
G1 X4.7178 Y0.2574
G1 X4.7162 Y0.2568
G1 X4.7143 Y0.2566
G1 X4.7122 Y0.2568
G1 X4.7103 Y0.2574
G1 X4.7087 Y0.2582
G1 X4.7077 Y0.2592
G0 Z1.5
G0 X4.147 Y0.4469
G1 F30.0 Z0.0
G1 F300.0 X4.1479 Y0.4479
G1 X4.1492 Y0.4488
G1 X4.1507 Y0.4493
G1 X4.1523 Y0.4495
G1 X4.1537 Y0.4493
G1 X4.1549 Y0.4488
G1 X4.1557 Y0.4479
G1 X4.156 Y0.4469
G1 X4.1556 Y0.4459
G1 X4.1545 Y0.4451
G1 X4.1528 Y0.4446
G1 X4.1507 Y0.4444
G1 X4.1488 Y0.4446
G1 X4.1474 Y0.4451
G1 X4.1468 Y0.4459
G1 X4.147 Y0.4469
G0 Z1.5
G0 X4.0917 Y0.4405
G1 F30.0 Z0.0
G1 F300.0 X4.0921 Y0.4421
G1 X4.0934 Y0.4433
G1 X4.0953 Y0.4441
G1 X4.0977 Y0.4444
G1 X4.108 Y0.4448
G1 X4.1241 Y0.446
G1 X4.1321 Y0.4464
G1 X4.1378
G1 X4.1411 Y0.4459
G1 X4.1418 Y0.4455
G1 X4.142 Y0.4451
G1 X4.1415 Y0.4446
G1 X4.1405 Y0.444
G1 X4.1368 Y0.4426
G1 X4.1307 Y0.4411
G1 X4.1224 Y0.4395
G1 X4.1078 Y0.4373
G1 X4.1024 Y0.4369
G1 X4.0983 Y0.4368
G1 X4.0953 Y0.4371
G1 X4.0932 Y0.4378
G1 X4.0921 Y0.439
G1 X4.0917 Y0.4405
G0 Z1.5
G0 X4.0867 Y0.4172
G1 F30.0 Z0.0
G1 F300.0 X4.0855 Y0.4189
G1 X4.0847 Y0.4206
G1 X4.0845 Y0.422
G1 X4.0849 Y0.4229
G1 X4.0867 Y0.4237
G1 X4.0907 Y0.4245
G1 X4.1045 Y0.4264
G1 X4.1253 Y0.4283
G1 X4.1518 Y0.4304
G1 X4.2173 Y0.4345
G1 X4.2541 Y0.4363
G1 X4.2921 Y0.4379
G1 X4.3499 Y0.4405
G1 X4.467 Y0.4467
G1 X4.5136 Y0.4488
G1 X4.5526 Y0.4501
G1 X4.5846 Y0.4508
G1 X4.6097
G1 X4.6284 Y0.4502
G1 X4.6354 Y0.4496
G1 X4.641 Y0.4489
G1 X4.6507 Y0.4472
G1 X4.6536 Y0.4464
G1 X4.6556 Y0.4455
G1 X4.6567 Y0.4443
G1 X4.6572 Y0.4428
G1 X4.657 Y0.4382
G1 X4.6564 Y0.4337
G1 X4.6558 Y0.4323
G1 X4.6548 Y0.4314
G1 X4.6534 Y0.4308
G1 X4.6513 Y0.4305
G1 X4.645
G1 X4.6398 Y0.4308
G1 X4.6359 Y0.4317
G1 X4.6331 Y0.4332
G1 X4.6313 Y0.4352
G1 X4.6302 Y0.4365
G1 X4.6285 Y0.4376
G1 X4.6255 Y0.4383
G1 X4.6207 Y0.4387
G1 X4.604
G1 X4.5744 Y0.4379
G1 X4.4816 Y0.4346
G1 X4.4571 Y0.4333
G1 X4.4351 Y0.4317
G1 X4.4018 Y0.4294
G1 X4.3624 Y0.4271
G1 X4.3118 Y0.4248
G1 X4.2447 Y0.4222
G1 X4.193 Y0.42
G1 X4.1608 Y0.4177
G1 X4.1286 Y0.4151
G1 X4.1163 Y0.4144
G1 X4.1063 Y0.4142
G1 X4.0985 Y0.4143
G1 X4.0927 Y0.4149
G1 X4.0888 Y0.4159
G1 X4.0875 Y0.4165
G1 X4.0867 Y0.4172
G0 Z1.5
G0 X4.064 Y0.4488
G1 F30.0 Z0.0
G1 F300.0 X4.0626 Y0.4496
G1 X4.0616 Y0.4508
G1 X4.0611 Y0.4522
G1 X4.0609 Y0.4536
G1 X4.0612 Y0.455
G1 X4.062 Y0.4561
G1 X4.0631 Y0.4569
G1 X4.0646 Y0.4572
G1 X4.0845 Y0.4591
G1 X4.127 Y0.4635
G1 X4.1805 Y0.4688
G1 X4.2267 Y0.4726
G1 X4.2549 Y0.4748
G1 X4.2885 Y0.4778
G1 X4.3746 Y0.4867
G1 X4.4037 Y0.4898
G1 X4.432 Y0.4924
G1 X4.4588 Y0.4945
G1 X4.4833 Y0.4962
G1 X4.5048 Y0.4973
G1 X4.5224 Y0.4978
G1 X4.5354 Y0.4977
G1 X4.54 Y0.4974
G1 X4.543 Y0.4969
G1 X4.5461 Y0.4957
G1 X4.5481 Y0.4939
G1 X4.5493 Y0.4918
G1 X4.5495 Y0.4897
G1 X4.5489 Y0.4876
G1 X4.5473 Y0.486
G1 X4.545 Y0.4849
G1 X4.5418 Y0.4846
G1 X4.5268 Y0.4853
G1 X4.5104 Y0.4855
G1 X4.4932 Y0.4853
G1 X4.4756 Y0.4847
G1 X4.4581 Y0.4838
G1 X4.4411 Y0.4824
G1 X4.4251 Y0.4808
G1 X4.4106 Y0.4788
G1 X4.4 Y0.4774
G1 X4.3892 Y0.4763
G1 X4.3793 Y0.4756
G1 X4.3718 Y0.4755
G1 X4.3609 Y0.4754
G1 X4.357 Y0.475
G1 X4.3549 Y0.4745
G1 X4.3509 Y0.4736
G1 X4.3418 Y0.4725
G1 X4.314 Y0.47
G1 X4.2358 Y0.4641
G1 X4.2036 Y0.4613
G1 X4.174 Y0.4587
G1 X4.1524 Y0.4567
G1 X4.1349 Y0.4544
G1 X4.1172 Y0.4523
G1 X4.0954 Y0.4507
G1 X4.0774 Y0.4496
G1 X4.0716 Y0.449
G1 X4.069 Y0.4486
G1 X4.0668 Y0.4482
G1 X4.064 Y0.4488
G0 Z1.5
G0 X4.0366 Y0.3812
G1 F30.0 Z0.0
G1 F300.0 X4.0338 Y0.3858
G1 X4.0311 Y0.3895
G1 X4.0289 Y0.392
G1 X4.0275 Y0.3929
G1 X4.0259 Y0.3939
G1 X4.0234 Y0.3967
G1 X4.0203 Y0.4008
G1 X4.0168 Y0.4058
G1 X4.0138 Y0.4103
G1 X4.0111 Y0.4136
G1 X4.0088 Y0.4159
G1 X4.0068 Y0.4172
G1 X4.0052 Y0.4174
G1 X4.0039 Y0.4166
G1 X4.0029 Y0.4148
G1 X4.0022 Y0.4119
G1 Y0.4106
G1 X4.0024 Y0.4093
G1 X4.004 Y0.4067
G1 X4.007 Y0.404
G1 X4.0116 Y0.4012
G1 X4.0156 Y0.3987
G1 X4.0191 Y0.3962
G1 X4.0217 Y0.394
G1 X4.023 Y0.3923
G1 X4.0245 Y0.3894
G1 X4.0269 Y0.3856
G1 X4.033 Y0.3773
G1 X4.0389 Y0.3704
G1 X4.0409 Y0.3685
G1 X4.0416 Y0.3681
G1 X4.042
G1 X4.0421 Y0.3696
G1 X4.041 Y0.3726
G1 X4.0392 Y0.3766
G1 X4.0366 Y0.3812
G0 Z1.5
G0 X3.9633 Y0.3602
G1 F30.0 Z0.0
G1 F300.0 X3.9665 Y0.3624
G1 X3.9674 Y0.3634
G1 X3.9679 Y0.3643
G1 Y0.3653
G1 X3.9676 Y0.3665
G1 X3.9658 Y0.3697
G1 X3.9642 Y0.3715
G1 X3.9633 Y0.372
G1 X3.9622 Y0.3722
G1 X3.9592 Y0.3718
G1 X3.9547 Y0.3703
G1 X3.9466 Y0.3681
G1 X3.9426 Y0.3675
G1 X3.9393 Y0.3672
G1 X3.9366 Y0.367
G1 X3.9344 Y0.3666
G1 X3.9326 Y0.3658
G1 X3.9313 Y0.3647
G1 X3.9304 Y0.3634
G1 X3.9301 Y0.3617
G1 X3.9302 Y0.3599
G1 X3.9308 Y0.3577
G1 X3.9313 Y0.3566
G1 X3.9321 Y0.3558
G1 X3.9332 Y0.3552
G1 X3.9346 Y0.3548
G1 X3.9388 Y0.3547
G1 X3.9454 Y0.3554
G1 X3.9508 Y0.3563
G1 X3.956 Y0.3575
G1 X3.9604 Y0.3589
G1 X3.9633 Y0.3602
G0 Z1.5
G0 X3.961 Y0.3369
G1 F30.0 Z0.0
G1 F300.0 X3.9716 Y0.3396
G1 X3.9748 Y0.3409
G1 X3.9757 Y0.3414
G1 X3.976 Y0.3418
G1 X3.9744 Y0.3423
G1 X3.9703 Y0.3425
G1 X3.9577 Y0.3423
G1 X3.9446 Y0.3413
G1 X3.94 Y0.3407
G1 X3.9378 Y0.34
G1 X3.9374 Y0.3393
G1 X3.9375 Y0.3384
G1 X3.9387 Y0.3364
G1 X3.9408 Y0.3346
G1 X3.942 Y0.334
G1 X3.9432 Y0.3338
G1 X3.9496 Y0.3347
G1 X3.961 Y0.3369
G0 Z1.5
G0 X3.9805 Y0.316
G1 F30.0 Z0.0
G1 F300.0 X3.9785 Y0.3185
G1 X3.9774 Y0.3194
G1 X3.9761 Y0.3199
G1 X3.9729 Y0.3204
G1 X3.9684 Y0.3199
G1 X3.9647 Y0.319
G1 X3.961 Y0.3178
G1 X3.9579 Y0.3162
G1 X3.9557 Y0.3146
G1 X3.9546 Y0.3134
G1 X3.954 Y0.3125
G1 X3.9541 Y0.3118
G1 X3.955 Y0.3113
G1 X3.9593 Y0.3107
G1 X3.9677 Y0.3106
G1 X3.9767 Y0.3107
G1 X3.9794 Y0.3109
G1 X3.9811 Y0.3113
G1 X3.9819 Y0.312
G1 X3.982 Y0.3129
G1 X3.9805 Y0.316
G0 Z1.5
G0 X3.9986 Y0.2814
G1 F30.0 Z0.0
G1 F300.0 X4.0018 Y0.2825
G1 X4.0035 Y0.2838
G1 X4.0039 Y0.2844
G1 Y0.285
G1 X4.0029 Y0.2862
G1 X4.0007 Y0.2872
G1 X3.9974 Y0.2881
G1 X3.9931 Y0.2886
G1 X3.9879 Y0.2889
G1 X3.978 Y0.2886
G1 X3.9744 Y0.2882
G1 X3.9717 Y0.2875
G1 X3.9699 Y0.2866
G1 X3.9689 Y0.2855
G1 X3.9687 Y0.2842
G1 X3.9694 Y0.2826
G1 X3.9708 Y0.2816
G1 X3.9734 Y0.2808
G1 X3.9769 Y0.2802
G1 X3.9811 Y0.2799
G1 X3.9902 Y0.2801
G1 X3.9946 Y0.2806
G1 X3.9986 Y0.2814
G0 Z1.5
G0 X4.0198 Y0.2607
G1 F30.0 Z0.0
G1 F300.0 X4.0213 Y0.2628
G1 X4.0214 Y0.2634
G1 X4.021 Y0.2639
G1 X4.0184 Y0.2642
G1 X4.0133 Y0.2639
G1 X4.0094 Y0.2633
G1 X4.006 Y0.2623
G1 X4.0035 Y0.2611
G1 X4.0023 Y0.2598
G1 X4.0022 Y0.259
G1 X4.0024 Y0.2583
G1 X4.0038 Y0.2573
G1 X4.0061 Y0.2567
G1 X4.009 Y0.2566
G1 X4.0121 Y0.257
G1 X4.0152 Y0.2578
G1 X4.0179 Y0.259
G1 X4.0198 Y0.2607
G0 Z1.5
G0 X3.8654 Y0.2512
G1 F30.0 Z0.0
G1 F300.0 X3.865 Y0.2522
G1 X3.8641 Y0.2532
G1 X3.8612 Y0.255
G1 X3.858 Y0.256
G1 X3.8567
G1 X3.8557 Y0.2556
G1 X3.8554 Y0.2549
G1 Y0.2539
G1 X3.8563 Y0.2516
G1 X3.8572 Y0.2505
G1 X3.8585 Y0.2497
G1 X3.8616 Y0.249
G1 X3.863
G1 X3.8642 Y0.2494
G1 X3.8651 Y0.2501
G1 X3.8654 Y0.2512
G0 Z1.5
G0 X3.8525 Y0.2732
G1 F30.0 Z0.0
G1 F300.0 X3.8523 Y0.2747
G1 X3.8517 Y0.2761
G1 X3.8499 Y0.2784
G1 X3.8488 Y0.2791
G1 X3.8476 Y0.2795
G1 X3.8465 Y0.2794
G1 X3.8456 Y0.2788
G1 X3.845 Y0.2778
G1 X3.8449 Y0.2765
G1 X3.8458 Y0.2734
G1 X3.8476 Y0.2706
G1 X3.8487 Y0.2698
G1 X3.8499 Y0.2695
G1 X3.8509 Y0.2698
G1 X3.8517 Y0.2706
G1 X3.8523 Y0.2717
G1 X3.8525 Y0.2732
G0 Z1.5
G0 X3.8277 Y0.2559
G1 F30.0 Z0.0
G1 F300.0 X3.8252 Y0.2576
G1 X3.8236 Y0.2581
G1 X3.8231 Y0.2578
G1 X3.8226 Y0.2572
G1 X3.822 Y0.255
G1 Y0.253
G1 X3.8228 Y0.2508
G1 X3.8241 Y0.2487
G1 X3.8259 Y0.247
G1 X3.8284 Y0.2453
G1 X3.83 Y0.2449
G1 X3.8305 Y0.2451
G1 X3.8309 Y0.2457
G1 X3.8316 Y0.248
G1 X3.8315 Y0.25
G1 X3.8308 Y0.2521
G1 X3.8295 Y0.2542
G1 X3.8277 Y0.2559
G0 Z1.5
G0 X3.8354 Y0.3254
G1 F30.0 Z0.0
G1 F300.0 X3.8338 Y0.3348
G1 X3.8318 Y0.3437
G1 X3.831 Y0.3476
G1 X3.8306 Y0.3518
G1 Y0.3558
G1 X3.8309 Y0.3592
G1 X3.8311 Y0.3628
G1 X3.8301 Y0.3666
G1 X3.8279 Y0.3707
G1 X3.8242 Y0.3756
G1 X3.8208 Y0.3793
G1 X3.8177 Y0.3824
G1 X3.8151 Y0.3844
G1 X3.8135 Y0.3852
G1 X3.8129 Y0.385
G1 X3.8125 Y0.3844
G1 X3.8121 Y0.3824
G1 Y0.3794
G1 X3.8125 Y0.3758
G1 X3.8133 Y0.372
G1 X3.8143 Y0.3684
G1 X3.8155 Y0.3652
G1 X3.8168 Y0.363
G1 X3.818 Y0.3606
G1 X3.8193 Y0.3563
G1 X3.8206 Y0.3507
G1 X3.8218 Y0.3443
G1 X3.8243 Y0.3313
G1 X3.8255 Y0.3264
G1 X3.8269 Y0.3225
G1 X3.8283 Y0.3195
G1 X3.8297 Y0.3174
G1 X3.8313 Y0.3162
G1 X3.833 Y0.3158
G1 X3.834 Y0.3159
G1 X3.8347 Y0.3162
G1 X3.8353 Y0.3169
G1 X3.8357 Y0.3178
G1 X3.8358 Y0.3208
G1 X3.8354 Y0.3254
G0 Z1.5
G0 X3.795 Y0.3383
G1 F30.0 Z0.0
G1 F300.0 X3.791 Y0.3531
G1 X3.7896 Y0.3574
G1 X3.7878 Y0.362
G1 X3.7834 Y0.3711
G1 X3.7812 Y0.3749
G1 X3.7792 Y0.3777
G1 X3.7775 Y0.3794
G1 X3.7769 Y0.3796
G1 X3.7765 Y0.3795
G1 X3.7764 Y0.3776
G1 X3.7774 Y0.3735
G1 X3.7811 Y0.3618
G1 X3.7856 Y0.3502
G1 X3.7875 Y0.3462
G1 X3.7888 Y0.3445
G1 X3.7896 Y0.3438
G1 X3.7902 Y0.3424
G1 X3.7906 Y0.3407
G1 X3.7908 Y0.3387
G1 X3.791 Y0.3368
G1 X3.7916 Y0.3352
G1 X3.7925 Y0.3342
G1 X3.7935 Y0.3338
G1 X3.7945 Y0.3341
G1 X3.7951 Y0.3351
G1 X3.7952 Y0.3365
G1 X3.795 Y0.3383
G0 Z1.5
G0 X3.7772 Y0.337
G1 F30.0 Z0.0
G1 F300.0 X3.7758 Y0.3417
G1 X3.7739 Y0.3465
G1 X3.7718 Y0.3508
G1 X3.7698 Y0.3541
G1 X3.765 Y0.3602
G1 Y0.3527
G1 X3.7655 Y0.3498
G1 X3.7668 Y0.346
G1 X3.7708 Y0.3371
G1 X3.7732 Y0.3329
G1 X3.7755 Y0.3294
G1 X3.7775 Y0.3269
G1 X3.7783 Y0.3263
G1 X3.779 Y0.3261
G1 X3.7792 Y0.3269
G1 X3.7789 Y0.3293
G1 X3.7772 Y0.337
G0 Z1.5
G0 X3.728 Y0.3514
G1 F30.0 Z0.0
G1 F300.0 X3.723 Y0.3604
G1 X3.7211 Y0.3633
G1 X3.7195 Y0.365
G1 X3.7182 Y0.3657
G1 X3.7171 Y0.3654
G1 X3.7162 Y0.3642
G1 X3.7154 Y0.362
G1 Y0.3589
G1 X3.7164 Y0.3544
G1 X3.7183 Y0.349
G1 X3.7209 Y0.3433
G1 X3.7274 Y0.331
G1 X3.7295 Y0.3274
G1 X3.7311 Y0.3253
G1 X3.7321 Y0.3247
G1 X3.7328 Y0.3254
G1 X3.7337 Y0.3303
G1 X3.7336 Y0.3346
G1 X3.7325 Y0.3398
G1 X3.7306 Y0.3455
G1 X3.728 Y0.3514
G0 Z1.5
G0 X3.6708 Y0.3696
G1 F30.0 Z0.0
G1 F300.0 X3.6687 Y0.3798
G1 X3.665 Y0.3943
G1 X3.6606 Y0.4093
G1 X3.6567 Y0.4212
G1 X3.6549 Y0.425
G1 X3.6527 Y0.4287
G1 X3.6501 Y0.4322
G1 X3.6473 Y0.4354
G1 X3.6446 Y0.438
G1 X3.6419 Y0.4399
G1 X3.6395 Y0.4409
G1 X3.6376 Y0.4408
G1 X3.6362 Y0.4401
G1 X3.635 Y0.439
G1 X3.6342 Y0.4379
G1 X3.6339 Y0.4367
G1 X3.6343 Y0.435
G1 X3.6355 Y0.4329
G1 X3.6373 Y0.4308
G1 X3.6393 Y0.4287
G1 X3.6415 Y0.427
G1 X3.6437 Y0.4256
G1 X3.6455 Y0.425
G1 X3.6469 Y0.4252
G1 X3.6474
G1 X3.6478 Y0.4246
G1 X3.6484 Y0.4217
G1 X3.6487 Y0.4166
G1 X3.6485 Y0.4095
G1 X3.6482 Y0.4001
G1 X3.6485 Y0.3964
G1 X3.649 Y0.393
G1 X3.6498 Y0.3899
G1 X3.651 Y0.3866
G1 X3.6547 Y0.3791
G1 X3.6648 Y0.3596
G1 X3.6662 Y0.357
G1 X3.6676 Y0.3557
G1 X3.6688 Y0.3556
G1 X3.6698 Y0.3567
G1 X3.6706 Y0.3587
G1 X3.6711 Y0.3615
G1 Y0.3652
G1 X3.6708 Y0.3696
G0 Z1.5
G0 X3.6483 Y0.3665
G1 F30.0 Z0.0
G1 F300.0 X3.6477 Y0.3667
G1 X3.6473 Y0.3662
G1 X3.6469 Y0.3631
G1 X3.6471 Y0.3613
G1 X3.6475 Y0.3605
G1 X3.6479
G1 X3.6485 Y0.3616
G1 X3.649 Y0.3644
G1 X3.6488 Y0.3656
G1 X3.6483 Y0.3665
G0 Z1.5
G0 X3.5957 Y0.328
G1 F30.0 Z0.0
G1 F300.0 X3.6005 Y0.3408
G1 X3.6045 Y0.3543
G1 X3.6062 Y0.3616
G1 X3.6067 Y0.3652
G1 X3.6065 Y0.3658
G1 X3.606 Y0.3657
G1 X3.6042 Y0.3635
G1 X3.6015 Y0.3592
G1 X3.6007 Y0.3572
G1 X3.6004 Y0.3558
G1 X3.5986 Y0.3493
G1 X3.5941 Y0.3376
G1 X3.5902 Y0.3278
G1 X3.5881 Y0.321
G1 X3.5877 Y0.3187
G1 Y0.317
G1 X3.5881 Y0.3161
G1 X3.589 Y0.3158
G1 X3.5899 Y0.3167
G1 X3.5915 Y0.3194
G1 X3.5957 Y0.328
G0 Z1.5
G0 X3.5795 Y0.2861
G1 F30.0 Z0.0
G1 F300.0 X3.5796 Y0.2879
G1 X3.5792 Y0.2891
G1 X3.5783 Y0.2897
G1 X3.5769 Y0.2895
G1 X3.5755 Y0.2887
G1 X3.5742 Y0.2873
G1 X3.5732 Y0.2856
G1 X3.5725 Y0.2837
G1 X3.5724 Y0.2819
G1 X3.5728 Y0.2807
G1 X3.5737 Y0.2801
G1 X3.5751 Y0.2803
G1 X3.5765 Y0.2811
G1 X3.5778 Y0.2825
G1 X3.5788 Y0.2842
G1 X3.5795 Y0.2861
G0 Z1.5
G0 X3.585 Y0.2444
G1 F30.0 Z0.0
G1 F300.0 X3.5856 Y0.2486
G1 X3.5867 Y0.254
G1 X3.5876 Y0.2576
G1 X3.5877 Y0.2585
G1 X3.5875 Y0.259
G1 X3.5861 Y0.2584
G1 X3.5833 Y0.256
G1 X3.5803 Y0.2537
G1 X3.5774 Y0.2523
G1 X3.5747 Y0.2515
G1 X3.5721
G1 X3.5699 Y0.2522
G1 X3.568 Y0.2536
G1 X3.5666 Y0.2557
G1 X3.5656 Y0.2585
G1 X3.5635 Y0.2655
G1 X3.5604 Y0.2724
G1 X3.5592 Y0.2749
G1 X3.5585 Y0.2773
G1 X3.5583 Y0.2799
G1 X3.5587 Y0.2829
G1 X3.5597 Y0.2866
G1 X3.5614 Y0.2912
G1 X3.567 Y0.3042
G1 X3.5691 Y0.3111
G1 X3.571 Y0.3205
G1 X3.5727 Y0.3317
G1 X3.5665 Y0.3276
G1 X3.5604 Y0.3228
G1 X3.5547 Y0.3171
G1 X3.5516 Y0.314
G1 X3.549 Y0.3124
G1 X3.5476 Y0.3121
G1 X3.5462
G1 X3.5428 Y0.3131
G1 X3.5402 Y0.3139
G1 X3.5382 Y0.314
G1 X3.5365 Y0.3134
G1 X3.5353 Y0.3119
G1 X3.5345 Y0.3095
G1 X3.5339 Y0.306
G1 X3.5336 Y0.2956
G1 X3.5333 Y0.2888
G1 X3.5329 Y0.2865
G1 X3.5322 Y0.2846
G1 X3.5311 Y0.283
G1 X3.5295 Y0.2816
G1 X3.5246 Y0.2787
G1 X3.5211 Y0.2764
G1 X3.5182 Y0.274
G1 X3.5163 Y0.2716
G1 X3.5156 Y0.2696
G1 X3.5162 Y0.2676
G1 X3.5178 Y0.265
G1 X3.5231 Y0.259
G1 X3.5262 Y0.2561
G1 X3.5292 Y0.2537
G1 X3.5318 Y0.2521
G1 X3.5338 Y0.2515
G1 X3.5343 Y0.2517
G1 X3.5347 Y0.2525
G1 X3.5355 Y0.2554
G1 X3.5361 Y0.2597
G1 X3.5364 Y0.265
G1 X3.5367 Y0.2775
G1 X3.5371 Y0.282
G1 X3.5378 Y0.2857
G1 X3.5387 Y0.2888
G1 X3.5399 Y0.2916
G1 X3.5437 Y0.2975
G1 X3.5461 Y0.3005
G1 X3.5483 Y0.3027
G1 X3.5504 Y0.304
G1 X3.5521 Y0.3045
G1 X3.5534 Y0.304
G1 X3.5544 Y0.3027
G1 X3.5548 Y0.3005
G1 X3.5546 Y0.2975
G1 X3.5527 Y0.2811
G1 X3.5523 Y0.2749
G1 X3.5522 Y0.2698
G1 X3.5525 Y0.2653
G1 X3.5532 Y0.2614
G1 X3.5543 Y0.2578
G1 X3.5558 Y0.2542
G1 X3.5575 Y0.2509
G1 X3.5592 Y0.2482
G1 X3.5611 Y0.2461
G1 X3.5633 Y0.2445
G1 X3.5661 Y0.2434
G1 X3.5695 Y0.2426
G1 X3.5792 Y0.2416
G1 X3.5815 Y0.2417
G1 X3.5833 Y0.2422
G1 X3.5846 Y0.2432
G1 X3.585 Y0.2444
G0 Z1.5
G0 X3.6076 Y0.2439
G1 F30.0 Z0.0
G1 F300.0 X3.6103 Y0.2451
G1 X3.6127 Y0.2465
G1 X3.6147 Y0.248
G1 X3.6162 Y0.2496
G1 X3.6173 Y0.2512
G1 X3.6177 Y0.2527
G1 X3.6174 Y0.254
G1 X3.6164 Y0.255
G1 X3.6146 Y0.2554
G1 X3.612 Y0.2549
G1 X3.609 Y0.2539
G1 X3.6058 Y0.2524
G1 X3.6028 Y0.2506
G1 X3.6003 Y0.2487
G1 X3.5985 Y0.2468
G1 X3.5979 Y0.2452
G1 X3.598 Y0.2425
G1 X3.5983 Y0.2418
G1 X3.599 Y0.2415
G1 X3.6018 Y0.242
G1 X3.6076 Y0.2439
G0 Z1.5
G0 X3.612 Y0.2153
G1 F30.0 Z0.0
G1 F300.0 X3.6146 Y0.2165
G1 X3.6152 Y0.217
G1 X3.6153 Y0.2174
G1 X3.6139 Y0.2182
G1 X3.6102 Y0.2193
G1 X3.6053 Y0.22
G1 X3.6032 Y0.2199
G1 X3.6014 Y0.2196
G1 X3.5999 Y0.2189
G1 X3.5988 Y0.218
G1 X3.5981 Y0.2168
G1 X3.5979 Y0.2153
G1 X3.5982 Y0.2144
G1 X3.5991 Y0.2137
G1 X3.6005 Y0.2133
G1 X3.6023 Y0.2131
G1 X3.6068 Y0.2137
G1 X3.612 Y0.2153
G0 Z1.5
G0 X3.6352 Y0.2335
G1 F30.0 Z0.0
G1 F300.0 X3.634 Y0.2345
G1 X3.6322 Y0.2353
G1 X3.6299 Y0.2358
G1 X3.6273 Y0.236
G1 X3.6249 Y0.2358
G1 X3.6229 Y0.2353
G1 X3.6215 Y0.2345
G1 X3.621 Y0.2335
G1 X3.6216 Y0.2325
G1 X3.6233 Y0.2316
G1 X3.6258 Y0.2311
G1 X3.6289 Y0.2309
G1 X3.6319 Y0.2311
G1 X3.6341 Y0.2316
G1 X3.6352 Y0.2324
G1 X3.6353 Y0.2329
G1 X3.6352 Y0.2335
G0 Z1.5
G0 X3.6524 Y0.2095
G1 F30.0 Z0.0
G1 F300.0 X3.6495 Y0.21
G1 X3.6483 Y0.2098
G1 X3.6474 Y0.2093
G1 X3.6472 Y0.2087
G1 X3.6478 Y0.2083
G1 X3.6508 Y0.2079
G1 X3.6526 Y0.2081
G1 X3.6535 Y0.2085
G1 X3.6534 Y0.2089
G1 X3.6524 Y0.2095
G0 Z1.5
G0 X3.6673 Y0.2386
G1 F30.0 Z0.0
G1 F300.0 X3.667 Y0.2396
G1 X3.6662 Y0.2404
G1 X3.665 Y0.241
G1 X3.6635 Y0.2412
G1 X3.662 Y0.241
G1 X3.6607 Y0.2404
G1 X3.6599 Y0.2396
G1 X3.6596 Y0.2386
G1 X3.6599 Y0.2376
G1 X3.6607 Y0.2368
G1 X3.662 Y0.2362
G1 X3.6635 Y0.236
G1 X3.665 Y0.2362
G1 X3.6662 Y0.2368
G1 X3.667 Y0.2376
G1 X3.6673 Y0.2386
G0 Z1.5
G0 X3.6982 Y0.2206
G1 F30.0 Z0.0
G1 F300.0 X3.6921 Y0.222
G1 X3.6866 Y0.2227
G1 X3.6844 Y0.2226
G1 X3.6838 Y0.2222
G1 X3.6879 Y0.2206
G1 X3.6939 Y0.2191
G1 X3.6995 Y0.2185
G1 X3.7017 Y0.2186
G1 X3.7023 Y0.219
G1 X3.6982 Y0.2206
G0 Z1.5
G0 X3.7095 Y0.2293
G1 F30.0 Z0.0
G1 F300.0 X3.7128 Y0.2288
G1 X3.7178 Y0.2287
G1 X3.7304 Y0.2296
G1 X3.7367 Y0.2304
G1 X3.742 Y0.2314
G1 X3.7457 Y0.2325
G1 X3.7467 Y0.2331
G1 X3.747 Y0.2336
G1 X3.7466 Y0.2348
G1 X3.7453 Y0.2364
G1 X3.7433 Y0.2382
G1 X3.7409 Y0.2399
G1 X3.7373 Y0.242
G1 X3.7358 Y0.2424
G1 X3.7343 Y0.2425
G1 X3.7327 Y0.2421
G1 X3.7307 Y0.2413
G1 X3.7255 Y0.2384
G1 X3.7218 Y0.2366
G1 X3.718 Y0.2353
G1 X3.7143 Y0.2346
G1 X3.7107 Y0.2344
G1 X3.7074 Y0.2349
G1 X3.7044 Y0.2358
G1 X3.702 Y0.2374
G1 X3.7002 Y0.2395
G1 X3.6994 Y0.2399
G1 X3.6988 Y0.239
G1 X3.6984 Y0.2369
G1 X3.6982 Y0.2338
G1 X3.6983 Y0.2296
G1 X3.6989 Y0.2274
G1 X3.6993 Y0.2269
G1 X3.7
G1 X3.7017 Y0.228
G1 X3.7034 Y0.2291
G1 X3.7055 Y0.2296
G1 X3.7076 Y0.2297
G1 X3.7095 Y0.2293
G0 Z1.5
G0 X3.7221 Y0.2723
G1 F30.0 Z0.0
G1 F300.0 X3.7225 Y0.2749
G1 X3.7224 Y0.278
G1 X3.722 Y0.2812
G1 X3.7212 Y0.2841
G1 X3.7202 Y0.2876
G1 X3.7195 Y0.2927
G1 X3.7189 Y0.2985
G1 X3.7188 Y0.3045
G1 X3.7184 Y0.3111
G1 X3.7174 Y0.3177
G1 X3.7158 Y0.3238
G1 X3.7136 Y0.3292
G1 X3.71 Y0.3381
G1 X3.7089 Y0.3419
G1 X3.7085 Y0.3445
G1 X3.7083 Y0.3464
G1 X3.7077 Y0.3478
G1 X3.7069 Y0.3488
G1 X3.7059 Y0.3492
G1 X3.7053 Y0.3488
G1 X3.7048 Y0.3477
G1 X3.704 Y0.3435
G1 X3.7036 Y0.3375
G1 X3.7034 Y0.3303
G1 X3.7035 Y0.3227
G1 X3.7039 Y0.3152
G1 X3.7047 Y0.3088
G1 X3.7057 Y0.3039
G1 X3.7122 Y0.2817
G1 X3.7153 Y0.2724
G1 X3.7166 Y0.2695
G1 X3.7179 Y0.2678
G1 X3.7191 Y0.2672
G1 X3.7202 Y0.2677
G1 X3.7212 Y0.2695
G1 X3.7221 Y0.2723
G0 Z1.5
G0 X3.6916 Y0.2843
G1 F30.0 Z0.0
G1 F300.0 X3.6894 Y0.2943
G1 X3.6863 Y0.3049
G1 X3.6838 Y0.3134
G1 X3.6827 Y0.3183
G1 X3.6819 Y0.322
G1 X3.6797 Y0.3278
G1 X3.6767 Y0.3351
G1 X3.6752 Y0.3261
G1 X3.675 Y0.3208
G1 X3.6758 Y0.3142
G1 X3.6779 Y0.3059
G1 X3.6811 Y0.2958
G1 X3.6839 Y0.2883
G1 X3.6864 Y0.2824
G1 X3.6886 Y0.2781
G1 X3.6903 Y0.2755
G1 X3.691 Y0.2749
G1 X3.6916 Y0.2747
G1 X3.692 Y0.2751
G1 X3.6923 Y0.2759
G1 Y0.279
G1 X3.6916 Y0.2843
G0 Z1.5
G0 X3.6619 Y0.2924
G1 F30.0 Z0.0
G1 F300.0 X3.6628 Y0.2932
G1 X3.6635 Y0.2946
G1 X3.6646 Y0.2992
G1 X3.6651 Y0.3065
G1 X3.6653 Y0.317
G1 X3.6648 Y0.3332
G1 X3.6643 Y0.3384
G1 X3.6638 Y0.3407
G1 X3.663 Y0.3408
G1 X3.662 Y0.34
G1 X3.6596 Y0.3362
G1 X3.6574 Y0.3305
G1 X3.656 Y0.3242
G1 X3.6553 Y0.3208
G1 X3.6541 Y0.3169
G1 X3.6526 Y0.3129
G1 X3.6509 Y0.3093
G1 X3.6489 Y0.3052
G1 X3.6476 Y0.3015
G1 X3.6469 Y0.2982
G1 X3.6468 Y0.2954
G1 X3.6473 Y0.2931
G1 X3.6484 Y0.2915
G1 X3.6502 Y0.2904
G1 X3.6525 Y0.2901
G1 X3.6577 Y0.2908
G1 X3.66 Y0.2915
G1 X3.6619 Y0.2924
G0 Z1.5
G0 X3.7065 Y0.1812
G1 F30.0 Z0.0
G1 F300.0 X3.7033 Y0.1817
G1 X3.7016 Y0.1815
G1 X3.7001 Y0.1812
G1 X3.6994 Y0.1806
G1 X3.6997 Y0.1802
G1 X3.7033 Y0.1798
G1 X3.7069 Y0.1802
G1 X3.7073 Y0.1806
G1 X3.7065 Y0.1812
G0 Z1.5
G0 X3.666 Y0.1614
G1 F30.0 Z0.0
G1 F300.0 X3.6689 Y0.1627
G1 X3.6699 Y0.1634
G1 X3.6689 Y0.1638
G1 X3.666 Y0.1641
G1 X3.6519 Y0.1654
G1 X3.6438 Y0.1657
G1 X3.6405 Y0.1654
G1 X3.638 Y0.1649
G1 X3.6362 Y0.1642
G1 X3.6354 Y0.1633
G1 X3.6355 Y0.1623
G1 X3.6368 Y0.1612
G1 X3.639 Y0.1603
G1 X3.6423 Y0.1596
G1 X3.6505 Y0.1592
G1 X3.6592 Y0.1598
G1 X3.663 Y0.1605
G1 X3.666 Y0.1614
G0 Z1.5
G0 X3.5799 Y0.2
G1 F30.0 Z0.0
G1 F300.0 X3.5773 Y0.2011
G1 X3.5738 Y0.2019
G1 X3.5696 Y0.2023
G1 X3.5652 Y0.2025
G1 X3.561 Y0.2023
G1 X3.5572 Y0.2019
G1 X3.5544 Y0.2011
G1 X3.5529 Y0.2
G1 X3.5528 Y0.1995
G1 X3.5533 Y0.1989
G1 X3.556 Y0.1981
G1 X3.5608 Y0.1976
G1 X3.5675 Y0.1975
G1 X3.5746 Y0.1976
G1 X3.579 Y0.1981
G1 X3.5802 Y0.1985
G1 X3.5807 Y0.1989
G1 X3.5806 Y0.1994
G1 X3.5799 Y0.2
G0 Z1.5
G0 X3.4444 Y0.1654
G1 F30.0 Z0.0
G1 F300.0 X3.4443 Y0.1675
G1 X3.4451 Y0.1701
G1 X3.4467 Y0.173
G1 X3.449 Y0.176
G1 X3.4525 Y0.1792
G1 X3.4541 Y0.1803
G1 X3.4558 Y0.181
G1 X3.4576 Y0.1814
G1 X3.4597 Y0.1816
G1 X3.4649 Y0.1812
G1 X3.4689 Y0.1805
G1 X3.4723 Y0.1796
G1 X3.4753 Y0.1784
G1 X3.4778 Y0.177
G1 X3.4797 Y0.1754
G1 X3.481 Y0.1735
G1 X3.4819 Y0.1714
G1 X3.4821 Y0.1691
G1 X3.4819 Y0.1671
G1 X3.4811 Y0.1654
G1 X3.4796 Y0.1641
G1 X3.4775 Y0.1631
G1 X3.4745 Y0.1623
G1 X3.4707 Y0.1618
G1 X3.46 Y0.1614
G1 X3.4534 Y0.1617
G1 X3.4488 Y0.1623
G1 X3.4459 Y0.1636
G1 X3.445 Y0.1644
G1 X3.4444 Y0.1654
G0 Z1.5
G0 X3.4119 Y0.1863
G1 F30.0 Z0.0
G1 F300.0 X3.4104 Y0.1882
G1 X3.4097 Y0.1901
G1 X3.4098 Y0.1919
G1 X3.4105 Y0.1937
G1 X3.4119 Y0.1953
G1 X3.4139 Y0.1967
G1 X3.4166 Y0.1979
G1 X3.4198 Y0.1987
G1 X3.4239 Y0.1996
G1 X3.4274 Y0.2006
G1 X3.4302 Y0.2018
G1 X3.4323 Y0.2032
G1 X3.4339 Y0.2049
G1 X3.435 Y0.2069
G1 X3.4356 Y0.2092
G1 X3.4358 Y0.2119
G1 X3.4359 Y0.2146
G1 X3.4362 Y0.2164
G1 X3.4368 Y0.2174
G1 X3.4378 Y0.2175
G1 X3.4392 Y0.2167
G1 X3.4412 Y0.2151
G1 X3.4472 Y0.209
G1 X3.4515 Y0.205
G1 X3.4555 Y0.2022
G1 X3.4594 Y0.2005
G1 X3.4633 Y0.2
G1 X3.4661 Y0.1998
G1 X3.4686 Y0.1993
G1 X3.471 Y0.1985
G1 X3.473 Y0.1974
G1 X3.4747 Y0.1961
G1 X3.4759 Y0.1946
G1 X3.4767 Y0.1929
G1 X3.477 Y0.1912
G1 X3.4766 Y0.1906
G1 X3.4754 Y0.19
G1 X3.471 Y0.1891
G1 X3.4639 Y0.1886
G1 X3.4545 Y0.1884
G1 X3.4359 Y0.1878
G1 X3.4281 Y0.1871
G1 X3.4228 Y0.1864
G1 X3.4191 Y0.1858
G1 X3.4158 Y0.1856
G1 X3.4133 Y0.1857
G1 X3.4119 Y0.1863
G0 Z1.5
G0 X3.3413 Y0.1542
G1 F30.0 Z0.0
G1 F300.0 X3.3387 Y0.1571
G1 X3.3379 Y0.1583
G1 X3.3377 Y0.1594
G1 X3.3379 Y0.1603
G1 X3.3386 Y0.161
G1 X3.34 Y0.1617
G1 X3.342 Y0.1622
G1 X3.348 Y0.163
G1 X3.3572 Y0.1633
G1 X3.3861
G1 X3.4074 Y0.1629
G1 X3.4226 Y0.1622
G1 X3.4317 Y0.1612
G1 X3.4341 Y0.1605
G1 X3.4351 Y0.1599
G1 X3.435 Y0.1593
G1 X3.4344 Y0.1588
G1 X3.4318 Y0.1577
G1 X3.4276 Y0.1567
G1 X3.422 Y0.1558
G1 X3.4077 Y0.1541
G1 X3.3909 Y0.1528
G1 X3.3739 Y0.152
G1 X3.3585 Y0.1519
G1 X3.347 Y0.1526
G1 X3.3432 Y0.1532
G1 X3.3413 Y0.1542
G0 Z1.5
G0 X3.46 Y0.3632
G1 F30.0 Z0.0
G1 F300.0 X3.463 Y0.3674
G1 X3.4651 Y0.371
G1 X3.4663 Y0.3739
G1 X3.4665 Y0.3763
G1 X3.4658 Y0.378
G1 X3.4641 Y0.3792
G1 X3.4614 Y0.3798
G1 X3.4578 Y0.3801
G1 X3.4538 Y0.3804
G1 X3.4506 Y0.3812
G1 X3.4481 Y0.3826
G1 X3.4465 Y0.3845
G1 X3.4451 Y0.3866
G1 X3.4445 Y0.3869
G1 X3.4441 Y0.3868
G1 X3.4432 Y0.3851
G1 X3.4421 Y0.3813
G1 X3.4411 Y0.378
G1 X3.4397 Y0.3746
G1 X3.4381 Y0.3716
G1 X3.4365 Y0.3693
G1 X3.4352 Y0.3675
G1 X3.4344 Y0.3657
G1 X3.4342 Y0.364
G1 X3.4346 Y0.3624
G1 X3.4356 Y0.3609
G1 X3.4371 Y0.3595
G1 X3.4392 Y0.3581
G1 X3.4419 Y0.3569
G1 X3.445 Y0.3557
G1 X3.4475 Y0.355
G1 X3.4497 Y0.3548
G1 X3.4517 Y0.3552
G1 X3.4535 Y0.3562
G1 X3.4554 Y0.3578
G1 X3.46 Y0.3632
G0 Z1.5
G0 X3.4448 Y0.4007
G1 F30.0 Z0.0
G1 F300.0 X3.444 Y0.4016
G1 X3.443 Y0.4021
G1 X3.4419 Y0.4022
G1 X3.4408 Y0.4018
G1 X3.4389 Y0.4003
G1 X3.4386 Y0.3997
G1 Y0.3991
G1 X3.439 Y0.3987
G1 X3.4398 Y0.3983
G1 X3.4424 Y0.3981
G1 X3.4438 Y0.3983
G1 X3.4448 Y0.3988
G1 X3.4451 Y0.3997
G1 X3.4448 Y0.4007
G0 Z1.5
G0 X3.4898 Y0.4035
G1 F30.0 Z0.0
G1 F300.0 X3.4904 Y0.4051
G1 X3.492 Y0.4075
G1 X3.4944 Y0.4104
G1 X3.4973 Y0.4133
G1 X3.5013 Y0.418
G1 X3.5065 Y0.4257
G1 X3.5123 Y0.4353
G1 X3.518 Y0.4458
G1 X3.527 Y0.4622
G1 X3.5306 Y0.468
G1 X3.5336 Y0.4722
G1 X3.5362 Y0.475
G1 X3.5383 Y0.4763
G1 X3.5393 Y0.4765
G1 X3.5401 Y0.4763
G1 X3.5415 Y0.4749
G1 X3.5425 Y0.4737
G1 X3.5438 Y0.4732
G1 X3.5451 Y0.4734
G1 X3.5466 Y0.4744
G1 X3.5482 Y0.476
G1 X3.55 Y0.4783
G1 X3.5539 Y0.4851
G1 X3.5563 Y0.4904
G1 X3.5574 Y0.495
G1 X3.5575 Y0.5
G1 X3.5566 Y0.5062
G1 X3.556 Y0.512
G1 X3.5562 Y0.5195
G1 X3.5569 Y0.5281
G1 X3.5581 Y0.5371
G1 X3.5597 Y0.5459
G1 X3.5615 Y0.5538
G1 X3.5636 Y0.5602
G1 X3.5657 Y0.5643
G1 X3.5675 Y0.5665
G1 X3.5692 Y0.5675
G1 X3.5706
G1 X3.5717 Y0.5666
G1 X3.5724 Y0.5647
G1 X3.5727 Y0.562
G1 X3.5726 Y0.5586
G1 X3.572 Y0.5544
G1 X3.5711 Y0.549
G1 X3.571 Y0.5463
G1 X3.5713 Y0.5459
G1 X3.5717 Y0.5461
G1 X3.5734 Y0.548
G1 X3.5743 Y0.5491
G1 X3.5751 Y0.5496
G1 X3.5758 Y0.5492
G1 X3.5764 Y0.5479
G1 X3.5773 Y0.5421
G1 X3.5783 Y0.5312
G1 X3.5787 Y0.5217
G1 Y0.5113
G1 X3.5783 Y0.5014
G1 X3.5776 Y0.4932
G1 X3.5767 Y0.4849
G1 X3.5766 Y0.4791
G1 X3.5773 Y0.4752
G1 X3.579 Y0.4724
G1 X3.5798 Y0.4711
G1 X3.5806 Y0.4691
G1 X3.5818 Y0.4633
G1 X3.5826 Y0.4549
G1 X3.5831 Y0.4438
G1 X3.5835 Y0.4348
G1 X3.5841 Y0.428
G1 X3.5849 Y0.4234
G1 X3.586 Y0.421
G1 X3.5867 Y0.4206
G1 X3.5874 Y0.4207
G1 X3.5882 Y0.4213
G1 X3.5891 Y0.4225
G1 X3.5912 Y0.4264
G1 X3.5937 Y0.4323
G1 X3.595 Y0.4369
G1 X3.5962 Y0.4429
G1 X3.5971 Y0.4504
G1 X3.5977 Y0.4594
G1 X3.5984 Y0.4824
G1 X3.5982 Y0.5128
G1 X3.5979 Y0.5244
G1 X3.5975 Y0.5282
G1 X3.597 Y0.531
G1 X3.5961 Y0.533
G1 X3.5949 Y0.5344
G1 X3.5912 Y0.5366
G1 X3.5877 Y0.5385
G1 X3.5866 Y0.5397
G1 X3.5858 Y0.541
G1 X3.5854 Y0.5428
G1 X3.5852 Y0.545
G1 X3.5853 Y0.5513
G1 X3.5854 Y0.5561
G1 X3.585 Y0.5602
G1 X3.5842 Y0.5632
G1 X3.5831 Y0.5648
G1 X3.5825 Y0.5655
G1 X3.5821 Y0.5664
G1 X3.5817 Y0.5692
G1 X3.5818 Y0.5728
G1 X3.5824 Y0.5767
G1 X3.5833 Y0.5806
G1 X3.5845 Y0.5841
G1 X3.586 Y0.5866
G1 X3.5867 Y0.5875
G1 X3.5875 Y0.588
G1 X3.5888 Y0.5886
G1 X3.5901 Y0.5897
G1 X3.5927 Y0.5932
G1 X3.5953 Y0.5979
G1 X3.5977 Y0.6036
G1 X3.5998 Y0.61
G1 X3.6015 Y0.6166
G1 X3.6026 Y0.623
G1 X3.603 Y0.6291
G1 X3.6034 Y0.6361
G1 X3.6045 Y0.6441
G1 X3.6061 Y0.6521
G1 X3.6082 Y0.6591
G1 X3.6111 Y0.6678
G1 X3.6118 Y0.6706
G1 X3.612 Y0.6727
G1 X3.6118 Y0.6742
G1 X3.6111 Y0.6754
G1 X3.6082 Y0.6777
G1 X3.6062 Y0.6795
G1 X3.6045 Y0.6819
G1 X3.6034 Y0.6845
G1 X3.603 Y0.6869
G1 X3.6035 Y0.6905
G1 X3.6047 Y0.6959
G1 X3.6091 Y0.7109
G1 X3.6151 Y0.7288
G1 X3.6218 Y0.7466
G1 X3.6244 Y0.7535
G1 X3.6268 Y0.7611
G1 X3.6287 Y0.7683
G1 X3.6299 Y0.7743
G1 X3.6311 Y0.7805
G1 X3.633 Y0.7881
G1 X3.6354 Y0.7962
G1 X3.6381 Y0.8039
G1 X3.6435 Y0.8203
G1 X3.6497 Y0.8415
G1 X3.6549 Y0.8609
G1 X3.6564 Y0.8677
G1 X3.657 Y0.8714
G1 X3.6566 Y0.8722
G1 X3.6555 Y0.8731
G1 X3.6539 Y0.874
G1 X3.652 Y0.8746
G1 X3.6492 Y0.8758
G1 X3.6481 Y0.8768
G1 X3.6472 Y0.878
G1 X3.646 Y0.8812
G1 X3.6456 Y0.8858
G1 X3.6459 Y0.8918
G1 X3.6471 Y0.8994
G1 X3.6489 Y0.9089
G1 X3.6516 Y0.9204
G1 X3.6594 Y0.9523
G1 X3.6531 Y0.9575
G1 X3.6498 Y0.9606
G1 X3.6488 Y0.962
G1 X3.6482 Y0.9635
G1 X3.648 Y0.9652
G1 X3.6482 Y0.9672
G1 X3.6493 Y0.9729
G1 X3.6511 Y0.9817
G1 X3.6517 Y0.9877
G1 X3.6516 Y0.9896
G1 X3.6511 Y0.9908
G1 X3.6504 Y0.9913
G1 X3.6493 Y0.9909
G1 X3.6483 Y0.99
G1 X3.6475 Y0.9885
G1 X3.6469 Y0.9868
G1 X3.6467 Y0.985
G1 X3.646 Y0.9817
G1 X3.644 Y0.9759
G1 X3.6374 Y0.9601
G1 X3.6305 Y0.944
G1 X3.6232 Y0.9258
G1 X3.6159 Y0.906
G1 X3.6087 Y0.8855
G1 X3.6069 Y0.8809
G1 X3.605 Y0.8773
G1 X3.603 Y0.8747
G1 X3.6011 Y0.873
G1 X3.5993 Y0.8725
G1 X3.5985 Y0.8726
G1 X3.5978 Y0.8731
G1 X3.5966 Y0.8748
G1 X3.5958 Y0.8778
G1 Y0.8798
G1 X3.5962 Y0.8826
G1 X3.5981 Y0.8903
G1 X3.6012 Y0.9003
G1 X3.6051 Y0.9118
G1 X3.6097 Y0.9238
G1 X3.6145 Y0.9358
G1 X3.6195 Y0.9468
G1 X3.6241 Y0.956
G1 X3.6285 Y0.9645
G1 X3.6327 Y0.9734
G1 X3.6363 Y0.9816
G1 X3.6388 Y0.9882
G1 X3.6411 Y0.9946
G1 X3.6432 Y0.9985
G1 X3.6443 Y0.9997
G1 X3.6455 Y1.0004
G1 X3.6468 Y1.0007
G1 X3.6483
G1 X3.6499
G1 X3.6512 Y1.001
G1 X3.6524 Y1.0018
G1 X3.6535 Y1.0031
G1 X3.6556 Y1.0077
G1 X3.6579 Y1.0154
G1 X3.6609 Y1.0262
G1 X3.6616 Y1.0294
G1 X3.6618 Y1.0315
G1 X3.6614 Y1.0327
G1 X3.6606 Y1.0332
G1 X3.6572 Y1.0334
G1 X3.6548 Y1.0338
G1 X3.6529 Y1.035
G1 X3.6515 Y1.0369
G1 X3.6506 Y1.0394
G1 X3.6502 Y1.0424
G1 X3.6505 Y1.0458
G1 X3.6513 Y1.0496
G1 X3.6528 Y1.0536
G1 X3.6651 Y1.0856
G1 X3.6692 Y1.0973
G1 X3.6713 Y1.1049
G1 X3.6717 Y1.1077
G1 X3.6716 Y1.1098
G1 X3.6712 Y1.1117
G1 X3.6704 Y1.1132
G1 X3.6692 Y1.1156
G1 X3.6682 Y1.1183
G1 X3.6676 Y1.121
G1 X3.6673 Y1.1234
G1 X3.6671 Y1.1258
G1 X3.6665 Y1.1274
G1 X3.6656 Y1.1282
G1 X3.6645 Y1.1283
G1 X3.6632 Y1.1277
G1 X3.6618 Y1.1263
G1 X3.6604 Y1.1242
G1 X3.659 Y1.1215
G1 X3.6548 Y1.1134
G1 X3.6489 Y1.1038
G1 X3.6455 Y1.0982
G1 X3.6416 Y1.0907
G1 X3.6377 Y1.0823
G1 X3.6342 Y1.074
G1 X3.6292 Y1.0619
G1 X3.6245 Y1.0518
G1 X3.6187 Y1.0411
G1 X3.6108 Y1.0275
G1 X3.6086 Y1.0242
G1 X3.6066 Y1.0217
G1 X3.6047 Y1.02
G1 X3.6029 Y1.0191
G1 X3.6014 Y1.019
G1 X3.6001 Y1.0197
G1 X3.5991 Y1.0213
G1 X3.5984 Y1.0237
G1 X3.5987 Y1.0262
G1 X3.6001 Y1.0302
G1 X3.6023 Y1.035
G1 X3.6052 Y1.0402
G1 X3.6122 Y1.053
G1 X3.6156 Y1.0599
G1 X3.6182 Y1.0662
G1 X3.6247 Y1.0813
G1 X3.632 Y1.0963
G1 X3.64 Y1.1105
G1 X3.6482 Y1.1234
G1 X3.6537 Y1.1318
G1 X3.6554 Y1.1353
G1 X3.6566 Y1.1387
G1 X3.6574 Y1.1425
G1 X3.6578 Y1.1471
G1 X3.6581 Y1.16
G1 X3.6578 Y1.1759
G1 X3.6574 Y1.1808
G1 X3.6569 Y1.1826
G1 X3.6556 Y1.1811
G1 X3.6533 Y1.1771
G1 X3.6466 Y1.1639
G1 X3.6421 Y1.155
G1 X3.6364 Y1.1445
G1 X3.6303 Y1.1338
G1 X3.6243 Y1.1241
G1 X3.619 Y1.1152
G1 X3.6142 Y1.1067
G1 X3.6106 Y1.0994
G1 X3.6087 Y1.0945
G1 X3.6074 Y1.0907
G1 X3.6059 Y1.088
G1 X3.6044 Y1.0865
G1 X3.6028 Y1.086
G1 X3.6014 Y1.0867
G1 X3.6003 Y1.0885
G1 X3.5996 Y1.0913
G1 X3.5994 Y1.0952
G1 X3.6002 Y1.1002
G1 X3.6021 Y1.106
G1 X3.6052 Y1.1125
G1 X3.6095 Y1.1197
G1 X3.6141 Y1.1275
G1 X3.6196 Y1.1373
G1 X3.6251 Y1.1479
G1 X3.6301 Y1.1581
G1 X3.6351 Y1.168
G1 X3.6408 Y1.1779
G1 X3.6463 Y1.1865
G1 X3.6511 Y1.1928
G1 X3.6548 Y1.1972
G1 X3.6579 Y1.2015
G1 X3.6603 Y1.2055
G1 X3.6621 Y1.2094
G1 X3.6634 Y1.213
G1 X3.6639 Y1.2163
G1 Y1.2194
G1 X3.6632 Y1.2223
G1 X3.6622 Y1.224
G1 X3.6616 Y1.2245
G1 X3.661 Y1.2247
G1 X3.6593 Y1.2241
G1 X3.657 Y1.2221
G1 X3.6539 Y1.2185
G1 X3.6499 Y1.213
G1 X3.6385 Y1.1962
G1 X3.6203 Y1.1687
G1 X3.6178 Y1.1639
G1 X3.6146 Y1.1563
G1 X3.6128 Y1.1527
G1 X3.6109 Y1.1501
G1 X3.609 Y1.1486
G1 X3.6072 Y1.1481
G1 X3.6055 Y1.1485
G1 X3.6042 Y1.15
G1 X3.6033 Y1.1525
G1 X3.603 Y1.156
G1 X3.6033 Y1.1578
G1 X3.6043 Y1.1605
G1 X3.6079 Y1.1683
G1 X3.6131 Y1.1782
G1 X3.6195 Y1.1895
G1 X3.6264 Y1.201
G1 X3.6333 Y1.2119
G1 X3.6396 Y1.2212
G1 X3.6448 Y1.2279
G1 X3.6475 Y1.2312
G1 X3.6496 Y1.2341
G1 X3.6509 Y1.2367
G1 X3.6515 Y1.239
G1 X3.6514 Y1.241
G1 X3.6507 Y1.2428
G1 X3.6492 Y1.2445
G1 X3.647 Y1.2461
G1 X3.6453 Y1.2471
G1 X3.6437 Y1.2475
G1 X3.642 Y1.2469
G1 X3.6398 Y1.2449
G1 X3.6369 Y1.2413
G1 X3.6327 Y1.2356
G1 X3.6197 Y1.2166
G1 X3.6164 Y1.2121
G1 X3.6133 Y1.2084
G1 X3.6105 Y1.2057
G1 X3.608 Y1.2039
G1 X3.6059 Y1.2031
G1 X3.6043 Y1.2035
G1 X3.6034 Y1.2049
G1 X3.603 Y1.2074
G1 X3.6039 Y1.2106
G1 X3.6064 Y1.2162
G1 X3.6147 Y1.2317
G1 X3.6246 Y1.2483
G1 X3.6292 Y1.2553
G1 X3.6331 Y1.2606
G1 X3.6358 Y1.2646
G1 X3.6377 Y1.2689
G1 X3.6387 Y1.2739
G1 X3.6391 Y1.2798
G1 X3.6398 Y1.2932
G1 X3.6415 Y1.3085
G1 X3.643 Y1.3205
G1 X3.6432 Y1.3243
G1 X3.643 Y1.326
G1 X3.642 Y1.3253
G1 X3.6399 Y1.3227
G1 X3.6335 Y1.3135
G1 X3.629 Y1.3073
G1 X3.6245 Y1.3023
G1 X3.6197 Y1.2985
G1 X3.6146 Y1.2957
G1 X3.6116 Y1.2943
G1 X3.6091 Y1.2927
G1 X3.6068 Y1.291
G1 X3.6047 Y1.2889
G1 X3.6027 Y1.2864
G1 X3.6007 Y1.2832
G1 X3.5962 Y1.2748
G1 X3.5922 Y1.2662
G1 X3.5885 Y1.2568
G1 X3.5851 Y1.247
G1 X3.5821 Y1.237
G1 X3.5795 Y1.2268
G1 X3.5774 Y1.2168
G1 X3.5759 Y1.2071
G1 X3.5749 Y1.198
G1 X3.574 Y1.1878
G1 X3.5728 Y1.1819
G1 X3.572 Y1.1803
G1 X3.5711 Y1.1793
G1 X3.5698 Y1.1788
G1 X3.5683 Y1.1787
G1 X3.567 Y1.1788
G1 X3.5659 Y1.1792
G1 X3.5649 Y1.1799
G1 X3.5641 Y1.1809
G1 X3.5629 Y1.1837
G1 X3.5624 Y1.1877
G1 Y1.1928
G1 X3.563 Y1.1991
G1 X3.5642 Y1.2066
G1 X3.5659 Y1.2154
G1 X3.5701 Y1.2319
G1 X3.5754 Y1.2485
G1 X3.582 Y1.2655
G1 X3.59 Y1.2835
G1 X3.5931 Y1.2905
G1 X3.5956 Y1.2975
G1 X3.5973 Y1.3035
G1 X3.5979 Y1.3078
G1 X3.5983 Y1.3119
G1 X3.5993 Y1.3175
G1 X3.6009 Y1.3238
G1 X3.6029 Y1.3301
G1 X3.6072 Y1.3445
G1 X3.6105 Y1.3586
G1 X3.6117 Y1.3638
G1 X3.6137 Y1.3701
G1 X3.6198 Y1.3867
G1 X3.6291 Y1.4086
G1 X3.6416 Y1.4359
G1 X3.6473 Y1.4487
G1 X3.6508 Y1.458
G1 X3.6518 Y1.462
G1 X3.6525 Y1.4659
G1 X3.6532 Y1.4745
G1 X3.6544 Y1.4911
G1 X3.6568 Y1.5129
G1 X3.6586 Y1.5275
G1 X3.6589 Y1.5322
G1 Y1.5356
G1 X3.6585 Y1.538
G1 X3.6576 Y1.5398
G1 X3.6545 Y1.5426
G1 X3.6524 Y1.5447
G1 X3.6509 Y1.5477
G1 X3.6497 Y1.5514
G1 X3.649 Y1.5558
G1 X3.6487 Y1.561
G1 X3.6489 Y1.5669
G1 X3.6495 Y1.5735
G1 X3.6505 Y1.5808
G1 X3.6511 Y1.5858
G1 X3.6508 Y1.5895
G1 X3.6494 Y1.5925
G1 X3.6469 Y1.5952
G1 X3.6445 Y1.598
G1 X3.6429 Y1.6013
G1 X3.6419 Y1.6052
G1 X3.6416 Y1.6099
G1 X3.6414 Y1.6151
G1 X3.6411 Y1.6169
G1 X3.6406 Y1.6181
G1 X3.6398 Y1.619
G1 X3.6387 Y1.6195
G1 X3.6355 Y1.6198
G1 X3.631 Y1.6202
G1 X3.6292 Y1.6208
G1 X3.6277 Y1.6217
G1 X3.6265 Y1.623
G1 X3.6256 Y1.6246
G1 X3.625 Y1.6266
G1 X3.6246 Y1.629
G1 X3.6247 Y1.6354
G1 X3.6259 Y1.6439
G1 X3.6281 Y1.6548
G1 X3.6314 Y1.6685
G1 X3.634 Y1.6794
G1 X3.6346 Y1.683
G1 X3.6348 Y1.6857
G1 X3.6346 Y1.6879
G1 X3.634 Y1.6898
G1 X3.6314 Y1.6935
G1 X3.6267 Y1.6995
G1 X3.6206 Y1.6912
G1 X3.6129 Y1.6794
G1 X3.6017 Y1.6608
G1 X3.59 Y1.6407
G1 X3.5811 Y1.6244
G1 X3.5773 Y1.618
G1 X3.5755 Y1.6158
G1 X3.5737 Y1.6142
G1 X3.5721 Y1.6133
G1 X3.5706 Y1.6131
G1 X3.5693 Y1.6136
G1 X3.5682 Y1.6149
G1 X3.568 Y1.6157
G1 X3.5681 Y1.617
G1 X3.5692 Y1.6207
G1 X3.5713 Y1.626
G1 X3.5744 Y1.6324
G1 X3.5826 Y1.6478
G1 X3.5926 Y1.665
G1 X3.6033 Y1.6822
G1 X3.6135 Y1.6972
G1 X3.618 Y1.7034
G1 X3.6219 Y1.7083
G1 X3.6251 Y1.7117
G1 X3.6275 Y1.7133
G1 X3.6293 Y1.7144
G1 X3.6305 Y1.716
G1 X3.6311 Y1.7179
G1 X3.6312 Y1.7199
G1 X3.6307 Y1.7219
G1 X3.6297 Y1.7237
G1 X3.6282 Y1.7251
G1 X3.6262 Y1.726
G1 X3.6241 Y1.727
G1 X3.6226 Y1.7289
G1 X3.6216 Y1.7317
G1 X3.6211 Y1.7356
G1 X3.621 Y1.7405
G1 X3.6215 Y1.7467
G1 X3.6238 Y1.7629
G1 X3.6253 Y1.7723
G1 X3.6256 Y1.7754
G1 X3.6254 Y1.7778
G1 X3.6247 Y1.7797
G1 X3.6236 Y1.7814
G1 X3.6195 Y1.7852
G1 X3.6124 Y1.7913
G1 X3.6154 Y1.8104
G1 X3.6208 Y1.843
G1 X3.6224 Y1.8489
G1 X3.6251 Y1.8566
G1 X3.6288 Y1.8657
G1 X3.6334 Y1.876
G1 X3.6387 Y1.8869
G1 X3.6445 Y1.8983
G1 X3.6506 Y1.9097
G1 X3.657 Y1.9207
G1 X3.6663 Y1.9366
G1 X3.674 Y1.9506
G1 X3.6802 Y1.9626
G1 X3.685 Y1.973
G1 X3.6884 Y1.9817
G1 X3.6905 Y1.989
G1 X3.6913 Y1.9948
G1 X3.6912 Y1.9973
G1 X3.6908 Y1.9994
G1 X3.6896 Y2.0031
G1 X3.6889 Y2.0037
G1 X3.6879 Y2.0035
G1 X3.6867 Y2.0022
G1 X3.6849 Y1.9997
G1 X3.6795 Y1.9912
G1 X3.6709 Y1.9767
G1 X3.6635 Y1.9632
G1 X3.658 Y1.9532
G1 X3.6521 Y1.9437
G1 X3.6463 Y1.9352
G1 X3.6409 Y1.9282
G1 X3.6364 Y1.9232
G1 X3.6346 Y1.9216
G1 X3.6332 Y1.9207
G1 X3.6322 Y1.9206
G1 X3.6318 Y1.9214
G1 Y1.923
G1 X3.6325 Y1.9256
G1 X3.6353 Y1.9314
G1 X3.6416 Y1.9432
G1 X3.661 Y1.9779
G1 X3.6705 Y1.9947
G1 X3.6777 Y2.0083
G1 X3.683 Y2.0191
G1 X3.6863 Y2.0274
G1 X3.6873 Y2.0308
G1 X3.6879 Y2.0337
G1 X3.688 Y2.0362
G1 X3.6878 Y2.0384
G1 X3.6871 Y2.0402
G1 X3.6861 Y2.0417
G1 X3.6848 Y2.0429
G1 X3.6831 Y2.044
G1 X3.6816 Y2.0447
G1 X3.6802 Y2.0449
G1 X3.6789 Y2.0445
G1 X3.6775 Y2.0436
G1 X3.6742 Y2.0395
G1 X3.6695 Y2.0319
G1 X3.6647 Y2.0244
G1 X3.6628 Y2.0218
G1 X3.6611 Y2.02
G1 X3.6594 Y2.0187
G1 X3.6577 Y2.018
G1 X3.6559 Y2.0176
G1 X3.6539 Y2.0177
G1 X3.6506 Y2.0176
G1 X3.6481 Y2.0168
G1 X3.6464 Y2.0151
G1 X3.6452 Y2.0126
G1 X3.6411 Y2.003
G1 X3.6332 Y1.9855
G1 X3.6247 Y1.9674
G1 X3.619 Y1.9558
G1 Y1.9552
G1 X3.6199
G1 X3.6235 Y1.9567
G1 X3.6267 Y1.9581
G1 X3.6293 Y1.9585
G1 X3.6312 Y1.9582
G1 X3.6325 Y1.957
G1 X3.6329 Y1.9553
G1 X3.6326 Y1.9529
G1 X3.6315 Y1.9501
G1 X3.6294 Y1.9468
G1 X3.6244 Y1.939
G1 X3.6199 Y1.9296
G1 X3.6158 Y1.9189
G1 X3.6122 Y1.907
G1 X3.6091 Y1.894
G1 X3.6067 Y1.8802
G1 X3.6049 Y1.8657
G1 X3.6038 Y1.8507
G1 X3.6029 Y1.8375
G1 X3.6018 Y1.8275
G1 X3.6005 Y1.8208
G1 X3.5998 Y1.8188
G1 X3.599 Y1.8177
G1 X3.5972 Y1.8166
G1 X3.5956
G1 X3.5943 Y1.8177
G1 X3.5932 Y1.82
G1 X3.5924 Y1.8235
G1 X3.5917 Y1.8284
G1 X3.591 Y1.8424
G1 Y1.8527
G1 X3.5919 Y1.864
G1 X3.5933 Y1.8756
G1 X3.5954 Y1.8872
G1 X3.598 Y1.9002
G1 X3.599 Y1.9081
G1 X3.5989 Y1.9106
G1 X3.5985 Y1.9126
G1 X3.5977 Y1.9142
G1 X3.5965 Y1.9156
G1 X3.5946 Y1.9182
G1 X3.5941 Y1.9194
G1 X3.5939 Y1.9207
G1 X3.5945 Y1.924
G1 X3.5964 Y1.9288
G1 X3.5984 Y1.934
G1 X3.5987 Y1.9357
G1 X3.5986 Y1.937
G1 X3.598 Y1.938
G1 X3.5968 Y1.9388
G1 X3.5926 Y1.9406
G1 X3.5883 Y1.942
G1 X3.5868 Y1.9421
G1 X3.5856 Y1.9418
G1 X3.5846 Y1.941
G1 X3.5836 Y1.9397
G1 X3.5814 Y1.9353
G1 X3.5786 Y1.9282
G1 X3.5763 Y1.9194
G1 X3.574 Y1.906
G1 X3.5709 Y1.8847
G1 X3.5681 Y1.8637
G1 X3.5674 Y1.8565
G1 X3.5672 Y1.8512
G1 X3.5674 Y1.8475
G1 X3.5681 Y1.8451
G1 X3.5693 Y1.8439
G1 X3.5709 Y1.8436
G1 X3.5724 Y1.8434
G1 X3.5736 Y1.8428
G1 X3.5744 Y1.842
G1 X3.5747 Y1.841
G1 X3.5742 Y1.8389
G1 X3.5727 Y1.8354
G1 X3.5676 Y1.8252
G1 X3.5606 Y1.8125
G1 X3.5529 Y1.7998
G1 X3.5451 Y1.7861
G1 X3.5367 Y1.7692
G1 X3.5319 Y1.7579
G1 X3.5302 Y1.753
G1 X3.529 Y1.7481
G1 X3.5281 Y1.7425
G1 X3.5273 Y1.736
G1 X3.5262 Y1.7184
G1 X3.5257 Y1.7044
G1 X3.5259 Y1.6944
G1 X3.5263 Y1.6909
G1 X3.5268 Y1.6884
G1 X3.5275 Y1.6868
G1 X3.5284 Y1.6863
G1 X3.5295 Y1.6867
G1 X3.5308 Y1.6882
G1 X3.5341 Y1.694
G1 X3.5381 Y1.7038
G1 X3.543 Y1.7175
G1 X3.5461 Y1.7253
G1 X3.5505 Y1.7353
G1 X3.5616 Y1.7583
G1 X3.5728 Y1.7794
G1 X3.5773 Y1.787
G1 X3.5805 Y1.7914
G1 X3.5831 Y1.794
G1 X3.5853 Y1.7954
G1 X3.5869 Y1.7959
G1 X3.5879 Y1.7954
G1 X3.5883 Y1.794
G1 X3.5881 Y1.7917
G1 X3.5871 Y1.7886
G1 X3.5854 Y1.7849
G1 X3.5727 Y1.7587
G1 X3.5553 Y1.7214
G1 X3.5507 Y1.711
G1 X3.5466 Y1.7002
G1 X3.543 Y1.6892
G1 X3.5398 Y1.6781
G1 X3.5371 Y1.6669
G1 X3.535 Y1.6558
G1 X3.5334 Y1.6448
G1 X3.5324 Y1.634
G1 X3.531 Y1.6193
G1 X3.5302 Y1.6143
G1 X3.5292 Y1.6108
G1 X3.5279 Y1.6086
G1 X3.5263 Y1.6074
G1 X3.5243 Y1.6073
G1 X3.5219 Y1.6079
G1 X3.5206 Y1.6086
G1 X3.5196 Y1.6096
G1 X3.519 Y1.6111
G1 X3.5186 Y1.6134
G1 X3.5185 Y1.6208
G1 X3.5192 Y1.6333
G1 X3.5196 Y1.6419
G1 X3.5197 Y1.6492
G1 X3.5194 Y1.655
G1 X3.5188 Y1.6594
G1 X3.5178 Y1.6623
G1 X3.5172 Y1.6632
G1 X3.5165 Y1.6636
G1 X3.5158
G1 X3.515 Y1.6632
G1 X3.5131 Y1.661
G1 X3.5114 Y1.659
G1 X3.5106 Y1.6585
G1 X3.5098 Y1.6584
G1 X3.5091 Y1.6587
G1 X3.5084 Y1.6593
G1 X3.5072 Y1.6614
G1 X3.5061 Y1.6648
G1 X3.5053 Y1.6694
G1 X3.5047 Y1.6751
G1 X3.5045 Y1.6819
G1 X3.5048 Y1.6923
G1 X3.506 Y1.7037
G1 X3.508 Y1.7158
G1 X3.5107 Y1.728
G1 X3.5141 Y1.7402
G1 X3.5179 Y1.7517
G1 X3.5222 Y1.7623
G1 X3.5267 Y1.7716
G1 X3.5361 Y1.7887
G1 X3.5435 Y1.8029
G1 X3.5488 Y1.8144
G1 X3.5523 Y1.8236
G1 X3.5533 Y1.8274
G1 X3.554 Y1.8307
G1 X3.5542 Y1.8336
G1 X3.554 Y1.836
G1 X3.5534 Y1.8382
G1 X3.5524 Y1.84
G1 X3.551 Y1.8415
G1 X3.5493 Y1.8428
G1 X3.5471 Y1.8449
G1 X3.5453 Y1.8482
G1 X3.5438 Y1.8527
G1 X3.5426 Y1.8581
G1 X3.5415 Y1.8648
G1 X3.541 Y1.8668
G1 X3.5405 Y1.8679
G1 X3.5399 Y1.8683
G1 X3.5391 Y1.8679
G1 X3.537 Y1.8654
G1 X3.5305 Y1.8542
G1 X3.5204 Y1.8346
G1 X3.5137 Y1.8206
G1 X3.5115 Y1.8155
G1 X3.51 Y1.8113
G1 X3.5091 Y1.8076
G1 X3.5087 Y1.8042
G1 X3.509 Y1.7973
G1 X3.5094 Y1.7921
G1 Y1.7865
G1 X3.509 Y1.7811
G1 X3.5084 Y1.7767
G1 X3.5077 Y1.7721
G1 X3.5078 Y1.7672
G1 X3.5087 Y1.7621
G1 X3.5103 Y1.7567
G1 X3.5123 Y1.7508
G1 X3.513 Y1.7471
G1 X3.5128 Y1.7458
G1 X3.5123 Y1.7448
G1 X3.5104 Y1.7431
G1 X3.5085 Y1.7422
G1 X3.506 Y1.7416
G1 X3.5033 Y1.7414
G1 X3.5008 Y1.7416
G1 X3.4977 Y1.7418
G1 X3.4967 Y1.7415
G1 X3.496 Y1.7409
G1 X3.4955 Y1.7399
G1 X3.4952 Y1.7385
G1 X3.495 Y1.7341
G1 X3.4948 Y1.7306
G1 X3.4943 Y1.7277
G1 X3.4934 Y1.7256
G1 X3.4922 Y1.7242
G1 X3.4908 Y1.7235
G1 X3.4892 Y1.7236
G1 X3.4873 Y1.7245
G1 X3.4853 Y1.7262
G1 X3.4841 Y1.7275
G1 X3.4832 Y1.729
G1 X3.4827 Y1.7308
G1 X3.4824 Y1.7331
G1 X3.4829 Y1.7401
G1 X3.4845 Y1.7515
G1 X3.4866 Y1.7662
G1 X3.4874 Y1.7768
G1 X3.4872 Y1.786
G1 X3.4858 Y1.7965
G1 X3.4853 Y1.8022
G1 X3.4856 Y1.8067
G1 X3.4871 Y1.8108
G1 X3.4898 Y1.8152
G1 X3.4923 Y1.8182
G1 X3.4951 Y1.8207
G1 X3.4978 Y1.8224
G1 X3.5001 Y1.823
G1 X3.5014 Y1.8233
G1 X3.5029 Y1.8243
G1 X3.5045 Y1.826
G1 X3.5064 Y1.8285
G1 X3.5109 Y1.8359
G1 X3.5166 Y1.8468
G1 X3.5264 Y1.8662
G1 X3.5335 Y1.8795
G1 X3.5356 Y1.8833
G1 X3.5371 Y1.8868
G1 X3.538 Y1.8899
G1 X3.5385 Y1.8927
G1 X3.5384 Y1.8953
G1 X3.5377 Y1.8976
G1 X3.5366 Y1.8998
G1 X3.5349 Y1.9018
G1 X3.5339 Y1.903
G1 X3.5331 Y1.9046
G1 X3.5319 Y1.9089
G1 X3.5312 Y1.915
G1 X3.531 Y1.9228
G1 X3.5308 Y1.9313
G1 X3.5303 Y1.9375
G1 X3.5295 Y1.9416
G1 X3.5289 Y1.9429
G1 X3.5282 Y1.9437
G1 X3.5273 Y1.9439
G1 X3.5264 Y1.9437
G1 X3.524 Y1.9417
G1 X3.5209 Y1.9378
G1 X3.5172 Y1.932
G1 X3.5105 Y1.9205
G1 X3.5042 Y1.9082
G1 X3.4982 Y1.8956
G1 X3.493 Y1.8831
G1 X3.4885 Y1.8712
G1 X3.4851 Y1.8604
G1 X3.4829 Y1.8512
G1 X3.4823 Y1.8474
G1 X3.4821 Y1.8441
G1 X3.4819 Y1.8419
G1 X3.4813 Y1.8398
G1 X3.4804 Y1.8381
G1 X3.4792 Y1.8369
G1 X3.4786 Y1.8363
G1 X3.4781 Y1.8352
G1 X3.4774 Y1.8317
G1 X3.4773 Y1.8267
G1 X3.4777 Y1.8201
G1 X3.4781 Y1.8147
G1 Y1.8103
G1 X3.4777 Y1.807
G1 X3.477 Y1.8047
G1 X3.4759 Y1.8033
G1 X3.4744 Y1.803
G1 X3.4725 Y1.8037
G1 X3.4702 Y1.8053
G1 X3.4685 Y1.8074
G1 X3.4675 Y1.8102
G1 X3.4672 Y1.814
G1 X3.4676 Y1.819
G1 X3.4703 Y1.841
G1 X3.4732 Y1.861
G1 X3.4736 Y1.865
G1 X3.4733 Y1.8687
G1 X3.4723 Y1.872
G1 X3.4707 Y1.875
G1 X3.4691 Y1.8782
G1 X3.4678 Y1.8826
G1 X3.467 Y1.8877
G1 X3.4667 Y1.8929
G1 X3.4665 Y1.8987
G1 X3.4659 Y1.9023
G1 X3.4654 Y1.9033
G1 X3.4648 Y1.9038
G1 X3.464 Y1.904
G1 X3.4631 Y1.9037
G1 X3.4621 Y1.9036
G1 X3.4612 Y1.9041
G1 X3.4605 Y1.9052
G1 X3.4598 Y1.9071
G1 X3.4587 Y1.9136
G1 X3.4576 Y1.9243
G1 X3.4571 Y1.9336
G1 X3.4568 Y1.9427
G1 X3.457 Y1.9505
G1 X3.4575 Y1.956
G1 X3.4594 Y1.9701
G1 X3.4616 Y1.9902
G1 X3.4641 Y2.0095
G1 X3.4654 Y2.017
G1 X3.4665 Y2.0217
G1 X3.4675 Y2.0254
G1 X3.4676 Y2.0292
G1 X3.4669 Y2.0332
G1 X3.4653 Y2.0377
G1 X3.4638 Y2.0419
G1 X3.4626 Y2.0468
G1 X3.4618 Y2.0518
G1 X3.4615 Y2.0563
G1 X3.4614 Y2.0661
G1 X3.4564 Y2.0548
G1 X3.4541 Y2.0489
G1 X3.4526 Y2.0424
G1 X3.4516 Y2.0352
G1 X3.4513 Y2.0274
G1 X3.451 Y2.0191
G1 X3.4504 Y2.0124
G1 X3.4494 Y2.0074
G1 X3.4481 Y2.0041
G1 X3.4474 Y2.0032
G1 X3.4466 Y2.0027
G1 X3.4457 Y2.0026
G1 X3.4448 Y2.0031
G1 X3.4428 Y2.0055
G1 X3.4408 Y2.01
G1 X3.44 Y2.014
G1 X3.4398 Y2.0196
G1 X3.4401 Y2.0264
G1 X3.4409 Y2.0336
G1 X3.442 Y2.0405
G1 X3.4433 Y2.0465
G1 X3.4448 Y2.051
G1 X3.4456 Y2.0525
G1 X3.4464 Y2.0533
G1 X3.4473 Y2.0543
G1 X3.448 Y2.056
G1 X3.4485 Y2.0581
G1 X3.4487 Y2.0604
G1 X3.4492 Y2.0635
G1 X3.4503 Y2.0677
G1 X3.4519 Y2.0725
G1 X3.4539 Y2.0772
G1 X3.459 Y2.0884
G1 X3.451 Y2.0959
G1 X3.4451 Y2.1012
G1 X3.4421 Y2.1033
G1 X3.4417 Y2.1024
G1 X3.4413 Y2.0998
G1 X3.4405 Y2.0912
G1 X3.4399 Y2.0853
G1 X3.4389 Y2.0814
G1 X3.4382 Y2.0801
G1 X3.4374 Y2.0791
G1 X3.4364 Y2.0785
G1 X3.4352 Y2.0781
G1 X3.4339 Y2.078
G1 X3.4329 Y2.0782
G1 X3.4321 Y2.0788
G1 X3.4315 Y2.08
G1 X3.4309 Y2.0845
G1 Y2.0922
G1 X3.4312 Y2.1022
G1 X3.4317 Y2.111
G1 X3.4325 Y2.1188
G1 X3.4336 Y2.1255
G1 X3.4349 Y2.1311
G1 X3.4365 Y2.1358
G1 X3.4383 Y2.1394
G1 X3.4405 Y2.142
G1 X3.4427 Y2.1445
G1 X3.4445 Y2.1476
G1 X3.4457 Y2.1507
G1 X3.4461 Y2.1536
G1 X3.4469 Y2.1589
G1 X3.449 Y2.1689
G1 X3.4558 Y2.1972
G1 X3.4638 Y2.2276
G1 X3.4673 Y2.24
G1 X3.47 Y2.2487
G1 X3.4719 Y2.2531
G1 X3.4739 Y2.2563
G1 X3.476 Y2.2583
G1 X3.477 Y2.2588
G1 X3.4781 Y2.2589
G1 X3.4794 Y2.2592
G1 X3.4807 Y2.2601
G1 X3.4821 Y2.2617
G1 X3.4836 Y2.2639
G1 X3.487 Y2.2706
G1 X3.4913 Y2.2804
G1 X3.5005 Y2.302
G1 X3.5105 Y2.3237
G1 X3.5177 Y2.3394
G1 X3.5197 Y2.3444
G1 X3.5203 Y2.3464
G1 X3.519 Y2.3466
G1 X3.5163 Y2.3464
G1 X3.508 Y2.3452
G1 X3.4992 Y2.344
G1 X3.4958 Y2.3439
G1 X3.4939 Y2.3441
G1 X3.493 Y2.3432
G1 X3.4914 Y2.3403
G1 X3.4868 Y2.329
G1 X3.4805 Y2.3115
G1 X3.4731 Y2.2893
G1 X3.4658 Y2.2676
G1 X3.4594 Y2.2497
G1 X3.4545 Y2.2374
G1 X3.4528 Y2.2339
G1 X3.4518 Y2.2326
G1 X3.4504 Y2.2325
G1 X3.4495 Y2.2334
G1 X3.4489 Y2.2351
G1 X3.4488 Y2.2377
G1 X3.4492 Y2.241
G1 X3.45 Y2.245
G1 X3.4528 Y2.2551
G1 X3.4544 Y2.2606
G1 X3.4555 Y2.2651
G1 X3.4559 Y2.2684
G1 X3.4557 Y2.2704
G1 X3.4554 Y2.271
G1 X3.455 Y2.2712
G1 X3.4537 Y2.2707
G1 X3.452 Y2.2687
G1 X3.4497 Y2.2652
G1 X3.4459 Y2.2581
G1 X3.4425 Y2.2502
G1 X3.4392 Y2.2414
G1 X3.4362 Y2.2313
G1 X3.4333 Y2.2198
G1 X3.4304 Y2.2064
G1 X3.4244 Y2.1734
G1 X3.4217 Y2.1554
G1 X3.4206 Y2.1424
G1 Y2.1377
G1 X3.421 Y2.1342
G1 X3.4218 Y2.1317
G1 X3.423 Y2.1304
G1 X3.4242 Y2.129
G1 X3.425 Y2.1269
G1 X3.4254 Y2.1243
G1 Y2.1213
G1 X3.4251 Y2.1181
G1 X3.4243 Y2.115
G1 X3.4233 Y2.1121
G1 X3.4218 Y2.1096
G1 X3.4198 Y2.1073
G1 X3.4179 Y2.1062
G1 X3.416 Y2.1063
G1 X3.4135 Y2.1075
G1 X3.4113 Y2.1093
G1 X3.4096 Y2.1119
G1 X3.4082 Y2.1154
G1 X3.4073 Y2.1197
G1 X3.4068 Y2.1249
G1 X3.4067 Y2.1311
G1 X3.407 Y2.1382
G1 X3.4077 Y2.1464
G1 X3.4088 Y2.158
G1 X3.4089 Y2.1618
G1 X3.4086 Y2.1647
G1 X3.4078 Y2.1669
G1 X3.4066 Y2.1688
G1 X3.4024 Y2.1728
G1 X3.3993 Y2.176
G1 X3.3965 Y2.1799
G1 X3.3942 Y2.1841
G1 X3.3928 Y2.1881
G1 X3.3923 Y2.1909
G1 X3.392 Y2.1945
G1 X3.3921 Y2.2036
G1 X3.393 Y2.2145
G1 X3.3946 Y2.2264
G1 X3.3966 Y2.2386
G1 X3.3991 Y2.2504
G1 X3.4018 Y2.2608
G1 X3.4048 Y2.2692
G1 X3.4073 Y2.2763
G1 X3.4101 Y2.286
G1 X3.4139 Y2.2969
G1 X3.4192 Y2.3091
G1 X3.4251 Y2.3204
G1 X3.4281 Y2.3252
G1 X3.4308 Y2.3291
G1 X3.4327 Y2.3323
G1 X3.4346 Y2.3365
G1 X3.4361 Y2.3412
G1 X3.4372 Y2.3458
G1 X3.4403 Y2.3591
G1 X3.4452 Y2.3758
G1 X3.4493 Y2.39
G1 X3.4504 Y2.3948
G1 X3.4506 Y2.3972
G1 X3.4503 Y2.3976
G1 X3.4498 Y2.3977
G1 X3.4481 Y2.3973
G1 X3.4457 Y2.396
G1 X3.443 Y2.3941
G1 X3.4403 Y2.3916
G1 X3.4378 Y2.3883
G1 X3.4356 Y2.3846
G1 X3.4337 Y2.3807
G1 X3.4323 Y2.3767
G1 X3.4314 Y2.3729
G1 X3.4312 Y2.3696
G1 X3.4317 Y2.3669
G1 X3.4318 Y2.3649
G1 X3.4308 Y2.3629
G1 X3.429 Y2.3608
G1 X3.4264 Y2.3589
G1 X3.4232 Y2.3572
G1 X3.4196 Y2.3558
G1 X3.4158 Y2.3548
G1 X3.4119 Y2.3544
G1 X3.4093 Y2.3542
G1 X3.4072 Y2.3539
G1 X3.4055 Y2.3531
G1 X3.4041 Y2.3517
G1 X3.4028 Y2.3497
G1 X3.4014 Y2.3467
G1 X3.3982 Y2.3374
G1 X3.3962 Y2.3302
G1 X3.3941 Y2.321
G1 X3.3903 Y2.3
G1 X3.3877 Y2.2799
G1 X3.3871 Y2.2721
G1 X3.3872 Y2.2667
G1 X3.3876 Y2.2589
G1 X3.3871 Y2.2528
G1 X3.3864 Y2.2505
G1 X3.3856 Y2.2488
G1 X3.3846 Y2.2478
G1 X3.3834 Y2.2474
G1 X3.3821 Y2.2476
G1 X3.3809 Y2.2483
G1 X3.3799 Y2.2494
G1 X3.379 Y2.251
G1 X3.3776 Y2.2551
G1 X3.3767 Y2.2606
G1 X3.3763 Y2.2673
G1 X3.3764 Y2.2748
G1 X3.3769 Y2.2831
G1 X3.3779 Y2.2919
G1 X3.3792 Y2.3011
G1 X3.3809 Y2.3104
G1 X3.3829 Y2.3196
G1 X3.3853 Y2.3286
G1 X3.3879 Y2.3372
G1 X3.3908 Y2.3451
G1 X3.3939 Y2.3521
G1 X3.3973 Y2.3581
G1 X3.4023 Y2.3661
G1 X3.4045 Y2.3708
G1 X3.4046 Y2.3721
G1 X3.4042 Y2.3729
G1 X3.4032 Y2.3733
G1 X3.4016 Y2.3734
G1 X3.3989 Y2.3731
G1 X3.3965 Y2.372
G1 X3.3942 Y2.3703
G1 X3.3922 Y2.3678
G1 X3.3903 Y2.3646
G1 X3.3886 Y2.3606
G1 X3.387 Y2.3558
G1 X3.3856 Y2.3502
G1 X3.3818 Y2.3358
G1 X3.3781 Y2.3246
G1 X3.3761 Y2.3189
G1 X3.3743 Y2.3125
G1 X3.3728 Y2.3056
G1 X3.3716 Y2.2988
G1 X3.3707 Y2.2923
G1 X3.3703 Y2.2864
G1 X3.3704 Y2.2817
G1 X3.371 Y2.2784
G1 X3.3716 Y2.2747
G1 X3.3718 Y2.2687
G1 X3.3716 Y2.2613
G1 X3.371 Y2.2532
G1 X3.3693 Y2.2311
G1 X3.3682 Y2.2052
G1 X3.3671 Y2.1841
G1 X3.3664 Y2.1769
G1 X3.3655 Y2.1734
G1 X3.364 Y2.1715
G1 X3.3624 Y2.1705
G1 X3.3608 Y2.1703
G1 X3.3592 Y2.171
G1 X3.3577 Y2.1725
G1 X3.3562 Y2.1748
G1 X3.3548 Y2.1779
G1 X3.3535 Y2.1818
G1 X3.3518 Y2.1871
G1 X3.3499 Y2.1907
G1 X3.349 Y2.1919
G1 X3.3479 Y2.1927
G1 X3.3468 Y2.1932
G1 X3.3456 Y2.1934
G1 X3.3433 Y2.1939
G1 X3.3424 Y2.1946
G1 X3.3416 Y2.1955
G1 X3.3403 Y2.1985
G1 X3.3393 Y2.203
G1 X3.3375 Y2.2137
G1 X3.3359 Y2.2203
G1 X3.3353 Y2.2221
G1 X3.3347 Y2.223
G1 X3.3341
G1 X3.3336 Y2.2221
G1 X3.3334 Y2.2194
G1 X3.3337 Y2.215
G1 X3.3355 Y2.2031
G1 X3.3381 Y2.1912
G1 X3.3394 Y2.1869
G1 X3.3406 Y2.1844
G1 X3.3419 Y2.1816
G1 X3.3431 Y2.1767
G1 X3.344 Y2.1698
G1 X3.3447 Y2.161
G1 X3.3456 Y2.138
G1 X3.3455 Y2.1085
G1 X3.3451 Y2.0574
G1 Y2.0107
G1 X3.3457 Y1.9692
G1 X3.3467 Y1.9334
G1 X3.3482 Y1.9042
G1 X3.35 Y1.8822
G1 X3.3511 Y1.8741
G1 X3.3523 Y1.868
G1 X3.3536 Y1.8641
G1 X3.3543 Y1.863
G1 X3.355 Y1.8624
G1 X3.3566 Y1.8615
G1 X3.3572 Y1.8603
G1 X3.357 Y1.8585
G1 X3.3559 Y1.856
G1 X3.3551 Y1.8526
G1 X3.3547 Y1.8466
G1 Y1.8303
G1 X3.3557 Y1.814
G1 X3.3566 Y1.808
G1 X3.3576 Y1.8047
G1 X3.3578 Y1.8034
G1 X3.3576 Y1.8013
G1 X3.3561 Y1.7959
G1 X3.355 Y1.7925
G1 X3.3547 Y1.7897
G1 X3.3552 Y1.7874
G1 X3.3564 Y1.7853
G1 X3.3576 Y1.7827
G1 X3.3583 Y1.7785
G1 X3.3584 Y1.7727
G1 X3.3581 Y1.7657
G1 X3.3577 Y1.7581
G1 X3.3579 Y1.7525
G1 X3.3587 Y1.7487
G1 X3.3594 Y1.7474
G1 X3.3603 Y1.7463
G1 X3.3617 Y1.744
G1 X3.3628 Y1.7402
G1 X3.3636 Y1.7352
G1 X3.3638 Y1.7294
G1 X3.3641 Y1.7235
G1 X3.3649 Y1.7176
G1 X3.3661 Y1.7123
G1 X3.3675 Y1.7083
G1 X3.369 Y1.704
G1 X3.3703 Y1.6977
G1 X3.3712 Y1.6904
G1 X3.3717 Y1.6828
G1 X3.3727 Y1.6672
G1 X3.3746 Y1.6523
G1 X3.3758 Y1.6458
G1 X3.377 Y1.6404
G1 X3.3783 Y1.6364
G1 X3.3796 Y1.6341
G1 X3.3805 Y1.6327
G1 X3.3812 Y1.6309
G1 X3.3816 Y1.6288
G1 X3.3818 Y1.6267
G1 X3.3821 Y1.6242
G1 X3.3829 Y1.6209
G1 X3.3854 Y1.6138
G1 X3.3887 Y1.6054
G1 X3.3911 Y1.5962
G1 X3.3928 Y1.5844
G1 X3.3944 Y1.5684
G1 X3.3958 Y1.5553
G1 X3.3978 Y1.5443
G1 X3.4009 Y1.5329
G1 X3.4056 Y1.5189
G1 X3.4067 Y1.5164
G1 X3.4079 Y1.5146
G1 X3.4091 Y1.5136
G1 X3.4102 Y1.5134
G1 X3.4112 Y1.5139
G1 X3.412 Y1.5151
G1 X3.4125 Y1.5171
G1 X3.4127 Y1.5197
G1 X3.413 Y1.5224
G1 X3.4138 Y1.5261
G1 X3.4166 Y1.5342
G1 X3.4188 Y1.539
G1 X3.4205 Y1.5413
G1 X3.4213 Y1.5416
G1 X3.4221 Y1.5415
G1 X3.4241 Y1.5399
G1 X3.4251 Y1.5387
G1 X3.4258 Y1.5372
G1 X3.4262 Y1.5353
G1 X3.4263 Y1.5328
G1 X3.4258 Y1.5254
G1 X3.4242 Y1.5139
G1 X3.4229 Y1.5036
G1 X3.4223 Y1.4947
G1 X3.4224 Y1.4874
G1 X3.4231 Y1.4817
G1 X3.4248 Y1.4718
G1 X3.4255 Y1.4617
G1 X3.4257 Y1.4574
G1 X3.4262 Y1.4548
G1 X3.427 Y1.4537
G1 X3.4275 Y1.4538
G1 X3.428 Y1.4542
G1 X3.429 Y1.4561
G1 X3.43 Y1.4593
G1 X3.431 Y1.4638
G1 X3.4318 Y1.4693
G1 X3.4351 Y1.4931
G1 X3.4392 Y1.5155
G1 X3.4413 Y1.5251
G1 X3.4433 Y1.533
G1 X3.4452 Y1.5388
G1 X3.4468 Y1.542
G1 X3.4484 Y1.5438
G1 X3.4499 Y1.5449
G1 X3.4512 Y1.5452
G1 X3.4522 Y1.5447
G1 X3.453 Y1.5435
G1 X3.4534 Y1.5417
G1 X3.4535 Y1.5392
G1 X3.4533 Y1.536
G1 X3.4528 Y1.5309
G1 X3.453 Y1.5288
G1 X3.4534
G1 X3.4541 Y1.5294
G1 X3.4564 Y1.5323
G1 X3.4577 Y1.5338
G1 X3.4587 Y1.5344
G1 X3.4592 Y1.5343
G1 X3.4596 Y1.5338
G1 X3.4603 Y1.5317
G1 X3.4618 Y1.5217
G1 X3.4638 Y1.5022
G1 X3.4653 Y1.4883
G1 X3.467 Y1.4767
G1 X3.4685 Y1.4686
G1 X3.4692 Y1.4662
G1 X3.4698 Y1.4651
G1 X3.4708 Y1.4639
G1 X3.4713 Y1.462
G1 X3.4711 Y1.4593
G1 X3.4704 Y1.4561
G1 X3.4696 Y1.4522
G1 X3.4689 Y1.4471
G1 X3.4681 Y1.4359
G1 X3.4678 Y1.4308
G1 X3.467 Y1.4268
G1 X3.4658 Y1.4241
G1 X3.4644 Y1.4228
G1 X3.4637 Y1.4226
G1 X3.4629 Y1.4228
G1 X3.4614 Y1.4242
G1 X3.46 Y1.4271
G1 X3.4587 Y1.4315
G1 X3.4571 Y1.4382
G1 X3.4561 Y1.4401
G1 X3.455 Y1.4411
G1 X3.4536 Y1.4412
G1 X3.4517 Y1.4405
G1 X3.4463 Y1.4369
G1 X3.444 Y1.435
G1 X3.442 Y1.4329
G1 X3.4405 Y1.4307
G1 X3.4394 Y1.4285
G1 X3.4386 Y1.4263
G1 X3.4382 Y1.4242
G1 Y1.4221
G1 X3.4386 Y1.42
G1 X3.4393 Y1.4182
G1 X3.4403 Y1.4164
G1 X3.4416 Y1.4149
G1 X3.4433 Y1.4137
G1 X3.4453 Y1.4127
G1 X3.4476 Y1.412
G1 X3.4502 Y1.4116
G1 X3.453 Y1.4117
G1 X3.4608 Y1.412
G1 X3.4658 Y1.4115
G1 X3.4674 Y1.4109
G1 X3.4685 Y1.41
G1 X3.4691 Y1.4088
G1 X3.4693 Y1.4074
G1 X3.4691 Y1.4065
G1 X3.4685 Y1.4055
G1 X3.4663 Y1.4033
G1 X3.463 Y1.4012
G1 X3.4588 Y1.3992
G1 X3.455 Y1.3977
G1 X3.4522 Y1.3964
G1 X3.4505 Y1.3948
G1 X3.4497 Y1.3926
G1 X3.4498 Y1.3895
G1 X3.4507 Y1.385
G1 X3.455 Y1.3703
G1 X3.4592 Y1.3552
G1 X3.4632 Y1.3399
G1 X3.4666 Y1.3257
G1 X3.4691 Y1.3137
G1 X3.4721 Y1.2986
G1 X3.4749 Y1.2863
G1 X3.4773 Y1.2784
G1 X3.4781 Y1.2764
G1 X3.4785 Y1.276
G1 X3.4788 Y1.2761
G1 X3.4791 Y1.2797
G1 Y1.2887
G1 X3.4782 Y1.3174
G1 X3.477 Y1.3402
G1 X3.4764 Y1.3473
G1 X3.4758 Y1.3522
G1 X3.4749 Y1.3551
G1 X3.4738 Y1.3567
G1 X3.4724 Y1.3573
G1 X3.4705 Y1.3575
G1 X3.4682 Y1.3577
G1 X3.4663 Y1.3582
G1 X3.4648 Y1.3592
G1 X3.4638 Y1.3605
G1 X3.4632 Y1.3621
G1 X3.463 Y1.3641
G1 X3.4634 Y1.3664
G1 X3.4641 Y1.369
G1 X3.4648 Y1.3702
G1 X3.4659 Y1.3714
G1 X3.469 Y1.3738
G1 X3.4732 Y1.3759
G1 X3.4778 Y1.3777
G1 X3.4826 Y1.3791
G1 X3.487 Y1.3797
G1 X3.4905 Y1.3796
G1 X3.4919 Y1.3793
G1 X3.4929 Y1.3786
G1 X3.494 Y1.3758
G1 X3.4951 Y1.37
G1 X3.4961 Y1.3622
G1 X3.4968 Y1.3532
G1 X3.498 Y1.3369
G1 X3.4989 Y1.3296
G1 X3.4998
G1 X3.5018 Y1.3302
G1 X3.5077 Y1.3329
G1 X3.5131 Y1.3351
G1 X3.5153 Y1.3356
G1 X3.5172
G1 X3.5187 Y1.3352
G1 X3.5198 Y1.3344
G1 X3.5205 Y1.3331
G1 X3.5207 Y1.3315
G1 X3.5201 Y1.3295
G1 X3.5184 Y1.3272
G1 X3.516 Y1.3248
G1 X3.513 Y1.3223
G1 X3.5097 Y1.32
G1 X3.5064 Y1.3181
G1 X3.5034 Y1.3169
G1 X3.5008 Y1.3164
G1 X3.4977 Y1.316
G1 X3.4967 Y1.3154
G1 X3.496 Y1.3145
G1 X3.4955 Y1.3131
G1 X3.4952 Y1.3112
G1 X3.495 Y1.3055
G1 X3.4959 Y1.2896
G1 X3.4981 Y1.2668
G1 X3.4995 Y1.253
G1 X3.4999 Y1.2436
G1 X3.4995 Y1.2376
G1 X3.4989 Y1.2355
G1 X3.4981 Y1.2339
G1 X3.4958 Y1.2299
G1 X3.4952 Y1.2278
G1 X3.4955 Y1.2273
G1 X3.4963 Y1.2272
G1 X3.4991 Y1.228
G1 X3.5012 Y1.2285
G1 X3.5018 Y1.2284
G1 X3.5022 Y1.2279
G1 X3.5023 Y1.2259
G1 X3.5017 Y1.2222
G1 X3.5014 Y1.2185
G1 X3.5018 Y1.2133
G1 X3.5026 Y1.2072
G1 X3.5038 Y1.2007
G1 X3.5053 Y1.1943
G1 X3.507 Y1.1887
G1 X3.5086 Y1.1843
G1 X3.5102 Y1.1817
G1 X3.5107 Y1.1816
G1 X3.511 Y1.182
G1 X3.5115 Y1.1842
G1 X3.5116 Y1.1881
G1 X3.5114 Y1.1933
G1 X3.5102 Y1.2129
G1 X3.5104 Y1.2153
G1 X3.5112 Y1.2179
G1 X3.5124 Y1.2206
G1 X3.514 Y1.2231
G1 X3.5157 Y1.2254
G1 X3.5176 Y1.2272
G1 X3.5195 Y1.2284
G1 X3.5212 Y1.2288
G1 X3.5217 Y1.2286
G1 X3.5221 Y1.2277
G1 X3.5226 Y1.2247
G1 X3.5227 Y1.2201
G1 X3.5225 Y1.2146
G1 X3.5221 Y1.2071
G1 X3.5222 Y1.2022
G1 X3.5227 Y1.1997
G1 X3.523 Y1.1994
G1 X3.5234 Y1.1996
G1 X3.5244 Y1.2018
G1 X3.5254 Y1.2061
G1 X3.5264 Y1.2124
G1 X3.5273 Y1.2205
G1 X3.5296 Y1.2443
G1 X3.5319 Y1.2552
G1 X3.5328 Y1.259
G1 X3.5341 Y1.262
G1 X3.5354 Y1.2641
G1 X3.536 Y1.2647
G1 X3.5366 Y1.2649
G1 X3.5374 Y1.2643
G1 X3.538 Y1.2626
G1 X3.5386 Y1.2565
G1 X3.5385 Y1.2477
G1 X3.5378 Y1.2372
G1 X3.5366 Y1.2261
G1 X3.535 Y1.2153
G1 X3.5331 Y1.2061
G1 X3.531 Y1.1993
G1 X3.5292 Y1.1946
G1 X3.5281 Y1.1903
G1 X3.5275 Y1.1866
G1 Y1.1836
G1 X3.528 Y1.1817
G1 X3.5284 Y1.1811
G1 X3.529 Y1.1809
G1 X3.5297 Y1.181
G1 X3.5305 Y1.1815
G1 X3.5325 Y1.1837
G1 X3.534 Y1.1853
G1 X3.5355 Y1.1863
G1 X3.5371 Y1.1866
G1 X3.5385 Y1.1864
G1 X3.5397 Y1.1856
G1 X3.5405 Y1.1843
G1 X3.541 Y1.1826
G1 Y1.1804
G1 X3.5412 Y1.1745
G1 X3.5424 Y1.1665
G1 X3.5432 Y1.1621
G1 X3.5435 Y1.1583
G1 X3.5434 Y1.1552
G1 X3.5429 Y1.1528
G1 X3.542 Y1.1511
G1 X3.5408 Y1.1504
G1 X3.5393 Y1.1505
G1 X3.5374 Y1.1517
G1 X3.5359 Y1.1535
G1 X3.535 Y1.1558
G1 X3.5348 Y1.1585
G1 X3.5352 Y1.1616
G1 X3.5357 Y1.1642
G1 X3.5358 Y1.1659
G1 X3.5354 Y1.1666
G1 X3.5346 Y1.1663
G1 X3.533 Y1.1639
G1 X3.5323 Y1.1613
G1 X3.532 Y1.1602
G1 X3.5313 Y1.1591
G1 X3.5303 Y1.1581
G1 X3.5291 Y1.1575
G1 X3.5278 Y1.1574
G1 X3.5268 Y1.1582
G1 X3.5261 Y1.1596
G1 X3.5259 Y1.1616
G1 X3.5257 Y1.1638
G1 X3.5251 Y1.1657
G1 X3.5243 Y1.1674
G1 X3.5233 Y1.1684
G1 X3.5223 Y1.1694
G1 X3.5215 Y1.171
G1 X3.5209 Y1.1729
G1 X3.5207 Y1.175
G1 X3.5205 Y1.1769
G1 X3.5199 Y1.1785
G1 X3.5191 Y1.1796
G1 X3.5181 Y1.18
G1 X3.5174 Y1.1798
G1 X3.5168 Y1.1794
G1 X3.516 Y1.1777
G1 X3.5156 Y1.1751
G1 X3.5158 Y1.1718
G1 X3.5163 Y1.168
G1 X3.5174 Y1.1639
G1 X3.5188 Y1.1598
G1 X3.5206 Y1.1557
G1 X3.5224 Y1.1516
G1 X3.5237 Y1.1479
G1 X3.5242 Y1.1448
G1 X3.5239 Y1.1429
G1 X3.5226 Y1.1406
G1 X3.5219 Y1.1388
G1 X3.5209 Y1.1346
G1 X3.5191 Y1.1304
G1 X3.5172 Y1.1272
G1 X3.5162 Y1.1263
G1 X3.5154 Y1.126
G1 X3.5144 Y1.1261
G1 X3.5137 Y1.1265
G1 X3.5133 Y1.1271
G1 X3.5131 Y1.1279
G1 X3.5137 Y1.1303
G1 X3.5154 Y1.1335
G1 X3.5159 Y1.1351
G1 X3.5158 Y1.1373
G1 X3.5149 Y1.1399
G1 X3.5133 Y1.1431
G1 X3.511 Y1.1467
G1 X3.508 Y1.1509
G1 X3.4998 Y1.1607
G1 X3.497 Y1.1641
G1 X3.4945 Y1.1676
G1 X3.4926 Y1.1709
G1 X3.4915 Y1.1736
G1 X3.4909 Y1.1749
G1 X3.4915 Y1.171
G1 X3.4927 Y1.1624
G1 X3.4931 Y1.153
G1 X3.4926 Y1.141
G1 X3.4912 Y1.1247
G1 X3.4902 Y1.1116
G1 X3.4896 Y1.0977
G1 X3.4894 Y1.0837
G1 X3.4896 Y1.0699
G1 X3.4901 Y1.057
G1 X3.491 Y1.0455
G1 X3.4923 Y1.036
G1 X3.4938 Y1.0289
G1 X3.4943 Y1.0264
G1 Y1.0238
G1 X3.4939 Y1.0216
G1 X3.493 Y1.0199
G1 X3.4925 Y1.0187
G1 X3.4921 Y1.0168
G1 X3.4917 Y1.0108
G1 X3.4918 Y1.0021
G1 X3.4925 Y0.9909
G1 X3.4937 Y0.9688
G1 X3.4939 Y0.9589
G1 X3.4938 Y0.9517
G1 X3.4937 Y0.945
G1 X3.4942 Y0.9398
G1 X3.4955 Y0.9357
G1 X3.4976 Y0.9323
G1 X3.4999 Y0.9288
G1 X3.5006 Y0.9272
G1 X3.5009 Y0.9255
G1 X3.5005 Y0.9212
G1 X3.499 Y0.915
G1 X3.4962 Y0.9054
G1 X3.4937 Y0.8987
G1 X3.4934 Y0.8969
G1 X3.4932 Y0.8938
G1 X3.4935 Y0.8841
G1 X3.4946 Y0.8707
G1 X3.4962 Y0.8547
G1 X3.4981 Y0.8362
G1 X3.4993 Y0.8199
G1 X3.4996 Y0.8057
G1 X3.4992 Y0.7939
G1 X3.4974 Y0.7628
G1 X3.4969 Y0.7499
G1 X3.4968 Y0.7388
G1 X3.4971 Y0.7296
G1 X3.4977 Y0.7225
G1 X3.4986 Y0.7176
G1 X3.4992 Y0.716
G1 X3.4999 Y0.715
G1 X3.5009 Y0.7136
G1 X3.5017 Y0.7116
G1 X3.5021 Y0.7085
G1 X3.5023 Y0.7041
G1 X3.5018 Y0.6902
G1 X3.5002 Y0.6672
G1 X3.4985 Y0.6486
G1 X3.4964 Y0.6307
G1 X3.4941 Y0.6156
G1 X3.492 Y0.6051
G1 X3.4866 Y0.583
G1 X3.4806 Y0.555
G1 X3.4771 Y0.539
G1 X3.4735 Y0.524
G1 X3.4697 Y0.5104
G1 X3.4659 Y0.4981
G1 X3.462 Y0.4874
G1 X3.4581 Y0.4783
G1 X3.4543 Y0.4712
G1 X3.4506 Y0.466
G1 X3.4483 Y0.463
G1 X3.4474 Y0.4609
G1 X3.4475 Y0.4601
G1 X3.4479 Y0.4592
G1 X3.4499 Y0.4573
G1 X3.4517 Y0.4554
G1 X3.4529 Y0.4531
G1 X3.4535 Y0.4506
G1 X3.4536 Y0.448
G1 X3.4532 Y0.4453
G1 X3.4522 Y0.4427
G1 X3.4507 Y0.4402
G1 X3.4487 Y0.4379
G1 X3.4467 Y0.4359
G1 X3.4451 Y0.4336
G1 X3.444 Y0.4315
G1 X3.4435 Y0.4298
G1 X3.4437 Y0.4279
G1 X3.4442 Y0.4268
G1 X3.445 Y0.4265
G1 X3.4461 Y0.4269
G1 X3.4474 Y0.428
G1 X3.4489 Y0.4299
G1 X3.4525 Y0.4358
G1 X3.4553 Y0.4402
G1 X3.4583 Y0.4442
G1 X3.4615 Y0.4476
G1 X3.4647 Y0.4504
G1 X3.4677 Y0.4524
G1 X3.4705 Y0.4535
G1 X3.473 Y0.4537
G1 X3.474 Y0.4533
G1 X3.4748 Y0.4527
G1 X3.4755 Y0.4518
G1 X3.4759 Y0.4506
G1 Y0.4472
G1 X3.4747 Y0.4423
G1 X3.4722 Y0.4352
G1 X3.4685 Y0.4254
G1 X3.4671 Y0.4205
G1 X3.4672 Y0.4194
G1 X3.4678 Y0.4188
G1 X3.4705 Y0.4187
G1 X3.4725 Y0.4195
G1 X3.4752 Y0.4218
G1 X3.4782 Y0.4253
G1 X3.4812 Y0.4295
G1 X3.4871 Y0.4382
G1 X3.4915 Y0.4438
G1 X3.494 Y0.4471
G1 X3.4947 Y0.4487
G1 X3.495 Y0.45
G1 X3.4952 Y0.4509
G1 X3.496 Y0.4511
G1 X3.4972 Y0.4507
G1 X3.4988 Y0.4495
G1 X3.5016 Y0.4467
G1 X3.5023 Y0.4453
G1 X3.5025 Y0.444
G1 X3.5022 Y0.4425
G1 X3.5014 Y0.4408
G1 X3.4984 Y0.4368
G1 X3.4965 Y0.4341
G1 X3.4944 Y0.4302
G1 X3.4899 Y0.4205
G1 X3.4862 Y0.4106
G1 X3.4851 Y0.4067
G1 X3.4847 Y0.4039
G1 X3.4849 Y0.4026
G1 X3.4855 Y0.4016
G1 X3.4863 Y0.4009
G1 X3.4873 Y0.4006
G1 X3.4883 Y0.4009
G1 X3.4891 Y0.4015
G1 X3.4896 Y0.4024
G1 X3.4898 Y0.4035
G0 Z1.5
G0 X3.537 Y0.373
G1 F30.0 Z0.0
G1 F300.0 X3.536 Y0.3816
G1 X3.5354 Y0.3848
G1 X3.5345 Y0.3875
G1 X3.5334 Y0.3898
G1 X3.5319 Y0.3919
G1 X3.5277 Y0.3961
G1 X3.5238 Y0.3993
G1 X3.5208 Y0.401
G1 X3.5195 Y0.4013
G1 X3.5184 Y0.4012
G1 X3.5164 Y0.4003
G1 X3.5147 Y0.3986
G1 X3.5136 Y0.3968
G1 X3.5131 Y0.395
G1 X3.5133 Y0.3933
G1 X3.514 Y0.3917
G1 X3.5154 Y0.3902
G1 X3.5172 Y0.3888
G1 X3.5197 Y0.3877
G1 X3.5232 Y0.386
G1 X3.5243 Y0.3852
G1 X3.525 Y0.3841
G1 X3.5254 Y0.3828
G1 Y0.3811
G1 X3.5248 Y0.3764
G1 X3.5242 Y0.3717
G1 X3.5243 Y0.3699
G1 X3.5247 Y0.3683
G1 X3.5255 Y0.3669
G1 X3.5266 Y0.3655
G1 X3.5303 Y0.3624
G1 X3.5378 Y0.357
G1 X3.5377 Y0.3617
G1 X3.537 Y0.373
G0 Z1.5
G0 X3.5555 Y0.393
G1 F30.0 Z0.0
G1 F300.0 X3.5562 Y0.3948
G1 X3.5569 Y0.398
G1 X3.5582 Y0.4065
G1 X3.5599 Y0.4239
G1 X3.5606 Y0.4346
G1 Y0.4378
G1 X3.5603 Y0.4397
G1 X3.5598 Y0.4405
G1 X3.5591 Y0.4404
G1 X3.5582 Y0.4392
G1 X3.5574 Y0.4368
G1 X3.5569 Y0.4338
G1 X3.5567 Y0.4304
G1 X3.5564 Y0.4264
G1 X3.5554 Y0.423
G1 X3.5537 Y0.4203
G1 X3.5512 Y0.4182
G1 X3.5484 Y0.4159
G1 X3.5475 Y0.4146
G1 X3.5469 Y0.4131
G1 X3.5467 Y0.4089
G1 X3.5475 Y0.4024
G1 X3.549 Y0.3953
G1 X3.5499 Y0.3929
G1 X3.5509 Y0.3913
G1 X3.5519 Y0.3905
G1 X3.553
G1 X3.5542 Y0.3913
G1 X3.5555 Y0.393
G0 Z1.5
G0 X3.5619 Y0.465
G1 F30.0 Z0.0
G1 F300.0 X3.5616 Y0.4697
G1 X3.561 Y0.4729
G1 X3.5598 Y0.4747
G1 X3.559 Y0.4751
G1 X3.558 Y0.4752
G1 X3.5565 Y0.4748
G1 X3.5553 Y0.4738
G1 X3.5545 Y0.4722
G1 X3.5541 Y0.4702
G1 X3.5539 Y0.4681
G1 X3.5531 Y0.4661
G1 X3.5521 Y0.4643
G1 X3.5507 Y0.4631
G1 X3.5492 Y0.4619
G1 X3.5478 Y0.4603
G1 X3.5457 Y0.4564
G1 X3.545 Y0.4544
G1 X3.5447 Y0.4524
G1 X3.5448 Y0.4507
G1 X3.5453 Y0.4493
G1 X3.5464 Y0.4487
G1 X3.5485 Y0.4488
G1 X3.5512 Y0.4495
G1 X3.5543 Y0.4509
G1 X3.5582 Y0.4533
G1 X3.5595 Y0.4545
G1 X3.5605 Y0.4559
G1 X3.5612 Y0.4576
G1 X3.5616 Y0.4596
G1 X3.5619 Y0.465
G0 Z1.5
G0 X3.5194 Y0.4834
G1 F30.0 Z0.0
G1 F300.0 X3.5192 Y0.4863
G1 X3.5199 Y0.4908
G1 X3.5215 Y0.4962
G1 X3.5236 Y0.5023
G1 X3.5263 Y0.5086
G1 X3.5291 Y0.5145
G1 X3.5321 Y0.5197
G1 X3.535 Y0.5236
G1 X3.5378 Y0.5265
G1 X3.5397 Y0.5278
G1 X3.5404 Y0.5279
G1 X3.5408 Y0.5277
G1 X3.541 Y0.526
G1 X3.5404 Y0.5227
G1 X3.5389 Y0.5179
G1 X3.5333 Y0.5035
G1 X3.5276 Y0.4903
G1 X3.5255 Y0.4861
G1 X3.5237 Y0.4831
G1 X3.5223 Y0.4815
G1 X3.5212 Y0.4811
G1 X3.5202 Y0.4818
G1 X3.5194 Y0.4834
G0 Z1.5
G0 X3.4718 Y0.5019
G1 F30.0 Z0.0
G1 F300.0 X3.4724 Y0.5054
G1 X3.4739 Y0.5106
G1 X3.4787 Y0.524
G1 X3.4844 Y0.5372
G1 X3.4869 Y0.5421
G1 X3.489 Y0.5452
G1 X3.491 Y0.5483
G1 X3.4925 Y0.5525
G1 X3.4935 Y0.558
G1 X3.4939 Y0.5648
G1 X3.4948 Y0.5731
G1 X3.497 Y0.584
G1 X3.5005 Y0.5969
G1 X3.505 Y0.6116
G1 X3.518 Y0.6511
G1 X3.5263 Y0.6773
G1 X3.5306 Y0.6923
G1 X3.5314 Y0.6963
G1 X3.5315 Y0.6984
G1 X3.5316 Y0.7012
G1 X3.5324 Y0.7062
G1 X3.5358 Y0.7203
G1 X3.5402 Y0.7376
G1 X3.5436 Y0.753
G1 X3.5474 Y0.7699
G1 X3.5527 Y0.7903
G1 X3.5584 Y0.8101
G1 X3.5632 Y0.825
G1 X3.5647 Y0.83
G1 X3.5658 Y0.8352
G1 X3.5662 Y0.8398
G1 X3.566 Y0.8434
G1 X3.5657 Y0.8465
G1 X3.566 Y0.8491
G1 X3.5667 Y0.8514
G1 X3.5679 Y0.8531
G1 X3.5693 Y0.8542
G1 X3.5709 Y0.8545
G1 X3.5727 Y0.854
G1 X3.5744 Y0.8525
G1 X3.5758 Y0.8504
G1 X3.5767 Y0.8479
G1 X3.5773 Y0.8443
G1 X3.5774 Y0.8393
G1 X3.5763 Y0.8234
G1 X3.5734 Y0.7967
G1 X3.5709 Y0.7741
G1 X3.5703 Y0.7666
G1 X3.5701 Y0.761
G1 X3.5703 Y0.7568
G1 X3.5709 Y0.7534
G1 X3.5733 Y0.7471
G1 X3.5755 Y0.7418
G1 X3.5766 Y0.7365
G1 X3.5767 Y0.7304
G1 X3.576 Y0.7228
G1 X3.574 Y0.711
G1 X3.5729 Y0.7064
G1 X3.5718 Y0.7035
G1 X3.5709 Y0.7012
G1 X3.5705 Y0.6992
G1 X3.5706 Y0.6974
G1 X3.5711 Y0.696
G1 X3.5719 Y0.6952
G1 X3.5728 Y0.695
G1 X3.574 Y0.6957
G1 X3.5752 Y0.6974
G1 X3.5772 Y0.7002
G1 X3.5791 Y0.7015
G1 X3.5799
G1 X3.5807 Y0.7013
G1 X3.582 Y0.6998
G1 X3.5829 Y0.6973
G1 X3.5832 Y0.6939
G1 X3.5829 Y0.6897
G1 X3.582 Y0.6849
G1 X3.5801 Y0.6746
G1 X3.5786 Y0.6605
G1 X3.577 Y0.6426
G1 X3.5751 Y0.63
G1 X3.574 Y0.6254
G1 X3.5728 Y0.6217
G1 X3.5714 Y0.619
G1 X3.5699 Y0.617
G1 X3.5682 Y0.6145
G1 X3.5669 Y0.611
G1 X3.5659 Y0.6068
G1 X3.5654 Y0.6025
G1 X3.565 Y0.5964
G1 X3.564 Y0.5882
G1 X3.5608 Y0.5683
G1 X3.5572 Y0.5493
G1 X3.5555 Y0.5422
G1 X3.5541 Y0.5376
G1 X3.5523 Y0.5339
G1 X3.5507 Y0.5319
G1 X3.55 Y0.5314
G1 X3.5494
G1 X3.5488 Y0.5317
G1 X3.5483 Y0.5324
G1 X3.5475 Y0.5349
G1 X3.5471 Y0.5387
G1 X3.5469 Y0.544
G1 X3.5472 Y0.5505
G1 X3.5487 Y0.5663
G1 X3.5511 Y0.5804
G1 X3.5527 Y0.587
G1 X3.5545 Y0.5933
G1 X3.5566 Y0.5993
G1 X3.559 Y0.605
G1 X3.5608 Y0.6097
G1 X3.5619 Y0.6137
G1 X3.5622 Y0.6167
G1 X3.562 Y0.6178
G1 X3.5617 Y0.6184
G1 X3.561 Y0.6201
G1 X3.5608 Y0.623
G1 X3.5613 Y0.6267
G1 X3.5622 Y0.6309
G1 X3.5634 Y0.6372
G1 X3.5637 Y0.6453
G1 X3.5633 Y0.6561
G1 X3.562 Y0.6702
G1 X3.5606 Y0.6851
G1 X3.5602 Y0.696
G1 X3.5607 Y0.7045
G1 X3.5622 Y0.7122
G1 X3.5637 Y0.7187
G1 X3.5642 Y0.7234
G1 X3.5637 Y0.727
G1 X3.5624 Y0.73
G1 X3.5611 Y0.7328
G1 X3.56 Y0.7365
G1 X3.5593 Y0.7408
G1 X3.5589 Y0.7452
G1 X3.5586 Y0.749
G1 X3.5581 Y0.7517
G1 X3.5574 Y0.7533
G1 X3.5566 Y0.7539
G1 X3.5558 Y0.7534
G1 X3.5548 Y0.7518
G1 X3.5538 Y0.7492
G1 X3.5529 Y0.7455
G1 X3.5525 Y0.7421
G1 X3.5526 Y0.7387
G1 X3.5533 Y0.7355
G1 X3.5545 Y0.7329
G1 X3.5555 Y0.7304
G1 X3.556 Y0.7274
G1 X3.5558 Y0.7237
G1 X3.5549 Y0.7192
G1 X3.5532 Y0.7137
G1 X3.5508 Y0.7071
G1 X3.5435 Y0.6899
G1 X3.541 Y0.6838
G1 X3.5385 Y0.6768
G1 X3.5338 Y0.6607
G1 X3.5295 Y0.6424
G1 X3.5259 Y0.6227
G1 X3.5248 Y0.6169
G1 X3.5233 Y0.6111
G1 X3.5216 Y0.6059
G1 X3.52 Y0.6021
G1 X3.5182 Y0.5982
G1 X3.5163 Y0.5928
G1 X3.5129 Y0.5808
G1 X3.5112 Y0.5744
G1 X3.5088 Y0.5673
G1 X3.5062 Y0.5605
G1 X3.5036 Y0.5547
G1 X3.4993 Y0.5454
G1 X3.498 Y0.5421
G1 X3.4976 Y0.5401
G1 X3.4973 Y0.5389
G1 X3.4965 Y0.5374
G1 X3.4938 Y0.5345
G1 X3.4921 Y0.5323
G1 X3.4899 Y0.5284
G1 X3.4878 Y0.5235
G1 X3.4858 Y0.5181
G1 X3.4826 Y0.5091
G1 X3.4796 Y0.503
G1 X3.4782 Y0.5009
G1 X3.4769 Y0.4995
G1 X3.4755 Y0.4987
G1 X3.4741 Y0.4984
G1 X3.4732 Y0.4987
G1 X3.4725 Y0.4994
G1 X3.472 Y0.5005
G1 X3.4718 Y0.5019
G0 Z1.5
G0 X3.3792 Y0.5742
G1 F30.0 Z0.0
G1 F300.0 X3.379 Y0.5756
G1 X3.3782 Y0.5765
G1 X3.377 Y0.5768
G1 X3.3754 Y0.5765
G1 X3.374 Y0.5757
G1 X3.3731 Y0.5748
G1 X3.3727 Y0.5737
G1 X3.373 Y0.5727
G1 X3.3739 Y0.5716
G1 X3.3749 Y0.5708
G1 X3.376 Y0.5705
G1 X3.377
G1 X3.3779 Y0.5709
G1 X3.3786 Y0.5717
G1 X3.3791 Y0.5728
G1 X3.3792 Y0.5742
G0 Z1.5
G0 X3.3669 Y0.5722
G1 F30.0 Z0.0
G1 F300.0 X3.364 Y0.5727
G1 X3.3628 Y0.5724
G1 X3.3619 Y0.572
G1 X3.3617 Y0.5714
G1 X3.3623 Y0.5709
G1 X3.3653 Y0.5706
G1 X3.3671 Y0.5708
G1 X3.368 Y0.5711
G1 X3.3679 Y0.5716
G1 X3.3669 Y0.5722
G0 Z1.5
G0 X3.3497 Y0.5642
G1 F30.0 Z0.0
G1 F300.0 X3.3574 Y0.5659
G1 X3.3499 Y0.568
G1 X3.347 Y0.5686
G1 X3.3441 Y0.5687
G1 X3.3413 Y0.5685
G1 X3.3386 Y0.5679
G1 X3.3364 Y0.567
G1 X3.3346 Y0.5658
G1 X3.3334 Y0.5644
G1 X3.333 Y0.5628
G1 X3.3331 Y0.5621
G1 X3.3335 Y0.5616
G1 X3.3344 Y0.5614
G1 X3.3358
G1 X3.3408 Y0.5622
G1 X3.3497 Y0.5642
G0 Z1.5
G0 X3.3581 Y0.5442
G1 F30.0 Z0.0
G1 F300.0 X3.3606 Y0.5454
G1 X3.363 Y0.546
G1 X3.3651 Y0.5462
G1 X3.3666 Y0.5458
G1 X3.3694 Y0.5456
G1 X3.375 Y0.546
G1 X3.391 Y0.5485
G1 X3.4078 Y0.5521
G1 X3.4143 Y0.5538
G1 X3.4185 Y0.5554
G1 X3.4201 Y0.5565
G1 X3.4214 Y0.558
G1 X3.4223 Y0.5596
G1 X3.4228 Y0.5612
G1 X3.4229 Y0.5628
G1 X3.4226 Y0.5641
G1 X3.4217 Y0.5649
G1 X3.4204 Y0.5652
G1 X3.4194 Y0.565
G1 X3.4186 Y0.5645
G1 X3.418 Y0.5637
G1 X3.4178 Y0.5627
G1 X3.4175 Y0.5617
G1 X3.4167 Y0.5609
G1 X3.4155 Y0.5603
G1 X3.414 Y0.5601
G1 X3.4125 Y0.5603
G1 X3.4112 Y0.5609
G1 X3.4104 Y0.5617
G1 X3.4101 Y0.5627
G1 X3.4097 Y0.5637
G1 X3.4086 Y0.5645
G1 X3.4071 Y0.565
G1 X3.4051 Y0.5652
G1 X3.4031 Y0.565
G1 X3.4011 Y0.5645
G1 X3.3995 Y0.5637
G1 X3.3985 Y0.5627
G1 X3.3975 Y0.5617
G1 X3.3958 Y0.5609
G1 X3.3936 Y0.5603
G1 X3.3913 Y0.5601
G1 X3.3882 Y0.5597
G1 X3.3839 Y0.5588
G1 X3.3741 Y0.5559
G1 X3.363 Y0.5527
G1 X3.3573 Y0.5515
G1 X3.3525 Y0.5508
G1 X3.3431 Y0.5496
G1 X3.3397 Y0.5489
G1 X3.3371 Y0.548
G1 X3.3352 Y0.5469
G1 X3.3339 Y0.5456
G1 X3.3332 Y0.5441
G1 X3.333 Y0.5424
G1 X3.3334 Y0.5387
G1 X3.3338 Y0.5373
G1 X3.3343 Y0.5364
G1 X3.3354 Y0.5361
G1 X3.3374 Y0.5363
G1 X3.3434 Y0.5379
G1 X3.3508 Y0.5407
G1 X3.3581 Y0.5442
G0 Z1.5
G0 X3.401 Y0.6272
G1 F30.0 Z0.0
G1 F300.0 X3.4024 Y0.6281
G1 X3.4044 Y0.6289
G1 X3.4067 Y0.6294
G1 X3.4091 Y0.6296
G1 X3.4144 Y0.63
G1 X3.4192 Y0.6312
G1 X3.4209 Y0.6322
G1 X3.4212 Y0.6327
G1 X3.4209 Y0.6333
G1 X3.4191 Y0.6346
G1 X3.4152 Y0.6364
G1 X3.4107 Y0.638
G1 X3.4063 Y0.6391
G1 X3.4021 Y0.6396
G1 X3.398 Y0.6397
G1 X3.3943 Y0.6392
G1 X3.3909 Y0.6382
G1 X3.3881 Y0.6368
G1 X3.3857 Y0.6348
G1 X3.3835 Y0.6327
G1 X3.381 Y0.6307
G1 X3.3784 Y0.6291
G1 X3.376 Y0.6281
G1 X3.3736 Y0.6271
G1 X3.3726 Y0.6262
G1 X3.3728 Y0.6253
G1 X3.3741 Y0.6246
G1 X3.3763 Y0.6241
G1 X3.3793 Y0.6238
G1 X3.3831 Y0.6237
G1 X3.3875 Y0.624
G1 X3.392 Y0.6245
G1 X3.396 Y0.6253
G1 X3.3992 Y0.6263
G1 X3.401 Y0.6272
G0 Z1.5
G0 X3.2383 Y0.693
G1 F30.0 Z0.0
G1 F300.0 X3.2354 Y0.6935
G1 X3.2342 Y0.6933
G1 X3.2333 Y0.6928
G1 X3.2331 Y0.6923
G1 X3.2337 Y0.6918
G1 X3.2367 Y0.6915
G1 X3.2385 Y0.6917
G1 X3.2394 Y0.692
G1 X3.2393 Y0.6925
G1 X3.2383 Y0.693
G0 Z1.5
G0 X3.2459 Y0.7145
G1 F30.0 Z0.0
G1 F300.0 X3.2431 Y0.7165
G1 X3.2402 Y0.7181
G1 X3.2375 Y0.7192
G1 X3.2352 Y0.7196
G1 X3.2329 Y0.7199
G1 X3.2298 Y0.7207
G1 X3.2265 Y0.7219
G1 X3.2233 Y0.7234
G1 X3.217 Y0.7263
G1 X3.2146 Y0.7269
G1 X3.2127 Y0.727
G1 X3.2113 Y0.7267
G1 X3.2103 Y0.7257
G1 X3.2097 Y0.7243
G1 X3.2095 Y0.7224
G1 X3.209 Y0.7177
G1 X3.2079 Y0.7134
G1 X3.2076 Y0.7122
G1 X3.2079 Y0.7112
G1 X3.2088 Y0.7105
G1 X3.2106 Y0.71
G1 X3.2173 Y0.7095
G1 X3.2291 Y0.7094
G1 X3.2519 Y0.7095
G1 X3.2459 Y0.7145
G0 Z1.5
G0 X3.1875 Y0.7347
G1 F30.0 Z0.0
G1 F300.0 X3.1855 Y0.7361
G1 X3.1821 Y0.7376
G1 X3.1718 Y0.7411
G1 X3.158 Y0.745
G1 X3.1423 Y0.749
G1 X3.126 Y0.7526
G1 X3.1107 Y0.7556
G1 X3.0977 Y0.7576
G1 X3.0926 Y0.758
G1 X3.0886 Y0.7582
G1 X3.0785 Y0.7578
G1 X3.0741 Y0.7573
G1 X3.0756 Y0.7548
G1 X3.08 Y0.7495
G1 X3.0821 Y0.7471
G1 X3.0842 Y0.7453
G1 X3.0867 Y0.7439
G1 X3.0898 Y0.7428
G1 X3.0942 Y0.7419
G1 X3.1 Y0.7412
G1 X3.1177 Y0.7397
G1 X3.144 Y0.7374
G1 X3.1632 Y0.7352
G1 X3.176 Y0.7335
G1 X3.184 Y0.7328
G1 X3.1864 Y0.7329
G1 X3.1878 Y0.7333
G1 X3.1881 Y0.7339
G1 X3.1875 Y0.7347
G0 Z1.5
G0 X3.1233 Y0.7247
G1 F30.0 Z0.0
G1 F300.0 X3.1278 Y0.7261
G1 X3.1286 Y0.7266
G1 X3.1284 Y0.727
G1 X3.1249 Y0.7278
G1 X3.1169 Y0.7287
G1 X3.1098 Y0.729
G1 X3.1049 Y0.7284
G1 X3.1034 Y0.7278
G1 X3.1025 Y0.727
G1 X3.1023 Y0.726
G1 X3.1027 Y0.7247
G1 X3.1037 Y0.7238
G1 X3.1051 Y0.7231
G1 X3.107 Y0.7227
G1 X3.1094 Y0.7225
G1 X3.1155 Y0.7231
G1 X3.1233 Y0.7247
G0 Z1.5
G0 X3.0867 Y0.722
G1 F30.0 Z0.0
G1 F300.0 X3.0872 Y0.7227
G1 X3.0874 Y0.7234
G1 X3.0869 Y0.725
G1 X3.0854 Y0.7268
G1 X3.083 Y0.7287
G1 X3.0801 Y0.7305
G1 X3.0766 Y0.7321
G1 X3.0729 Y0.7334
G1 X3.069 Y0.7343
G1 X3.0637 Y0.735
G1 X3.0612 Y0.7349
G1 X3.0608 Y0.7345
G1 X3.0609 Y0.7339
G1 X3.0625 Y0.7317
G1 X3.0637 Y0.7299
G1 X3.0644 Y0.728
G1 X3.0646 Y0.7262
G1 X3.0642 Y0.7248
G1 X3.0634 Y0.7231
G1 X3.0633 Y0.7216
G1 X3.0638 Y0.7203
G1 X3.0649 Y0.7194
G1 X3.0666 Y0.7187
G1 X3.0689 Y0.7184
G1 X3.0718
G1 X3.0751 Y0.7188
G1 X3.0825 Y0.7203
G1 X3.0852 Y0.7212
G1 X3.0867 Y0.722
G0 Z1.5
G0 X3.0553 Y0.758
G1 F30.0 Z0.0
G1 F300.0 X3.0523 Y0.7614
G1 X3.049 Y0.7644
G1 X3.0452 Y0.7671
G1 X3.0409 Y0.7695
G1 X3.0359 Y0.7716
G1 X3.03 Y0.7736
G1 X3.0153 Y0.7774
G1 X3.0121 Y0.778
G1 X3.0103
G1 X3.0099 Y0.7778
G1 X3.0098 Y0.7774
G1 X3.0108 Y0.776
G1 X3.0178 Y0.7706
G1 X3.0321 Y0.7609
G1 X3.04 Y0.7559
G1 X3.0474 Y0.7518
G1 X3.0535 Y0.749
G1 X3.0557 Y0.7483
G1 X3.0573 Y0.748
G1 X3.0606 Y0.7481
G1 X3.0614 Y0.7485
G1 X3.0615 Y0.7492
G1 X3.0598 Y0.7522
G1 X3.0553 Y0.758
G0 Z1.5
G0 X3.0104 Y0.7105
G1 F30.0 Z0.0
G1 F300.0 X3.0273 Y0.7133
G1 X3.0397 Y0.7163
G1 X3.0442 Y0.7178
G1 X3.0474 Y0.7194
G1 X3.0494 Y0.7209
G1 X3.0499 Y0.7216
G1 X3.05 Y0.7224
G1 X3.0493 Y0.7246
G1 X3.0473 Y0.7275
G1 X3.0443 Y0.7307
G1 X3.0403 Y0.7343
G1 X3.0356 Y0.7379
G1 X3.0304 Y0.7416
G1 X3.0249 Y0.745
G1 X3.0192 Y0.7481
G1 X3.0035 Y0.7563
G1 X2.9883 Y0.7649
G1 X2.9737 Y0.7737
G1 X2.9597 Y0.7829
G1 X2.9463 Y0.7924
G1 X2.9335 Y0.8021
G1 X2.9213 Y0.8122
G1 X2.9097 Y0.8225
G1 X2.8902 Y0.8402
G1 X2.8764 Y0.852
G1 X2.8566 Y0.8685
G1 X2.8528 Y0.8717
G1 X2.8495 Y0.8738
G1 X2.8469 Y0.8749
G1 X2.8448
G1 X2.8433 Y0.8738
G1 X2.8421 Y0.8717
G1 X2.8414 Y0.8684
G1 X2.8411 Y0.8641
G1 Y0.86
G1 X2.8412 Y0.8582
G1 X2.8417 Y0.8565
G1 X2.8426 Y0.8547
G1 X2.8439 Y0.8528
G1 X2.8486 Y0.8482
G1 X2.8567 Y0.842
G1 X2.869 Y0.8333
G1 X2.9098 Y0.8057
G1 X2.9303 Y0.7918
G1 X2.9489 Y0.7786
G1 X2.9654 Y0.7666
G1 X2.9794 Y0.7558
G1 X2.9908 Y0.7464
G1 X2.9992 Y0.7388
G1 X3.0045 Y0.733
G1 X3.0058 Y0.7309
G1 X3.0063 Y0.7293
G1 X3.006 Y0.7268
G1 X3.0051 Y0.725
G1 X3.0036 Y0.7237
G1 X3.0018 Y0.7231
G1 X2.9997
G1 X2.9974 Y0.7238
G1 X2.9949 Y0.7251
G1 X2.9924 Y0.7271
G1 X2.9866 Y0.7317
G1 X2.9759 Y0.739
G1 X2.9305 Y0.7672
G1 X2.924 Y0.7714
G1 X2.9187 Y0.7752
G1 X2.9151 Y0.7783
G1 X2.9141 Y0.7794
G1 X2.9137 Y0.7802
G1 X2.913 Y0.7821
G1 X2.9111 Y0.7847
G1 X2.9082 Y0.788
G1 X2.9043 Y0.7917
G1 X2.8945 Y0.7998
G1 X2.8828 Y0.8081
G1 X2.8558 Y0.8264
G1 X2.8509 Y0.8297
G1 X2.8464 Y0.8321
G1 X2.8426 Y0.8337
G1 X2.8393 Y0.8344
G1 X2.8367 Y0.8342
G1 X2.8346 Y0.8333
G1 X2.8332 Y0.8314
G1 X2.8324 Y0.8287
G1 X2.8323 Y0.8272
G1 X2.8327 Y0.8258
G1 X2.8335 Y0.8243
G1 X2.8349 Y0.8227
G1 X2.8393 Y0.8191
G1 X2.8463 Y0.8147
G1 X2.8694 Y0.8004
G1 X2.8887 Y0.7878
G1 X2.9042 Y0.7766
G1 X2.9105 Y0.7716
G1 X2.9159 Y0.767
G1 X2.9215 Y0.7615
G1 X2.9277 Y0.7546
G1 X2.9342 Y0.7469
G1 X2.9405 Y0.7389
G1 X2.9461 Y0.7313
G1 X2.9507 Y0.7245
G1 X2.9537 Y0.7191
G1 X2.9546 Y0.7172
G1 X2.9549 Y0.7158
G1 X2.955 Y0.7141
G1 X2.9555 Y0.7125
G1 X2.9564 Y0.7111
G1 X2.9577 Y0.71
G1 X2.9593 Y0.709
G1 X2.9614 Y0.7082
G1 X2.967 Y0.7072
G1 X2.9745 Y0.707
G1 X2.9841 Y0.7074
G1 X2.9961 Y0.7086
G1 X3.0104 Y0.7105
G0 Z1.5
G0 X3.0269 Y0.6951
G1 F30.0 Z0.0
G1 F300.0 X3.0757 Y0.6991
G1 X3.1182 Y0.7026
G1 X3.1279 Y0.7037
G1 X3.1392 Y0.7057
G1 X3.1506 Y0.7082
G1 X3.1605 Y0.7109
G1 X3.1624 Y0.7116
G1 X3.163 Y0.7123
G1 X3.1624 Y0.7132
G1 X3.1606 Y0.7144
G1 X3.159 Y0.7151
G1 X3.1572 Y0.7154
G1 X3.1556 Y0.7153
G1 X3.1543 Y0.7146
G1 X3.1515 Y0.7137
G1 X3.146 Y0.7126
G1 X3.1298 Y0.7107
G1 X3.0796 Y0.7063
G1 X3.0384 Y0.7026
G1 X3.0258 Y0.701
G1 X3.0129 Y0.6985
G1 X3.0024 Y0.6955
G1 X2.9988 Y0.6941
G1 X2.9969 Y0.6928
G1 X2.9965 Y0.692
G1 X2.9972 Y0.6916
G1 X2.9987
G1 X3.0011 Y0.692
G1 X3.0114 Y0.6935
G1 X3.0269 Y0.6951
G0 Z1.5
G0 X2.9015 Y0.7032
G1 F30.0 Z0.0
G1 F300.0 X2.9082 Y0.7041
G1 X2.9137 Y0.705
G1 X2.9175 Y0.7061
G1 X2.9185 Y0.7066
G1 X2.9188 Y0.7071
G1 X2.918 Y0.7084
G1 X2.9158 Y0.7106
G1 X2.9085 Y0.7161
G1 X2.898 Y0.723
G1 X2.8909 Y0.7144
G1 X2.887 Y0.7103
G1 X2.8828 Y0.7074
G1 X2.8781 Y0.7054
G1 X2.8724 Y0.7041
G1 X2.861 Y0.7022
G1 X2.8725 Y0.7019
G1 X2.8858 Y0.7022
G1 X2.9015 Y0.7032
G0 Z1.5
G0 X2.8976 Y0.682
G1 F30.0 Z0.0
G1 F300.0 X2.9149 Y0.6848
G1 X2.9204 Y0.6859
G1 X2.9229 Y0.6867
G1 X2.9204 Y0.6871
G1 X2.9131 Y0.6872
G1 X2.89 Y0.6868
G1 X2.8664 Y0.6858
G1 X2.8584 Y0.6852
G1 X2.8549 Y0.6847
G1 X2.8547 Y0.6842
G1 X2.8548 Y0.6833
G1 X2.8557 Y0.6812
G1 X2.8569 Y0.68
G1 X2.8591 Y0.6792
G1 X2.8622 Y0.6788
G1 X2.8665 Y0.6787
G1 X2.879 Y0.6796
G1 X2.8976 Y0.682
G0 Z1.5
G0 X2.8738 Y0.7582
G1 F30.0 Z0.0
G1 F300.0 X2.8707 Y0.7615
G1 X2.8688 Y0.763
G1 X2.8681
G1 X2.8675 Y0.7626
G1 X2.8661 Y0.7607
G1 X2.8659 Y0.7595
G1 X2.8667 Y0.7582
G1 X2.8683 Y0.7569
G1 X2.8705 Y0.7557
G1 X2.8753 Y0.7539
G1 X2.8772 Y0.7535
G1 X2.8773 Y0.754
G1 X2.8767 Y0.7549
G1 X2.8738 Y0.7582
G0 Z1.5
G0 X2.8829 Y0.7722
G1 F30.0 Z0.0
G1 F300.0 X2.8791 Y0.7757
G1 X2.8735 Y0.7802
G1 X2.8589 Y0.7906
G1 X2.8434 Y0.8006
G1 X2.8365 Y0.8046
G1 X2.8309 Y0.8075
G1 X2.8259 Y0.8096
G1 X2.8226 Y0.8104
G1 X2.8213 Y0.8103
G1 X2.8203 Y0.8099
G1 X2.8184 Y0.8081
G1 X2.8171 Y0.8062
G1 X2.8167 Y0.8044
G1 X2.8173 Y0.8025
G1 X2.8188 Y0.8003
G1 X2.8224 Y0.7977
G1 X2.83 Y0.7933
G1 X2.8519 Y0.7818
G1 X2.8742 Y0.771
G1 X2.8822 Y0.7674
G1 X2.8865 Y0.766
G1 X2.8868 Y0.7661
G1 X2.8869 Y0.7665
G1 X2.8864 Y0.7678
G1 X2.8851 Y0.7698
G1 X2.8829 Y0.7722
G0 Z1.5
G0 X2.805 Y0.6828
G1 F30.0 Z0.0
G1 F300.0 X2.8008 Y0.6832
G1 X2.7989 Y0.6831
G1 X2.7973 Y0.6827
G1 X2.7966 Y0.6822
G1 X2.7973 Y0.6818
G1 X2.8018 Y0.6815
G1 X2.8059 Y0.6819
G1 X2.8062 Y0.6821
G1 X2.8061 Y0.6823
G1 X2.805 Y0.6828
G0 Z1.5
G0 X2.6243 Y0.6667
G1 F30.0 Z0.0
G1 F300.0 X2.6925 Y0.672
G1 X2.7192 Y0.6741
G1 X2.7447 Y0.6765
G1 X2.764 Y0.6786
G1 X2.7698 Y0.6795
G1 X2.7722 Y0.6801
G1 X2.7717 Y0.6803
G1 X2.7696 Y0.6805
G1 X2.7615 Y0.6806
G1 X2.7327 Y0.68
G1 X2.6944 Y0.6785
G1 X2.6552 Y0.6764
G1 X2.6126 Y0.674
G1 X2.5679 Y0.6722
G1 X2.5492 Y0.6714
G1 X2.5324 Y0.6703
G1 X2.5192 Y0.6691
G1 X2.5116 Y0.6679
G1 X2.5067 Y0.6669
G1 X2.5009 Y0.6661
G1 X2.4949 Y0.6657
G1 X2.4895
G1 X2.4797 Y0.666
G1 X2.4743 Y0.6657
G1 X2.4729 Y0.6653
G1 X2.4722 Y0.6646
G1 X2.4723 Y0.6638
G1 X2.4728 Y0.6627
G1 X2.4741 Y0.662
G1 X2.4772 Y0.6615
G1 X2.4878 Y0.6609
G1 X2.5036 Y0.6608
G1 X2.5237 Y0.6612
G1 X2.5468 Y0.662
G1 X2.572 Y0.6632
G1 X2.5982 Y0.6647
G1 X2.6243 Y0.6667
G0 Z1.5
G0 X2.609 Y0.641
G1 F30.0 Z0.0
G1 F300.0 X2.6699 Y0.644
G1 X2.7298 Y0.6462
G1 X2.778 Y0.6476
G1 X2.8108 Y0.6489
G1 X2.8674 Y0.6515
G1 X2.8926 Y0.6529
G1 X2.9151 Y0.6549
G1 X2.9373 Y0.6578
G1 X2.9613 Y0.6618
G1 X2.9733 Y0.6636
G1 X2.9909 Y0.666
G1 X3.0333 Y0.6708
G1 X3.1398 Y0.6823
G1 X3.1792 Y0.6864
G1 X3.1916 Y0.6874
G1 X3.1966
G1 X3.1979 Y0.6872
G1 X3.2001 Y0.6874
G1 X3.2059 Y0.6887
G1 X3.2067 Y0.6892
G1 X3.2058 Y0.6897
G1 X3.1984 Y0.6902
G1 X3.1839 Y0.6903
G1 X3.1625 Y0.69
G1 X3.1415 Y0.6893
G1 X3.1243 Y0.6883
G1 X3.1122 Y0.6872
G1 X3.1084 Y0.6866
G1 X3.1063 Y0.686
G1 X3.103 Y0.6849
G1 X3.0985 Y0.6843
G1 X3.0928
G1 X3.0862 Y0.6848
G1 X3.0789 Y0.6853
G1 X3.0698 Y0.6852
G1 X3.0602 Y0.6847
G1 X3.0511 Y0.6837
G1 X3.0307 Y0.6813
G1 X3.0101 Y0.6796
G1 X2.9695 Y0.6769
G1 X2.9556 Y0.6756
G1 X2.9471 Y0.6746
G1 X2.9332 Y0.6734
G1 X2.9085 Y0.672
G1 X2.8821 Y0.6703
G1 X2.8711 Y0.6693
G1 X2.8635 Y0.6682
G1 X2.825 Y0.6616
G1 X2.7869 Y0.655
G1 X2.7806 Y0.6541
G1 X2.7728 Y0.6534
G1 X2.7643 Y0.6529
G1 X2.7561 Y0.6527
G1 X2.7461 Y0.6528
G1 X2.7411 Y0.6534
G1 X2.7402 Y0.6539
G1 X2.7401 Y0.6546
G1 X2.7419 Y0.6569
G1 X2.7444 Y0.6587
G1 X2.7478 Y0.6605
G1 X2.7518 Y0.6621
G1 X2.756 Y0.6632
G1 X2.7574 Y0.6636
G1 X2.7575 Y0.6639
G1 X2.7541 Y0.6642
G1 X2.7462
G1 X2.7346 Y0.6638
G1 X2.6922 Y0.662
G1 X2.6835 Y0.6612
G1 X2.6802 Y0.6606
G1 X2.6783 Y0.6599
G1 X2.6764 Y0.6593
G1 X2.6723 Y0.6588
G1 X2.6549 Y0.6576
G1 X2.5673 Y0.6539
G1 X2.5404 Y0.6526
G1 X2.5323 Y0.6518
G1 X2.5274 Y0.6509
G1 X2.526 Y0.6504
G1 X2.5253 Y0.6497
G1 X2.5252 Y0.649
G1 X2.5258 Y0.6481
G1 X2.5285 Y0.6461
G1 X2.5332 Y0.6435
G1 X2.5416 Y0.6392
G1 X2.5459 Y0.6374
G1 X2.609 Y0.641
G0 Z1.5
G0 X2.6065 Y0.614
G1 F30.0 Z0.0
G1 F300.0 X2.63 Y0.6156
G1 X2.6571 Y0.617
G1 X2.7517 Y0.6206
G1 X2.7864 Y0.622
G1 X2.8103 Y0.6234
G1 X2.8188 Y0.6243
G1 X2.8232 Y0.6253
G1 X2.8242 Y0.6259
G1 X2.8244 Y0.6267
G1 X2.8232 Y0.6289
G1 X2.8212 Y0.6321
G1 X2.8209 Y0.6334
G1 X2.8211 Y0.6343
G1 X2.8209 Y0.6345
G1 X2.8198 Y0.6347
G1 X2.8148 Y0.635
G1 X2.7916 Y0.6351
G1 X2.6809 Y0.6333
G1 X2.6377 Y0.6321
G1 X2.5993 Y0.6303
G1 X2.5715 Y0.6282
G1 X2.5632 Y0.6272
G1 X2.5608 Y0.6267
G1 X2.5597 Y0.6262
G1 X2.5592 Y0.6249
G1 X2.5595 Y0.6229
G1 X2.5605 Y0.6205
G1 X2.5619 Y0.618
G1 X2.5636 Y0.6155
G1 X2.5655 Y0.6135
G1 X2.5673 Y0.6121
G1 X2.5689 Y0.6116
G1 X2.6065 Y0.614
G0 Z1.5
G0 X2.6076 Y0.5832
G1 F30.0 Z0.0
G1 F300.0 X2.6418 Y0.5857
G1 X2.6861 Y0.5883
G1 X2.7555 Y0.5922
G1 X2.7824 Y0.5935
G1 X2.822 Y0.595
G1 X2.8664 Y0.5963
G1 X2.9073 Y0.5973
G1 X2.9232 Y0.5978
G1 X2.9379 Y0.5986
G1 X2.9499 Y0.5996
G1 X2.9574 Y0.6008
G1 X2.9673 Y0.6024
G1 X2.9856 Y0.6048
G1 X3.0372 Y0.6107
G1 X3.0716 Y0.6144
G1 X3.0905 Y0.6169
G1 X3.0949 Y0.6178
G1 X3.0965 Y0.6185
G1 X3.0963 Y0.6189
G1 X3.0956 Y0.6192
G1 X3.0925 Y0.6198
G1 X3.0869 Y0.6204
G1 X3.0811 Y0.6207
G1 X3.0759 Y0.6206
G1 X3.0719 Y0.6202
G1 X3.0634 Y0.6187
G1 X3.0539 Y0.6176
G1 X3.0243 Y0.6141
G1 X3.0047 Y0.6119
G1 X2.9847 Y0.6102
G1 X2.9666 Y0.6084
G1 X2.9516 Y0.6063
G1 X2.9429 Y0.6049
G1 X2.935 Y0.6041
G1 X2.9281 Y0.6039
G1 X2.9223 Y0.6044
G1 X2.9175 Y0.6054
G1 X2.914 Y0.6071
G1 X2.9128 Y0.6081
G1 X2.9119 Y0.6092
G1 X2.9113 Y0.6105
G1 X2.9111 Y0.612
G1 X2.9113 Y0.6128
G1 X2.9118 Y0.6137
G1 X2.914 Y0.6154
G1 X2.918 Y0.617
G1 X2.924 Y0.6187
G1 X2.9322 Y0.6205
G1 X2.9428 Y0.6224
G1 X2.9724 Y0.6269
G1 X2.9962 Y0.6302
G1 X3.0127 Y0.6319
G1 X3.023 Y0.6324
G1 X3.0261 Y0.6321
G1 X3.028 Y0.6315
G1 X3.0296 Y0.6309
G1 X3.0319 Y0.6305
G1 X3.0386 Y0.6302
G1 X3.0483 Y0.6307
G1 X3.0615 Y0.6319
G1 X3.1375 Y0.64
G1 X3.1823 Y0.6448
G1 X3.2183 Y0.649
G1 X3.2467 Y0.6528
G1 X3.2686 Y0.6562
G1 X3.2881 Y0.6594
G1 X3.304 Y0.6617
G1 X3.3092 Y0.6626
G1 X3.3132 Y0.6635
G1 X3.3157 Y0.6645
G1 X3.3163 Y0.665
G1 Y0.6654
G1 X3.3145 Y0.6659
G1 X3.3104 Y0.666
G1 X3.3046 Y0.6657
G1 X3.2978 Y0.665
G1 X3.2893 Y0.6641
G1 X3.2818 Y0.6639
G1 X3.2751 Y0.6645
G1 X3.2688 Y0.6657
G1 X3.2625 Y0.6668
G1 X3.2529 Y0.6675
G1 X3.2274 Y0.6683
G1 X3.1993 Y0.668
G1 X3.1866 Y0.6674
G1 X3.176 Y0.6665
G1 X3.149 Y0.6641
G1 X3.0912 Y0.659
G1 X3.0533 Y0.6557
G1 X3.0217 Y0.6535
G1 X3.0014 Y0.6519
G1 X2.9943 Y0.6509
G1 X2.9905 Y0.6499
G1 X2.9865 Y0.6488
G1 X2.9786 Y0.6475
G1 X2.9558 Y0.6447
G1 X2.9404 Y0.643
G1 X2.9303 Y0.6413
G1 X2.9268 Y0.6403
G1 X2.9241 Y0.6392
G1 X2.922 Y0.638
G1 X2.9203 Y0.6366
G1 X2.9187 Y0.635
G1 X2.917 Y0.6339
G1 X2.9151 Y0.633
G1 X2.9126 Y0.6325
G1 X2.9053 Y0.6322
G1 X2.8933 Y0.6327
G1 X2.883 Y0.6331
G1 X2.8747 Y0.6329
G1 X2.8683 Y0.6321
G1 X2.8635 Y0.6306
G1 X2.8594 Y0.6287
G1 X2.8587 Y0.6281
G1 X2.8589 Y0.6276
G1 X2.8626 Y0.6271
G1 X2.8713 Y0.6268
G1 X2.8846 Y0.6261
G1 X2.8895 Y0.6254
G1 X2.8933 Y0.6244
G1 X2.8963 Y0.6232
G1 X2.8984 Y0.6216
G1 X2.8997 Y0.6197
G1 X2.9004 Y0.6174
G1 Y0.6152
G1 X2.8998 Y0.6132
G1 X2.8986 Y0.6114
G1 X2.897 Y0.6098
G1 X2.8949 Y0.6083
G1 X2.8923 Y0.6071
G1 X2.8895 Y0.606
G1 X2.8862 Y0.6052
G1 X2.879 Y0.6043
G1 X2.8711
G1 X2.8628 Y0.6054
G1 X2.8587 Y0.6064
G1 X2.8545 Y0.6077
G1 X2.8509 Y0.6088
G1 X2.8464 Y0.6096
G1 X2.8408 Y0.6102
G1 X2.8334 Y0.6106
G1 X2.8121 Y0.6107
G1 X2.779 Y0.6102
G1 X2.7284 Y0.6085
G1 X2.7092 Y0.6074
G1 X2.6976 Y0.6064
G1 X2.6868 Y0.6053
G1 X2.6697 Y0.6043
G1 X2.6486 Y0.6034
G1 X2.6259 Y0.6027
G1 X2.6031 Y0.6019
G1 X2.5851 Y0.6009
G1 X2.5729 Y0.5998
G1 X2.5693 Y0.5992
G1 X2.5676 Y0.5986
G1 X2.5661 Y0.5969
G1 X2.5645 Y0.5944
G1 X2.5629 Y0.5914
G1 X2.5617 Y0.5882
G1 X2.559 Y0.5807
G1 X2.5698
G1 X2.5854 Y0.5814
G1 X2.6076 Y0.5832
G0 Z1.5
G0 X2.5465 Y0.5862
G1 F30.0 Z0.0
G1 F300.0 X2.5497 Y0.5907
G1 X2.5507 Y0.5925
G1 X2.551 Y0.5938
G1 X2.5506 Y0.5943
G1 X2.5494 Y0.5947
G1 X2.545 Y0.5955
G1 X2.5385 Y0.5959
G1 X2.5305 Y0.5961
G1 X2.5159 Y0.5956
G1 X2.5115 Y0.595
G1 X2.5103 Y0.5947
G1 X2.5099 Y0.5943
G1 X2.5104 Y0.5931
G1 X2.512 Y0.5909
G1 X2.517 Y0.5852
G1 X2.5209 Y0.5814
G1 X2.5227 Y0.5802
G1 X2.5244 Y0.5794
G1 X2.5262 Y0.579
G1 X2.5281 Y0.5788
G1 X2.533 Y0.5794
G1 X2.5369 Y0.5804
G1 X2.5407 Y0.582
G1 X2.5441 Y0.5841
G1 X2.5465 Y0.5862
G0 Z1.5
G0 X2.5125 Y0.6784
G1 F30.0 Z0.0
G1 F300.0 X2.5566 Y0.681
G1 X2.5922 Y0.6836
G1 X2.6203 Y0.6858
G1 X2.6462 Y0.6874
G1 X2.6669 Y0.6886
G1 X2.6822 Y0.6899
G1 X2.7096 Y0.6916
G1 X2.7591 Y0.6939
G1 X2.7848 Y0.6951
G1 X2.8064 Y0.6965
G1 X2.8218 Y0.6978
G1 X2.8264 Y0.6985
G1 X2.8285 Y0.699
G1 X2.8304 Y0.7002
G1 X2.8309 Y0.701
G1 X2.8298 Y0.7014
G1 X2.827 Y0.7015
G1 X2.8247 Y0.7017
G1 X2.8226 Y0.7023
G1 X2.8209 Y0.7031
G1 X2.8198 Y0.7042
G1 X2.8192 Y0.7048
G1 X2.8181 Y0.7053
G1 X2.8147 Y0.7061
G1 X2.8097 Y0.7065
G1 X2.8034 Y0.7066
G1 X2.7871 Y0.7055
G1 X2.7671 Y0.7031
G1 X2.7534 Y0.7013
G1 X2.736 Y0.6996
G1 X2.6966 Y0.6965
G1 X2.6616 Y0.6945
G1 X2.6496 Y0.6943
G1 X2.6434 Y0.6947
G1 X2.6407 Y0.695
G1 X2.6375 Y0.6949
G1 X2.6342 Y0.6943
G1 X2.6311 Y0.6933
G1 X2.6257 Y0.6914
G1 X2.6235 Y0.691
G1 X2.6221
G1 X2.6004 Y0.6906
G1 X2.5514 Y0.6888
G1 X2.4444 Y0.6849
G1 X2.4157 Y0.6834
G1 X2.4057 Y0.6826
G1 X2.4007 Y0.6818
G1 X2.3995 Y0.6812
G1 X2.3992 Y0.6806
G1 X2.3997 Y0.6799
G1 X2.4009 Y0.6793
G1 X2.4053 Y0.6779
G1 X2.4116 Y0.6767
G1 X2.4193 Y0.6756
G1 X2.4278 Y0.6749
G1 X2.4363 Y0.6746
G1 X2.4443 Y0.6747
G1 X2.5125 Y0.6784
G0 Z1.5
G0 X2.5645 Y0.7393
G1 F30.0 Z0.0
G1 F300.0 X2.5613 Y0.7398
