MAGNET HOLES)
(T2 D=1.587 CR=0. - ZMIN=-8.427 - FLAT END MILL)
G90 G94 G17
G21
G28 G91 Z0.
G90
(2D CONTOUR3)
M5
M9
T2 M6
S5000 M3
G54
M9
G0 X-35.73 Y-46.681
G43 Z15. H2
Z5.
G1 Z1. F1000.
Z-8.268 F333.
X-35.723 Y-46.686 Z-8.317
X-35.705 Y-46.699 Z-8.361
X-35.677 Y-46.72 Z-8.396
X-35.642 Y-46.747 Z-8.419
X-35.603 Y-46.776 Z-8.427
X-35.476 Y-46.871 F1000.
G3 X-35.253 Y-46.84 I0.095 J0.127
X-44.159 Y-40.16 I-4.453 J3.34 F400.
X-35.253 Y-46.84 I4.453 J-3.34
X-35.285 Y-46.618 I-0.127 J0.095 F1000.
G1 X-35.412 Y-46.522
X-35.451 Y-46.493 Z-8.419
X-35.487 Y-46.466 Z-8.396
X-35.515 Y-46.445 Z-8.361
X-35.533 Y-46.432 Z-8.317
X-35.539 Y-46.427 Z-8.268
G0 Z5.
X-10.616 Y-43.659
G1 Z1. F1000.
Z-8.268 F333.
G18 G2 X-10.458 Z-8.427 I0.159 K0.
G1 X-10.299 F1000.
G17 G3 X-10.14 Y-43.5 I0. J0.159
X-21.273 I-5.566 J0. F400.
X-10.14 I5.566 J0.
X-10.299 Y-43.341 I-0.159 J0. F1000.
G1 X-10.458
G18 G3 X-10.616 Z-8.268 I0. K0.159
G0 Z5.
X-11.73 Y48.319
G1 Z1. F1000.
Z-8.268 F333.
X-11.723 Y48.314 Z-8.317
X-11.705 Y48.301 Z-8.361
X-11.677 Y48.28 Z-8.396
X-11.642 Y48.253 Z-8.419
X-11.603 Y48.224 Z-8.427
X-11.476 Y48.129 F1000.
G17 G3 X-11.253 Y48.16 I0.095 J0.127
X-20.159 Y54.84 I-4.453 J3.34 F400.
X-11.253 Y48.16 I4.453 J-3.34
X-11.285 Y48.382 I-0.127 J0.095 F1000.
G1 X-11.412 Y48.478
X-11.451 Y48.507 Z-8.419
X-11.487 Y48.534 Z-8.396
X-11.515 Y48.555 Z-8.361
X-11.533 Y48.568 Z-8.317
X-11.539 Y48.573 Z-8.268
G0 Z5.
X-35.539 Y54.427
G1 Z1. F1000.
Z-8.268 F333.
X-35.533 Y54.432 Z-8.317
X-35.515 Y54.445 Z-8.361
X-35.487 Y54.466 Z-8.396
X-35.451 Y54.493 Z-8.419
X-35.412 Y54.522 Z-8.427
X-35.285 Y54.618 F1000.
G3 X-35.253 Y54.84 I-0.095 J0.127
X-44.159 Y48.16 I-4.453 J-3.34 F400.
X-35.253 Y54.84 I4.453 J3.34
X-35.476 Y54.871 I-0.127 J-0.095 F1000.
G1 X-35.603 Y54.776
X-35.642 Y54.747 Z-8.419
X-35.677 Y54.72 Z-8.396
X-35.705 Y54.699 Z-8.361
X-35.723 Y54.686 Z-8.317
X-35.73 Y54.681 Z-8.268
G0 Z15.
M9
G28 G91 Z0.
G28 X0. Y0.
M30

