( This file was created automatically using CamBam )
( http://www.brusselsprout.org/CAMBAM )
( 11/29/2008 1:09:15 PM )
( T0 : 0.001 )
G20
G90
G64
G00 Z0.125
( MOPProfile_2 )
( T0 : 0.001 )
M06 T0
M03
G00 X2.012176 Y-0.000028
G01 F15 Z-0.001
G02 F300 X1.870461 Y-0.740932 I-1.999488 J-0.001556
G02 X1.481845 Y-1.356568 I-1.865996 J0.747422
G02 X0.901111 Y-1.792156 I-1.47533 J1.362021
G02 X0.183056 Y-1.992898 I-0.887602 J1.790346
G02 X-0.574636 Y-1.91265 I-0.171449 J1.998346
G02 X-1.222538 Y-1.57365 I0.588588 J1.913563
G02 X-1.70244 Y-1.030477 I1.242599 J1.581443
G02 X-1.959544 Y-0.337942 I1.708798 J1.028384
G02 X-1.942268 Y0.427086 I1.987973 J0.337818
G02 X-1.655536 Y1.104596 I1.954611 J-0.427791
G02 X-1.152582 Y1.626155 I1.680277 J-1.117055
G02 X-0.488204 Y1.936976 I1.161573 J-1.617388
G02 X0.274668 Y1.982985 I0.500894 J-1.957725
G02 X0.979122 Y1.751164 I-0.259957 J-1.976203
G02 X1.539692 Y1.291073 I-0.977669 J-1.762725
G02 X1.901581 Y0.65751 I-1.525463 J-1.291475
G02 X2.012176 Y-0.000028 I-1.903004 J-0.658147
G00 Z0.125
G00 X1.317526 Y-0.4665
G01 F15 Z-0.001
G03 F300 X1.353012 Y-0.613573 I0.166635 J-0.037611
G03 X1.420049 Y-0.651998 I0.102419 J0.100994
G03 X1.496966 Y-0.660349 I0.067781 J0.265906
G00 Z0.125
G00 X1.184537 Y-0.830645
G01 F15 Z-0.001
G02 F300 X0.870269 Y-1.26847 I-2.636548 J1.560795
G02 X0.677143 Y-1.460749 I-1.716911 J1.531343
G02 X0.45307 Y-1.61552 I-0.915852 J1.086361
G03 X0.297418 Y-1.561688 I-0.435935 J-1.008543
G03 X0.133657 Y-1.54072 I-0.148131 J-0.506932
G03 X0.024497 Y-1.570109 I-0.008006 J-0.187679
G03 X0.024337 Y-1.570276 I0.000269 J-0.000421
G02 X0.020573 Y-1.573074 I-0.005224 J0.003096
G02 X0.019207 Y-1.572192 I0.000342 J0.002028
G03 X0.019122 Y-1.572094 I-0.000415 J-0.000279
G03 X-0.035521 Y-1.542826 I-0.090436 J-0.103199
G03 X-0.035544 Y-1.54282 I-0.00013 J-0.000483
G03 X-0.181435 Y-1.541977 I-0.074923 J-0.341516
G03 X-0.380202 Y-1.599832 I0.199018 J-1.054117
G02 X-0.618567 Y-1.431453 I0.624644 J1.137186
G02 X-0.917357 Y-1.112263 I1.453132 J1.659704
G02 X-1.154914 Y-0.751063 I2.064573 J1.616561
G03 X-0.648702 Y-1.188029 I1.612585 J1.35643
G03 X-0.172699 Y-1.372308 I0.736533 J1.195597
G03 X0.575651 Y-1.270556 I0.215078 J1.220982
G03 X0.901233 Y-1.076468 I-0.849046 J1.794397
G03 X1.184537 Y-0.830645 I-1.575111 J2.101437
G00 Z0.125
G00 X0.133654 Y-1.54172
G01 F15 Z-0.001
G02 F300 X0.297152 Y-1.562652 I-0.000003 J-0.649033
G02 X0.451946 Y-1.616146 I-0.411784 J-1.442275
G02 X0.02096 Y-1.719761 I-0.401255 J0.720871
G01 Y-1.574199
G01 X0.021039 Y-1.573878
G01 X0.025062 Y-1.570934
G01 X0.025069 Y-1.570929
G02 X0.077066 Y-1.548214 I0.073084 J-0.096428
G03 X0.077093 Y-1.548209 I-0.000087 J0.000492
G02 X0.133654 Y-1.54172 I0.055971 J-0.238125
G00 Z0.125
G00 X0.02 Y-1.573914
G01 F15 Z-0.001
G01 F300 X0.019975 Y-1.57402
G03 X0.01996 Y-1.574138 I0.000486 J-0.000118
G01 Y-1.719714
G02 X-0.37913 Y-1.600445 I0.052055 J0.901523
G02 X-0.181266 Y-1.542962 I0.319591 J-0.730796
G03 X-0.181236 Y-1.542957 I-0.000076 J0.000494
G02 X-0.035763 Y-1.543796 I0.070856 J-0.326151
G02 X0.018432 Y-1.572818 I-0.027245 J-0.11599
G03 X0.02 Y-1.573914 I0.003055 J0.0027
G00 Z0.125
G00 X-0.380437 Y-1.599926
G01 F15 Z-0.001
G02 F300 X-0.181434 Y-1.541976 I0.320898 J-0.731315
G02 X-0.03554 Y-1.542822 I0.071054 J-0.327132
G02 X0.019134 Y-1.572105 I-0.027473 J-0.116973
G02 X0.019169 Y-1.572141 I-0.000342 J-0.000365
G03 X0.0205 Y-1.573033 I0.002318 J0.002023
G01 X0.024465 Y-1.570132
G02 X0.076878 Y-1.547232 I0.073688 J-0.097225
G02 X0.133655 Y-1.54072 I0.056185 J-0.239097
G02 X0.29741 Y-1.561686 I-0.000004 J-0.650029
G02 X0.297421 Y-1.561689 I-0.000126 J-0.000484
G02 X0.453287 Y-1.615614 I-0.412053 J-1.443239
G00 Z0.125
G00 X-1.157502 Y-0.746436
G01 F15 Z-0.001
G01 F300 X-1.157366 Y-0.746585
G02 X-1.157297 Y-0.746682 I-0.00037 J-0.000336
G03 X-0.824995 Y-1.224645 I2.361019 J1.286996
G03 X-0.618573 Y-1.431448 I1.491865 J1.282694
G03 X-0.379986 Y-1.599951 I1.041638 J1.221718
G03 X0.020483 Y-1.719744 I0.454564 J0.790329
G03 X0.452857 Y-1.615638 I0.025623 J0.843511
G01 X0.452865 Y-1.615634
G03 X0.677139 Y-1.460753 I-0.538412 J1.019463
G03 X0.956651 Y-1.163987 I-1.315277 J1.518819
G03 X1.186533 Y-0.827268 I-2.543872 J1.983565
G02 X1.187052 Y-0.826429 I0.002039 J-0.000681
G00 Z0.125
G00 X0.761877 Y0.468794
G01 F15 Z-0.001
G02 F300 X0.751313 Y0.403023 I-0.185749 J-0.0039
G03 X0.751302 Y0.402987 I0.000471 J-0.000167
G02 X0.734624 Y0.372283 I-0.073146 J0.019852
G03 X0.734606 Y0.372263 I0.000373 J-0.000334
G02 X0.703309 Y0.357285 I-0.031232 J0.025073
G02 X0.672022 Y0.37225 I0.00042 J0.041067
G02 X0.64474 Y0.468781 I0.131009 J0.089147
G03 Y0.468815 I-0.000499 J0.000023
G02 X0.655304 Y0.53458 I0.185135 J0.003992
G03 X0.655315 Y0.534616 I-0.000471 J0.000167
G02 X0.671994 Y0.565315 I0.073173 J-0.019874
G03 X0.672011 Y0.565335 I-0.000373 J0.000333
G02 X0.703308 Y0.580311 I0.031241 J-0.025097
G02 X0.734596 Y0.565348 I-0.000409 J-0.041048
G02 X0.761878 Y0.468828 I-0.131079 J-0.089166
G03 X0.761877 Y0.468794 I0.000499 J-0.000023
G00 Z0.125
G00 X0.921559 Y0.583582
G01 F15 Z-0.001
G02 F300 X0.885821 Y0.363964 I-0.621296 J-0.011615
G03 X0.885815 Y0.363947 I0.000471 J-0.000167
G02 X0.79398 Y0.22309 I-0.298299 J0.094118
G02 X0.671694 Y0.203696 I-0.077349 J0.092483
G02 X0.610443 Y0.250149 I0.062073 J0.145454
G02 X0.568352 Y0.314705 I0.26387 J0.218046
G02 X0.512162 Y0.52795 I0.503829 J0.246786
G02 X0.530632 Y0.74777 I0.747421 J0.047886
G02 X0.591136 Y0.893077 I0.451134 J-0.102597
G02 X0.647697 Y0.952145 I0.18162 J-0.117296
G02 X0.726762 Y0.972349 I0.067766 J-0.100386
G02 X0.810659 Y0.929753 I-0.015439 J-0.134327
G03 X0.810675 Y0.929736 I0.000367 J0.000339
G02 X0.86476 Y0.852481 I-0.182951 J-0.185639
G02 X0.921559 Y0.583602 I-0.545402 J-0.255651
G03 Y0.583582 I0.0005 J-0.000011
G00 Z0.125
G00 X-0.458352 Y0.58898
G01 F15 Z-0.001
G02 F300 X-0.49409 Y0.369362 I-0.621296 J-0.011615
G03 X-0.494096 Y0.369346 I0.000471 J-0.000167
G02 X-0.585931 Y0.228489 I-0.298299 J0.094118
G02 X-0.708217 Y0.209094 I-0.077349 J0.092483
G02 X-0.769463 Y0.255547 I0.062283 J0.145717
G02 X-0.811559 Y0.320103 I0.265371 J0.219048
G02 X-0.867743 Y0.533348 I0.503807 J0.246764
G02 X-0.849272 Y0.753168 I0.747445 J0.047881
G02 X-0.788769 Y0.898475 I0.451048 J-0.102559
G02 X-0.73221 Y0.957544 I0.18153 J-0.117205
G02 X-0.653149 Y0.977748 I0.067755 J-0.100343
G02 X-0.569252 Y0.935151 I-0.015439 J-0.134327
G03 X-0.569235 Y0.935134 I0.000367 J0.000339
G02 X-0.515151 Y0.857879 I-0.182951 J-0.185639
G02 X-0.458352 Y0.589001 I-0.545402 J-0.255651
G03 Y0.58898 I0.0005 J-0.000011
G00 Z0.125
G00 X-0.590893 Y0.477868
G01 F15 Z-0.001
G02 F300 X-0.601452 Y0.412097 I-0.185597 J-0.003937
G03 X-0.601464 Y0.412061 I0.000471 J-0.000167
G02 X-0.618141 Y0.381357 I-0.073185 J0.019871
G03 X-0.618158 Y0.381337 I0.000373 J-0.000333
G02 X-0.649461 Y0.366359 I-0.031262 J0.025134
G02 X-0.680746 Y0.381324 I0.000411 J0.041043
G02 X-0.708017 Y0.477855 I0.131165 J0.089173
G03 Y0.477889 I-0.000499 J0.000023
G02 X-0.697459 Y0.54366 I0.185528 J0.003952
G03 X-0.697448 Y0.543696 I-0.000471 J0.000167
G02 X-0.680775 Y0.5744 I0.073091 J-0.019814
G03 X-0.680757 Y0.57442 I-0.000372 J0.000334
G02 X-0.649463 Y0.589398 I0.031236 J-0.025081
G02 X-0.618175 Y0.574433 I-0.00042 J-0.041067
G02 X-0.590893 Y0.477902 I-0.131009 J-0.089147
G03 Y0.477868 I0.000499 J-0.000023
G00 Z0.125
G00 X-1.248858 Y-0.628706
G01 F15 Z-0.001
G03 F300 X-1.15735 Y-0.746604 I2.194333 J1.608708
G03 X-0.648177 Y-1.187178 I1.615011 J1.35196
G03 X-0.172514 Y-1.371325 I0.736007 J1.194744
G03 X0.575221 Y-1.269653 I0.214895 J1.21998
G03 X0.900641 Y-1.075662 I-0.848624 J1.793506
G03 X1.186638 Y-0.827122 I-1.574474 J2.100578
G03 X1.369388 Y-0.628673 I-3.398123 J3.312692
G00 Z0.125
G00 X-1.411634 Y-0.681153
G01 F15 Z-0.001
G03 F300 X-1.264561 Y-0.645667 I0.037611 J0.166635
G03 X-1.226137 Y-0.57863 I-0.100994 J0.102419
G03 X-1.217786 Y-0.501712 I-0.265906 J0.067781
G00 Z0.125
M05
M30
