(/home/cs/eagle/ulp/pcb-gcode.ulp)
(Copyright 2005 - 2009 by John Johnson)
(See readme.txt for licensing terms.)
(This file generated from the board:)
(/home/cs/eagle/pov/pov.brd)
(Current profile is .../eagle/ulp/profiles/generic.pp  )
(This file generated 14.04.10 20:13)
(Settings from pcb-machine.h)
(  Tool Size)
(0.2000 )
(Z Axis Settings)
(  High     Up        Down     Drill)
(12.0000 	1.5000 	-0.1778 	-0.8128 )
(spindle on time = 3.0000)
(milling depth = -0.2540)
(text depth = -0.1270)
(tool change at 0.0000 0.0000 17.0000 )
(feed rate xy = F1500.00 )
(feed rate z  = F375.00 )
(Settings from pcb-defaults.h)
(Default isolate = 0.0254)
(isolate max = 0.5080)
(isolate step = 0.1700)
(Generated bottom outlines, bottom drill, )
(Unit of measure: mm)
(Metric Mode)
G21
(Absolute Coordinates)
G90
G92 X0 Y0 Z0 (set zero)
G00 X0.0000 Y0.0000 
M03
G04 P3.000000
G00 Z1.5000 
G00 X-15.6286 Y18.8159 
G01 Z-0.1778 F375.00 
G01 X-15.6286 Y19.4134 F1500.00 
G01 X-15.8404 Y19.6252 
G01 X-16.6496 Y19.6252 
G01 X-16.6496 Y18.6041 
G01 X-15.8404 Y18.6041 
G01 X-15.6286 Y18.8159 
G00 Z1.5000 
G00 X-12.9297 Y19.6252 
G01 Z-0.1778 F375.00 
G01 X-13.1415 Y19.4134 F1500.00 
G01 X-13.1415 Y17.7991 
G01 X-12.9297 Y17.5873 
G01 X-12.3323 Y17.5873 
G01 X-12.1205 Y17.7991 
G01 X-12.1205 Y19.4134 
G01 X-12.3323 Y19.6252 
G01 X-12.9297 Y19.6252 
G00 Z1.5000 
G00 X-17.0181 Y45.3911 
G01 Z-0.1778 F375.00 
G01 X-16.9432 Y45.3479 F1500.00 
G01 X-16.8820 Y45.2867 
G01 X-16.3738 Y44.7785 
G01 X-14.3253 Y44.7785 
G01 X-14.4017 Y44.8220 
G01 X-14.4629 Y44.8832 
G01 X-14.5061 Y44.9581 
G01 X-14.5285 Y45.0417 
G01 X-14.5285 Y45.3914 
G01 X-17.0195 Y45.3914 
G00 Z1.5000 
G00 X-17.5257 Y46.6745 
G01 Z-0.1778 F375.00 
G01 X-17.5257 Y47.3254 F1500.00 
G01 X-17.0654 Y47.7857 
G01 X-16.4145 Y47.7857 
G01 X-15.9542 Y47.3254 
G01 X-15.9542 Y46.6745 
G01 X-16.4145 Y46.2142 
G01 X-17.0654 Y46.2142 
G01 X-17.5257 Y46.6745 
G00 Z1.5000 
G00 X-53.8993 Y39.8520 
G01 Z-0.1778 F375.00 
G01 X-55.5982 Y39.8520 F1500.00 
G01 X-55.7696 Y39.8861 
G01 X-55.9311 Y39.9530 
G01 X-56.0764 Y40.0501 
G01 X-56.2000 Y40.1737 
G01 X-56.2971 Y40.3190 
G01 X-56.3640 Y40.4805 
G01 X-56.3981 Y40.6519 
G01 X-56.3981 Y40.8268 
G01 X-56.3640 Y40.9982 
G01 X-56.2971 Y41.1597 
G01 X-56.2000 Y41.3050 
G01 X-56.0764 Y41.4286 
G01 X-55.9311 Y41.5257 
G01 X-55.7696 Y41.5926 
G01 X-55.5982 Y41.6267 
G01 X-53.8993 Y41.6267 
G01 X-53.7279 Y41.5926 
G01 X-53.5664 Y41.5257 
G01 X-53.4211 Y41.4286 
G01 X-53.2975 Y41.3050 
G01 X-53.2004 Y41.1597 
G01 X-53.1335 Y40.9982 
G01 X-53.0994 Y40.8268 
G01 X-53.0994 Y40.6519 
G01 X-53.1335 Y40.4805 
G01 X-53.2004 Y40.3190 
G01 X-53.2975 Y40.1737 
G01 X-53.4211 Y40.0501 
G01 X-53.5664 Y39.9530 
G01 X-53.7279 Y39.8861 
G01 X-53.8993 Y39.8520 
G00 Z1.5000 
G00 X-60.4017 Y44.3732 
G01 Z-0.1778 F375.00 
G01 X-62.1006 Y44.3732 F1500.00 
G01 X-62.2720 Y44.4073 
G01 X-62.4335 Y44.4742 
G01 X-62.5788 Y44.5713 
G01 X-62.7024 Y44.6949 
G01 X-62.7995 Y44.8402 
G01 X-62.8664 Y45.0017 
G01 X-62.9005 Y45.1731 
G01 X-62.9005 Y45.3480 
G01 X-62.8664 Y45.5194 
G01 X-62.7995 Y45.6809 
G01 X-62.7024 Y45.8262 
G01 X-62.5788 Y45.9498 
G01 X-62.4335 Y46.0469 
G01 X-62.2720 Y46.1138 
G01 X-62.1006 Y46.1479 
G01 X-60.4017 Y46.1479 
G01 X-60.2303 Y46.1138 
G01 X-60.0688 Y46.0469 
G01 X-59.9235 Y45.9498 
G01 X-59.8677 Y45.8939 
G01 X-56.1322 Y45.8939 
G01 X-56.0764 Y45.9498 
G01 X-55.9311 Y46.0469 
G01 X-55.7696 Y46.1138 
G01 X-55.5982 Y46.1479 
G01 X-54.7571 Y46.1479 
G01 X-51.6131 Y49.2919 
G01 X-51.5094 Y49.3612 
G01 X-51.3941 Y49.4090 
G01 X-51.2718 Y49.4333 
G01 X-51.1469 Y49.4333 
G01 X-12.8375 Y49.4333 
G01 X-12.7152 Y49.4090 
G01 X-12.5999 Y49.3612 
G01 X-12.4962 Y49.2919 
G01 X-12.4080 Y49.2037 
G01 X-12.3387 Y49.1000 
G01 X-12.2909 Y48.9847 
G01 X-12.2666 Y48.8624 
G01 X-12.2666 Y48.7375 
G01 X-12.2909 Y48.6152 
G01 X-12.3387 Y48.4999 
G01 X-12.4080 Y48.3962 
G01 X-12.4962 Y48.3080 
G01 X-12.5714 Y48.2578 
G01 X-12.5714 Y46.1285 
G01 X-9.5617 Y46.1285 
G01 X-9.4781 Y46.1061 
G01 X-9.4032 Y46.0629 
G01 X-9.3420 Y46.0017 
G01 X-7.3570 Y44.0167 
G01 X-7.3138 Y43.9418 
G01 X-7.2914 Y43.8582 
G01 X-7.2914 Y43.7717 
G01 X-7.2914 Y38.6917 
G01 X-7.3138 Y38.6081 
G01 X-7.3570 Y38.5332 
G01 X-7.4182 Y38.4720 
G01 X-9.8314 Y36.0588 
G01 X-9.8314 Y33.6117 
G01 X-9.8538 Y33.5281 
G01 X-9.8970 Y33.4532 
G01 X-9.9582 Y33.3920 
G01 X-10.6132 Y32.7370 
G01 X-10.6881 Y32.6938 
G01 X-10.7717 Y32.6714 
G01 X-10.8582 Y32.6714 
G01 X-12.4578 Y32.6714 
G01 X-12.5080 Y32.5962 
G01 X-12.5962 Y32.5080 
G01 X-12.6999 Y32.4387 
G01 X-12.8152 Y32.3909 
G01 X-12.9375 Y32.3666 
G01 X-13.0624 Y32.3666 
G01 X-13.1847 Y32.3909 
G01 X-13.3000 Y32.4387 
G01 X-13.4037 Y32.5080 
G01 X-14.4619 Y33.5662 
G01 X-14.5312 Y33.6699 
G01 X-14.5628 Y33.7462 
G01 X-14.5803 Y33.7636 
G01 X-14.6663 Y33.8923 
G01 X-14.7255 Y34.0353 
G01 X-14.7557 Y34.1871 
G01 X-14.7557 Y35.6628 
G01 X-14.7255 Y35.8146 
G01 X-14.6663 Y35.9576 
G01 X-14.5803 Y36.0863 
G01 X-14.4709 Y36.1957 
G01 X-14.3422 Y36.2817 
G01 X-14.1992 Y36.3409 
G01 X-14.0474 Y36.3711 
G01 X-13.8925 Y36.3711 
G01 X-13.7407 Y36.3409 
G01 X-13.5977 Y36.2817 
G01 X-13.4690 Y36.1957 
G01 X-13.3596 Y36.0863 
G01 X-13.2736 Y35.9576 
G01 X-13.2144 Y35.8146 
G01 X-13.1842 Y35.6628 
G01 X-13.1842 Y34.1871 
G01 X-13.2020 Y34.0977 
G01 X-12.5080 Y33.4037 
G01 X-12.4578 Y33.3285 
G01 X-10.9511 Y33.3285 
G01 X-10.4885 Y33.7911 
G01 X-10.4885 Y36.1517 
G01 X-10.4885 Y36.2382 
G01 X-10.4661 Y36.3218 
G01 X-10.4229 Y36.3967 
G01 X-7.9485 Y38.8711 
G01 X-7.9485 Y43.6788 
G01 X-9.7411 Y45.4714 
G01 X-12.8567 Y45.4714 
G01 X-12.9432 Y45.4714 
G01 X-13.0268 Y45.4938 
G01 X-13.1017 Y45.5370 
G01 X-13.1629 Y45.5982 
G01 X-13.2061 Y45.6731 
G01 X-13.2285 Y45.7567 
G01 X-13.2285 Y48.1666 
G01 X-50.9470 Y48.1666 
G01 X-53.2935 Y45.8201 
G01 X-53.2004 Y45.6809 
G01 X-53.1335 Y45.5194 
G01 X-53.0994 Y45.3480 
G01 X-53.0994 Y45.1731 
G01 X-53.1335 Y45.0017 
G01 X-53.2004 Y44.8402 
G01 X-53.2975 Y44.6949 
G01 X-53.4211 Y44.5713 
G01 X-53.5664 Y44.4742 
G01 X-53.7279 Y44.4073 
G01 X-53.8993 Y44.3732 
G01 X-55.5982 Y44.3732 
G01 X-55.7696 Y44.4073 
G01 X-55.9311 Y44.4742 
G01 X-56.0764 Y44.5713 
G01 X-56.1322 Y44.6272 
G01 X-59.8677 Y44.6272 
G01 X-59.9235 Y44.5713 
G01 X-60.0688 Y44.4742 
G01 X-60.2303 Y44.4073 
G01 X-60.4017 Y44.3732 
G00 Z1.5000 
G00 X-60.4017 Y39.8520 
G01 Z-0.1778 F375.00 
G01 X-62.1006 Y39.8520 F1500.00 
G01 X-62.2720 Y39.8861 
G01 X-62.4335 Y39.9530 
G01 X-62.5788 Y40.0501 
G01 X-62.7024 Y40.1737 
G01 X-62.7995 Y40.3190 
G01 X-62.8664 Y40.4805 
G01 X-62.9005 Y40.6519 
G01 X-62.9005 Y40.8268 
G01 X-62.8664 Y40.9982 
G01 X-62.7995 Y41.1597 
G01 X-62.7024 Y41.3050 
G01 X-62.5788 Y41.4286 
G01 X-62.4335 Y41.5257 
G01 X-62.2720 Y41.5926 
G01 X-62.1006 Y41.6267 
G01 X-60.4017 Y41.6267 
G01 X-60.2303 Y41.5926 
G01 X-60.0688 Y41.5257 
G01 X-59.9235 Y41.4286 
G01 X-59.7999 Y41.3050 
G01 X-59.7028 Y41.1597 
G01 X-59.6359 Y40.9982 
G01 X-59.6018 Y40.8268 
G01 X-59.6018 Y40.6519 
G01 X-59.6359 Y40.4805 
G01 X-59.7028 Y40.3190 
G01 X-59.7999 Y40.1737 
G01 X-59.9235 Y40.0501 
G01 X-60.0688 Y39.9530 
G01 X-60.2303 Y39.8861 
G01 X-60.4017 Y39.8520 
G00 Z1.5000 
G00 X-20.5954 Y41.7857 
G01 Z-0.1778 F375.00 
G01 X-19.9445 Y41.7857 F1500.00 
G01 X-19.4842 Y41.3254 
G01 X-19.4842 Y40.6745 
G01 X-19.9445 Y40.2142 
G01 X-20.5954 Y40.2142 
G01 X-20.7478 Y40.3666 
G01 X-24.0280 Y40.3666 
G01 X-21.0980 Y37.4367 
G01 X-21.0287 Y37.3330 
G01 X-20.9809 Y37.2177 
G01 X-20.9566 Y37.0954 
G01 X-20.9566 Y36.9705 
G01 X-20.9566 Y36.0519 
G01 X-20.8936 Y35.9576 
G01 X-20.8344 Y35.8146 
G01 X-20.8042 Y35.6628 
G01 X-20.8042 Y34.1871 
G01 X-20.8344 Y34.0353 
G01 X-20.8936 Y33.8923 
G01 X-20.9796 Y33.7636 
G01 X-21.0890 Y33.6542 
G01 X-21.2177 Y33.5682 
G01 X-21.3607 Y33.5090 
G01 X-21.5125 Y33.4788 
G01 X-21.6674 Y33.4788 
G01 X-21.8192 Y33.5090 
G01 X-21.9622 Y33.5682 
G01 X-22.0909 Y33.6542 
G01 X-22.2003 Y33.7636 
G01 X-22.2863 Y33.8923 
G01 X-22.3455 Y34.0353 
G01 X-22.3757 Y34.1871 
G01 X-22.3757 Y35.6628 
G01 X-22.3455 Y35.8146 
G01 X-22.2863 Y35.9576 
G01 X-22.2233 Y36.0519 
G01 X-22.2233 Y36.7706 
G01 X-25.6249 Y40.1723 
G01 X-25.7362 Y40.1944 
G01 X-25.8792 Y40.2536 
G01 X-26.0079 Y40.3396 
G01 X-26.1173 Y40.4490 
G01 X-26.2033 Y40.5777 
G01 X-26.2625 Y40.7207 
G01 X-26.2927 Y40.8725 
G01 X-26.2927 Y41.0274 
G01 X-26.2625 Y41.1792 
G01 X-26.2033 Y41.3222 
G01 X-26.1173 Y41.4509 
G01 X-26.0079 Y41.5603 
G01 X-25.8792 Y41.6463 
G01 X-25.7362 Y41.7055 
G01 X-25.5844 Y41.7357 
G01 X-25.4295 Y41.7357 
G01 X-25.2777 Y41.7055 
G01 X-25.1347 Y41.6463 
G01 X-25.1153 Y41.6333 
G01 X-20.7478 Y41.6333 
G01 X-20.5954 Y41.7857 
G00 Z1.5000 
G00 X-36.5157 Y40.6745 
G01 Z-0.1778 F375.00 
G01 X-36.5157 Y41.3254 F1500.00 
G01 X-36.0554 Y41.7857 
G01 X-35.4045 Y41.7857 
G01 X-35.2021 Y41.5833 
G01 X-30.7994 Y41.5833 
G01 X-30.7052 Y41.6463 
G01 X-30.5622 Y41.7055 
G01 X-30.4104 Y41.7357 
G01 X-30.2555 Y41.7357 
G01 X-30.1037 Y41.7055 
G01 X-29.9607 Y41.6463 
G01 X-29.9413 Y41.6333 
G01 X-27.9375 Y41.6333 
G01 X-27.8152 Y41.6090 
G01 X-27.6999 Y41.5612 
G01 X-27.5962 Y41.4919 
G01 X-27.5080 Y41.4037 
G01 X-23.6380 Y37.5337 
G01 X-23.5687 Y37.4300 
G01 X-23.5209 Y37.3147 
G01 X-23.4966 Y37.1924 
G01 X-23.4966 Y37.0675 
G01 X-23.4966 Y36.0518 
G01 X-23.4336 Y35.9576 
G01 X-23.3744 Y35.8146 
G01 X-23.3442 Y35.6628 
G01 X-23.3442 Y34.1871 
G01 X-23.3744 Y34.0353 
G01 X-23.4336 Y33.8923 
G01 X-23.5196 Y33.7636 
G01 X-23.6290 Y33.6542 
G01 X-23.7577 Y33.5682 
G01 X-23.9007 Y33.5090 
G01 X-24.0525 Y33.4788 
G01 X-24.2074 Y33.4788 
G01 X-24.3592 Y33.5090 
G01 X-24.5022 Y33.5682 
G01 X-24.6309 Y33.6542 
G01 X-24.7403 Y33.7636 
G01 X-24.8263 Y33.8923 
G01 X-24.8855 Y34.0353 
G01 X-24.9157 Y34.1871 
G01 X-24.9157 Y35.6628 
G01 X-24.8855 Y35.8146 
G01 X-24.8263 Y35.9576 
G01 X-24.7633 Y36.0518 
G01 X-24.7633 Y36.8676 
G01 X-28.2623 Y40.3666 
G01 X-29.8050 Y40.3666 
G01 X-29.8320 Y40.3396 
G01 X-29.9607 Y40.2536 
G01 X-30.1037 Y40.1944 
G01 X-30.2555 Y40.1642 
G01 X-30.4104 Y40.1642 
G01 X-30.5622 Y40.1944 
G01 X-30.7052 Y40.2536 
G01 X-30.7994 Y40.3166 
G01 X-35.3021 Y40.3166 
G01 X-35.4045 Y40.2142 
G01 X-36.0554 Y40.2142 
G01 X-36.5157 Y40.6745 
G00 Z1.5000 
G00 X-31.2657 Y9.1995 
G01 Z-0.1778 F375.00 
G01 X-31.2657 Y9.8504 F1500.00 
G01 X-30.8054 Y10.3107 
G01 X-30.1545 Y10.3107 
G01 X-30.0022 Y10.1583 
G01 X-26.9323 Y10.1583 
G01 X-23.2637 Y13.8269 
G01 X-23.1600 Y13.8962 
G01 X-23.0447 Y13.9440 
G01 X-22.9224 Y13.9683 
G01 X-22.7975 Y13.9683 
G01 X-22.3006 Y13.9683 
G01 X-21.9836 Y14.2853 
G01 X-21.1963 Y14.2853 
G01 X-20.6396 Y13.7286 
G01 X-20.6396 Y12.9413 
G01 X-21.1963 Y12.3846 
G01 X-21.9836 Y12.3846 
G01 X-22.3006 Y12.7016 
G01 X-22.5976 Y12.7016 
G01 X-26.2662 Y9.0330 
G01 X-26.3699 Y8.9637 
G01 X-26.4852 Y8.9159 
G01 X-26.6075 Y8.8916 
G01 X-26.7324 Y8.8916 
G01 X-30.0022 Y8.8916 
G01 X-30.1545 Y8.7392 
G01 X-30.8054 Y8.7392 
G01 X-31.2657 Y9.1995 
G00 Z1.5000 
G00 X-23.6457 Y9.1995 
G01 Z-0.1778 F375.00 
G01 X-23.6457 Y9.8504 F1500.00 
G01 X-23.1854 Y10.3107 
G01 X-22.9699 Y10.3107 
G01 X-19.4537 Y13.8269 
G01 X-19.3500 Y13.8962 
G01 X-19.2347 Y13.9440 
G01 X-19.1124 Y13.9683 
G01 X-18.9875 Y13.9683 
G01 X-17.2206 Y13.9683 
G01 X-16.9036 Y14.2853 
G01 X-16.1163 Y14.2853 
G01 X-15.5596 Y13.7286 
G01 X-15.5596 Y12.9413 
G01 X-16.1163 Y12.3846 
G01 X-16.9036 Y12.3846 
G01 X-17.2206 Y12.7016 
G01 X-18.7876 Y12.7016 
G01 X-22.0742 Y9.4150 
G01 X-22.0742 Y9.1995 
G01 X-22.5345 Y8.7392 
G01 X-23.1854 Y8.7392 
G01 X-23.6457 Y9.1995 
G00 Z1.5000 
G00 X-46.1136 Y14.2853 
G01 Z-0.1778 F375.00 
G01 X-45.3263 Y14.2853 F1500.00 
G01 X-44.7696 Y13.7286 
G01 X-44.7696 Y12.9413 
G01 X-45.3263 Y12.3846 
G01 X-46.1136 Y12.3846 
G01 X-46.4305 Y12.7016 
G01 X-56.8876 Y12.7016 
G01 X-60.1742 Y9.4150 
G01 X-60.1742 Y9.1995 
G01 X-60.6345 Y8.7392 
G01 X-61.2854 Y8.7392 
G01 X-61.7457 Y9.1995 
G01 X-61.7457 Y9.8504 
G01 X-61.2854 Y10.3107 
G01 X-61.0699 Y10.3107 
G01 X-57.5537 Y13.8269 
G01 X-57.4500 Y13.8962 
G01 X-57.3347 Y13.9440 
G01 X-57.2124 Y13.9683 
G01 X-57.0875 Y13.9683 
G01 X-46.4305 Y13.9683 
G01 X-46.1136 Y14.2853 
G00 Z1.5000 
G00 X-46.1136 Y24.4453 
G01 Z-0.1778 F375.00 
G01 X-45.3263 Y24.4453 F1500.00 
G01 X-44.7696 Y23.8886 
G01 X-44.7696 Y23.1013 
G01 X-45.3263 Y22.5446 
G01 X-46.1136 Y22.5446 
G01 X-46.4305 Y22.8616 
G01 X-49.5924 Y22.8616 
G01 X-49.7147 Y22.8859 
G01 X-49.8300 Y22.9337 
G01 X-49.9337 Y23.0030 
G01 X-50.0219 Y23.0912 
G01 X-51.0154 Y24.0848 
G01 X-51.2332 Y23.8670 
G01 X-51.3081 Y23.8238 
G01 X-51.3917 Y23.8014 
G01 X-51.4782 Y23.8014 
G01 X-53.3832 Y23.8014 
G01 X-53.4668 Y23.8238 
G01 X-53.5417 Y23.8670 
G01 X-53.6029 Y23.9282 
G01 X-57.2861 Y27.6114 
G01 X-62.1867 Y27.6114 
G01 X-62.2732 Y27.6114 
G01 X-62.3568 Y27.6338 
G01 X-62.4317 Y27.6770 
G01 X-64.5016 Y29.7470 
G01 X-64.5629 Y29.8082 
G01 X-64.6061 Y29.8831 
G01 X-64.6285 Y29.9667 
G01 X-64.6285 Y32.1767 
G01 X-64.6285 Y32.2632 
G01 X-64.6061 Y32.3468 
G01 X-64.5629 Y32.4217 
G01 X-60.5267 Y36.4579 
G01 X-60.4518 Y36.5011 
G01 X-60.3682 Y36.5235 
G01 X-60.2817 Y36.5235 
G01 X-33.1561 Y36.5235 
G01 X-32.5867 Y37.0929 
G01 X-32.5118 Y37.1361 
G01 X-60.8238 Y37.1364 
G01 X-65.4714 Y32.4888 
G01 X-65.4714 Y29.8361 
G01 X-58.3483 Y22.7129 
G01 X-57.5538 Y21.9185 
G01 X-43.7221 Y21.9185 
G01 X-43.6719 Y21.9937 
G01 X-42.2253 Y23.4403 
G01 X-42.2253 Y23.7065 
G01 X-43.4967 Y25.4016 
G01 X-47.6384 Y25.4016 
G01 X-47.8924 Y25.1476 
G01 X-48.6275 Y25.1476 
G01 X-49.1473 Y25.6674 
G01 X-49.1473 Y26.4025 
G01 X-48.6275 Y26.9223 
G01 X-47.8924 Y26.9223 
G01 X-47.6384 Y26.6683 
G01 X-43.1979 Y26.6683 
G01 X-43.1521 Y26.6708 
G01 X-43.1347 Y26.6683 
G01 X-43.1175 Y26.6683 
G01 X-43.0732 Y26.6594 
G01 X-43.0286 Y26.6531 
G01 X-43.0125 Y26.6474 
G01 X-42.9952 Y26.6440 
G01 X-42.9531 Y26.6265 
G01 X-42.9109 Y26.6117 
G01 X-42.8960 Y26.6028 
G01 X-42.8799 Y26.5962 
G01 X-42.8427 Y26.5713 
G01 X-42.8036 Y26.5482 
G01 X-42.7905 Y26.5364 
G01 X-42.7762 Y26.5269 
G01 X-42.7446 Y26.4952 
G01 X-42.7107 Y26.4649 
G01 X-42.7002 Y26.4509 
G01 X-42.6880 Y26.4387 
G01 X-42.6631 Y26.4014 
G01 X-41.1960 Y24.4453 
G01 X-40.8813 Y24.4453 
G01 X-40.3246 Y23.8886 
G01 X-40.3246 Y23.1013 
G01 X-40.8813 Y22.5446 
G01 X-41.3296 Y22.5446 
G01 X-42.7762 Y21.0980 
G01 X-42.8799 Y21.0287 
G01 X-42.9952 Y20.9809 
G01 X-43.1175 Y20.9566 
G01 X-43.2424 Y20.9566 
G01 X-43.3647 Y20.9809 
G01 X-43.4800 Y21.0287 
G01 X-43.5837 Y21.0980 
G01 X-43.6719 Y21.1862 
G01 X-43.7221 Y21.2614 
G01 X-57.6467 Y21.2614 
G01 X-57.7332 Y21.2614 
G01 X-57.8168 Y21.2838 
G01 X-57.8917 Y21.3270 
G01 X-58.8129 Y22.2482 
G01 X-66.0017 Y29.4370 
G01 X-66.0629 Y29.4982 
G01 X-66.1061 Y29.5731 
G01 X-66.1285 Y29.6567 
G01 X-66.1285 Y32.5817 
G01 X-66.1285 Y32.6682 
G01 X-66.1061 Y32.7518 
G01 X-66.0629 Y32.8267 
G01 X-61.1617 Y37.7279 
G01 X-61.0868 Y37.7711 
G01 X-61.0032 Y37.7935 
G01 X-60.9167 Y37.7935 
G01 X-28.5317 Y37.7935 
G01 X-28.4481 Y37.7711 
G01 X-28.3732 Y37.7279 
G01 X-28.3120 Y37.6667 
G01 X-27.6770 Y37.0317 
G01 X-27.6338 Y36.9568 
G01 X-27.6114 Y36.8732 
G01 X-27.6114 Y36.7867 
G01 X-27.6114 Y33.1561 
G01 X-26.4070 Y31.9517 
G01 X-26.3638 Y31.8768 
G01 X-26.3414 Y31.7932 
G01 X-26.3414 Y31.7067 
G01 X-26.3414 Y28.6797 
G01 X-26.2977 Y28.6617 
G01 X-26.1690 Y28.5757 
G01 X-26.0596 Y28.4663 
G01 X-25.9736 Y28.3376 
G01 X-25.9144 Y28.1946 
G01 X-25.8842 Y28.0428 
G01 X-25.8842 Y26.5671 
G01 X-25.9144 Y26.4153 
G01 X-25.9736 Y26.2723 
G01 X-26.0596 Y26.1436 
G01 X-26.1690 Y26.0342 
G01 X-26.2977 Y25.9482 
G01 X-26.4407 Y25.8890 
G01 X-26.5925 Y25.8588 
G01 X-26.7474 Y25.8588 
G01 X-26.8992 Y25.8890 
G01 X-27.0422 Y25.9482 
G01 X-27.1709 Y26.0342 
G01 X-27.2803 Y26.1436 
G01 X-27.3663 Y26.2723 
G01 X-27.4255 Y26.4153 
G01 X-27.4557 Y26.5671 
G01 X-27.4557 Y28.0428 
G01 X-27.4255 Y28.1946 
G01 X-27.3663 Y28.3376 
G01 X-27.2803 Y28.4663 
G01 X-27.1709 Y28.5757 
G01 X-27.0422 Y28.6617 
G01 X-26.9985 Y28.6797 
G01 X-26.9985 Y31.6138 
G01 X-28.1417 Y32.7570 
G01 X-28.2029 Y32.8182 
G01 X-28.2461 Y32.8931 
G01 X-28.2685 Y32.9767 
G01 X-28.2685 Y36.6938 
G01 X-28.7111 Y37.1364 
G01 X-30.9894 Y37.1364 
G01 X-30.9132 Y37.0929 
G01 X-30.8520 Y37.0317 
G01 X-30.2170 Y36.3967 
G01 X-30.1738 Y36.3218 
G01 X-30.1514 Y36.2382 
G01 X-30.1514 Y36.1517 
G01 X-30.1514 Y33.1561 
G01 X-28.9470 Y31.9517 
G01 X-28.9038 Y31.8768 
G01 X-28.8814 Y31.7932 
G01 X-28.8814 Y31.7067 
G01 X-28.8814 Y28.6797 
G01 X-28.8377 Y28.6617 
G01 X-28.7090 Y28.5757 
G01 X-28.5996 Y28.4663 
G01 X-28.5136 Y28.3376 
G01 X-28.4544 Y28.1946 
G01 X-28.4242 Y28.0428 
G01 X-28.4242 Y26.5671 
G01 X-28.4544 Y26.4153 
G01 X-28.5136 Y26.2723 
G01 X-28.5996 Y26.1436 
G01 X-28.7090 Y26.0342 
G01 X-28.8377 Y25.9482 
G01 X-28.9807 Y25.8890 
G01 X-29.1325 Y25.8588 
G01 X-29.2874 Y25.8588 
G01 X-29.4392 Y25.8890 
G01 X-29.5822 Y25.9482 
G01 X-29.7109 Y26.0342 
G01 X-29.8203 Y26.1436 
G01 X-29.9063 Y26.2723 
G01 X-29.9655 Y26.4153 
G01 X-29.9957 Y26.5671 
G01 X-29.9957 Y28.0428 
G01 X-29.9655 Y28.1946 
G01 X-29.9063 Y28.3376 
G01 X-29.8203 Y28.4663 
G01 X-29.7109 Y28.5757 
G01 X-29.5822 Y28.6617 
G01 X-29.5385 Y28.6797 
G01 X-29.5385 Y31.6138 
G01 X-30.6817 Y32.7570 
G01 X-30.7429 Y32.8182 
G01 X-30.7861 Y32.8931 
G01 X-30.8085 Y32.9767 
G01 X-30.8085 Y36.0588 
G01 X-31.2511 Y36.5014 
G01 X-32.2488 Y36.5014 
G01 X-32.8182 Y35.9320 
G01 X-32.8931 Y35.8888 
G01 X-32.9767 Y35.8664 
G01 X-33.0632 Y35.8664 
G01 X-60.1888 Y35.8664 
G01 X-63.9714 Y32.0838 
G01 X-63.9714 Y30.1460 
G01 X-62.0938 Y28.2685 
G01 X-57.1932 Y28.2685 
G01 X-57.1067 Y28.2685 
G01 X-57.0231 Y28.2461 
G01 X-56.9482 Y28.2029 
G01 X-53.2039 Y24.4585 
G01 X-51.5711 Y24.4585 
G01 X-51.4157 Y24.6139 
G01 X-51.4333 Y24.7025 
G01 X-51.4333 Y24.8274 
G01 X-51.4333 Y25.4135 
G01 X-51.6873 Y25.6674 
G01 X-51.6873 Y26.4025 
G01 X-51.1675 Y26.9223 
G01 X-50.4324 Y26.9223 
G01 X-49.9126 Y26.4025 
G01 X-49.9126 Y25.6674 
G01 X-50.1666 Y25.4135 
G01 X-50.1666 Y25.0273 
G01 X-49.2676 Y24.1283 
G01 X-46.4305 Y24.1283 
G01 X-46.1136 Y24.4453 
G00 Z1.5000 
G00 X-37.7803 Y13.7286 
G01 Z-0.1778 F375.00 
G01 X-37.2236 Y14.2853 F1500.00 
G01 X-36.4363 Y14.2853 
G01 X-35.8796 Y13.7286 
G01 X-35.8796 Y12.9413 
G01 X-36.4363 Y12.3846 
G01 X-36.8847 Y12.3846 
G01 X-40.2362 Y9.0330 
G01 X-40.3399 Y8.9637 
G01 X-40.4552 Y8.9159 
G01 X-40.5775 Y8.8916 
G01 X-40.7024 Y8.8916 
G01 X-45.2422 Y8.8916 
G01 X-45.3945 Y8.7392 
G01 X-46.0454 Y8.7392 
G01 X-46.5057 Y9.1995 
G01 X-46.5057 Y9.8504 
G01 X-46.0454 Y10.3107 
G01 X-45.3945 Y10.3107 
G01 X-45.2422 Y10.1583 
G01 X-40.9023 Y10.1583 
G01 X-37.7803 Y13.2802 
G01 X-37.7803 Y13.7286 
G00 Z1.5000 
G00 X-37.7803 Y23.6461 
G01 Z-0.1778 F375.00 
G01 X-40.5314 Y26.9474 F1500.00 
G01 X-40.5472 Y26.9764 
G01 X-50.2082 Y26.9764 
G01 X-50.2918 Y26.9988 
G01 X-50.3667 Y27.0420 
G01 X-50.4279 Y27.1032 
G01 X-51.0123 Y27.6876 
G01 X-51.1675 Y27.6876 
G01 X-51.6873 Y28.2074 
G01 X-51.6873 Y28.9425 
G01 X-51.1675 Y29.4623 
G01 X-50.4324 Y29.4623 
G01 X-49.9126 Y28.9425 
G01 X-49.9126 Y28.2074 
G01 X-50.2577 Y27.8623 
G01 X-50.0288 Y27.6335 
G01 X-40.5478 Y27.6335 
G01 X-40.5368 Y27.6546 
G01 X-40.4583 Y27.7516 
G01 X-40.3625 Y27.8314 
G01 X-40.2529 Y27.8911 
G01 X-40.1338 Y27.9282 
G01 X-40.0098 Y27.9413 
G01 X-39.8854 Y27.9301 
G01 X-39.7658 Y27.8947 
G01 X-39.6553 Y27.8368 
G01 X-39.5583 Y27.7583 
G01 X-36.7976 Y24.4453 
G01 X-36.4363 Y24.4453 
G01 X-35.8796 Y23.8886 
G01 X-35.8796 Y23.1013 
G01 X-36.4363 Y22.5446 
G01 X-36.8846 Y22.5446 
G01 X-40.2362 Y19.1930 
G01 X-40.3399 Y19.1237 
G01 X-40.4552 Y19.0759 
G01 X-40.5775 Y19.0516 
G01 X-40.7024 Y19.0516 
G01 X-40.8247 Y19.0759 
G01 X-40.9400 Y19.1237 
G01 X-41.0437 Y19.1930 
G01 X-41.1319 Y19.2812 
G01 X-41.1821 Y19.3564 
G01 X-57.7417 Y19.3564 
G01 X-57.8282 Y19.3564 
G01 X-57.9118 Y19.3788 
G01 X-57.9867 Y19.4220 
G01 X-66.9017 Y28.3370 
G01 X-66.9629 Y28.3982 
G01 X-67.0061 Y28.4731 
G01 X-67.0285 Y28.5567 
G01 X-67.0285 Y34.6567 
G01 X-67.0285 Y34.7432 
G01 X-67.0061 Y34.8268 
G01 X-66.9629 Y34.9017 
G01 X-62.8667 Y38.9979 
G01 X-62.7918 Y39.0411 
G01 X-62.7082 Y39.0635 
G01 X-62.6217 Y39.0635 
G01 X-27.8967 Y39.0635 
G01 X-27.8131 Y39.0411 
G01 X-27.7382 Y38.9979 
G01 X-27.6770 Y38.9367 
G01 X-25.1370 Y36.3967 
G01 X-25.0938 Y36.3218 
G01 X-25.0714 Y36.2382 
G01 X-25.0714 Y36.1517 
G01 X-25.0714 Y32.5211 
G01 X-23.8670 Y31.3167 
G01 X-23.8238 Y31.2418 
G01 X-23.8014 Y31.1582 
G01 X-23.8014 Y31.0717 
G01 X-23.8014 Y28.6797 
G01 X-23.7577 Y28.6617 
G01 X-23.6290 Y28.5757 
G01 X-23.5196 Y28.4663 
G01 X-23.4336 Y28.3376 
G01 X-23.3744 Y28.1946 
G01 X-23.3442 Y28.0428 
G01 X-23.3442 Y26.5671 
G01 X-23.3744 Y26.4153 
G01 X-23.4336 Y26.2723 
G01 X-23.5196 Y26.1436 
G01 X-23.6290 Y26.0342 
G01 X-23.7577 Y25.9482 
G01 X-23.9007 Y25.8890 
G01 X-24.0525 Y25.8588 
G01 X-24.2074 Y25.8588 
G01 X-24.3592 Y25.8890 
G01 X-24.5022 Y25.9482 
G01 X-24.6309 Y26.0342 
G01 X-24.7403 Y26.1436 
G01 X-24.8263 Y26.2723 
G01 X-24.8855 Y26.4153 
G01 X-24.9157 Y26.5671 
G01 X-24.9157 Y28.0428 
G01 X-24.8855 Y28.1946 
G01 X-24.8263 Y28.3376 
G01 X-24.7403 Y28.4663 
G01 X-24.6309 Y28.5757 
G01 X-24.5022 Y28.6617 
G01 X-24.4585 Y28.6797 
G01 X-24.4585 Y30.9788 
G01 X-25.6017 Y32.1220 
G01 X-25.6629 Y32.1832 
G01 X-25.7061 Y32.2581 
G01 X-25.7285 Y32.3417 
G01 X-25.7285 Y36.0588 
G01 X-28.0761 Y38.4064 
G01 X-62.5288 Y38.4064 
G01 X-66.3714 Y34.5638 
G01 X-66.3714 Y28.7361 
G01 X-57.6488 Y20.0135 
G01 X-41.1821 Y20.0135 
G01 X-41.1319 Y20.0887 
G01 X-37.7803 Y23.4403 
G01 X-37.7803 Y23.6461 
G00 Z1.5000 
G00 X-27.6203 Y13.7286 
G01 Z-0.1778 F375.00 
G01 X-27.0636 Y14.2853 F1500.00 
G01 X-26.2763 Y14.2853 
G01 X-25.7196 Y13.7286 
G01 X-25.7196 Y12.9413 
G01 X-26.2763 Y12.3846 
G01 X-26.7247 Y12.3846 
G01 X-28.0830 Y11.0262 
G01 X-28.1712 Y10.9380 
G01 X-28.2749 Y10.8687 
G01 X-28.3902 Y10.8209 
G01 X-28.5125 Y10.7966 
G01 X-30.8526 Y10.7966 
G01 X-32.6162 Y9.0330 
G01 X-32.7199 Y8.9637 
G01 X-32.8352 Y8.9159 
G01 X-32.9575 Y8.8916 
G01 X-33.0824 Y8.8916 
G01 X-37.6222 Y8.8916 
G01 X-37.7745 Y8.7392 
G01 X-38.4254 Y8.7392 
G01 X-38.8857 Y9.1995 
G01 X-38.8857 Y9.8504 
G01 X-38.4254 Y10.3107 
G01 X-37.7745 Y10.3107 
G01 X-37.6222 Y10.1583 
G01 X-33.2823 Y10.1583 
G01 X-31.5187 Y11.9219 
G01 X-31.4150 Y11.9912 
G01 X-31.2997 Y12.0390 
G01 X-31.1774 Y12.0633 
G01 X-31.0525 Y12.0633 
G01 X-28.8373 Y12.0633 
G01 X-27.6203 Y13.2802 
G01 X-27.6203 Y13.7286 
G00 Z1.5000 
G00 X-22.5403 Y23.1013 
G01 Z-0.1778 F375.00 
G01 X-22.5403 Y23.8886 F1500.00 
G01 X-21.9836 Y24.4453 
G01 X-21.5352 Y24.4453 
G01 X-19.7310 Y26.2495 
G01 X-19.7463 Y26.2723 
G01 X-19.8055 Y26.4153 
G01 X-19.8357 Y26.5671 
G01 X-19.8357 Y28.0428 
G01 X-19.8055 Y28.1946 
G01 X-19.7463 Y28.3376 
G01 X-19.6603 Y28.4663 
G01 X-19.5509 Y28.5757 
G01 X-19.4222 Y28.6617 
G01 X-19.2792 Y28.7209 
G01 X-19.1274 Y28.7511 
G01 X-18.9725 Y28.7511 
G01 X-18.8207 Y28.7209 
G01 X-18.6777 Y28.6617 
G01 X-18.5490 Y28.5757 
G01 X-18.4396 Y28.4663 
G01 X-18.3536 Y28.3376 
G01 X-18.2944 Y28.1946 
G01 X-18.2642 Y28.0428 
G01 X-18.2642 Y26.5671 
G01 X-18.2944 Y26.4153 
G01 X-18.3536 Y26.2723 
G01 X-18.4166 Y26.1781 
G01 X-18.4166 Y26.0974 
G01 X-18.4166 Y25.9725 
G01 X-18.4409 Y25.8502 
G01 X-18.4887 Y25.7349 
G01 X-18.5580 Y25.6312 
G01 X-20.6396 Y23.5497 
G01 X-20.6396 Y23.1013 
G01 X-21.1963 Y22.5446 
G01 X-21.9836 Y22.5446 
G01 X-22.5403 Y23.1013 
G00 Z1.5000 
G00 X-17.4603 Y23.1013 
G01 Z-0.1778 F375.00 
G01 X-17.4603 Y23.8886 F1500.00 
G01 X-17.1433 Y24.2056 
G01 X-17.1433 Y26.1781 
G01 X-17.2063 Y26.2723 
G01 X-17.2655 Y26.4153 
G01 X-17.2957 Y26.5671 
G01 X-17.2957 Y28.0428 
G01 X-17.2655 Y28.1946 
G01 X-17.2063 Y28.3376 
G01 X-17.1203 Y28.4663 
G01 X-17.0109 Y28.5757 
G01 X-16.8822 Y28.6617 
G01 X-16.7392 Y28.7209 
G01 X-16.5874 Y28.7511 
G01 X-16.4325 Y28.7511 
G01 X-16.2807 Y28.7209 
G01 X-16.1377 Y28.6617 
G01 X-16.0090 Y28.5757 
G01 X-15.8996 Y28.4663 
G01 X-15.8136 Y28.3376 
G01 X-15.7544 Y28.1946 
G01 X-15.7242 Y28.0428 
G01 X-15.7242 Y26.5671 
G01 X-15.7544 Y26.4153 
G01 X-15.8136 Y26.2723 
G01 X-15.8766 Y26.1781 
G01 X-15.8766 Y24.2056 
G01 X-15.5596 Y23.8886 
G01 X-15.5596 Y23.1013 
G01 X-16.1163 Y22.5446 
G01 X-16.9036 Y22.5446 
G01 X-17.4603 Y23.1013 
G00 Z1.5000 
G00 X-12.3803 Y13.7286 
G01 Z-0.1778 F375.00 
G01 X-11.8236 Y14.2853 F1500.00 
G01 X-11.0363 Y14.2853 
G01 X-10.4796 Y13.7286 
G01 X-10.4796 Y12.9413 
G01 X-11.0363 Y12.3846 
G01 X-11.4846 Y12.3846 
G01 X-14.4542 Y9.4150 
G01 X-14.4542 Y9.1995 
G01 X-14.9145 Y8.7392 
G01 X-15.5654 Y8.7392 
G01 X-16.0257 Y9.1995 
G01 X-16.0257 Y9.8504 
G01 X-15.5654 Y10.3107 
G01 X-15.3499 Y10.3107 
G01 X-12.3803 Y13.2803 
G01 X-12.3803 Y13.7286 
G00 Z1.5000 
G00 X-7.9454 Y7.7707 
G01 Z-0.1778 F375.00 
G01 X-7.7298 Y7.7707 F1500.00 
G01 X-4.7133 Y10.7873 
G01 X-4.7133 Y26.9426 
G01 X-4.9494 Y26.9426 
G01 X-5.1208 Y26.9767 
G01 X-5.2823 Y27.0436 
G01 X-5.4276 Y27.1407 
G01 X-5.5512 Y27.2643 
G01 X-5.6483 Y27.4096 
G01 X-5.7152 Y27.5711 
G01 X-5.7493 Y27.7425 
G01 X-5.7493 Y27.9174 
G01 X-5.7152 Y28.0888 
G01 X-5.6483 Y28.2503 
G01 X-5.5512 Y28.3956 
G01 X-5.4276 Y28.5192 
G01 X-5.2823 Y28.6163 
G01 X-5.1208 Y28.6832 
G01 X-4.9494 Y28.7173 
G01 X-3.2505 Y28.7173 
G01 X-3.0791 Y28.6832 
G01 X-2.9176 Y28.6163 
G01 X-2.7723 Y28.5192 
G01 X-2.6487 Y28.3956 
G01 X-2.5516 Y28.2503 
G01 X-2.4847 Y28.0888 
G01 X-2.4506 Y27.9174 
G01 X-2.4506 Y27.7425 
G01 X-2.4847 Y27.5711 
G01 X-2.5516 Y27.4096 
G01 X-2.6487 Y27.2643 
G01 X-2.7723 Y27.1407 
G01 X-2.9176 Y27.0436 
G01 X-3.0791 Y26.9767 
G01 X-3.2505 Y26.9426 
G01 X-3.4466 Y26.9426 
G01 X-3.4466 Y10.4625 
G01 X-3.4709 Y10.3402 
G01 X-3.5187 Y10.2249 
G01 X-3.5880 Y10.1212 
G01 X-3.6762 Y10.0330 
G01 X-6.8342 Y6.8751 
G01 X-6.8342 Y6.6595 
G01 X-7.2945 Y6.1992 
G01 X-7.9454 Y6.1992 
G01 X-8.0978 Y6.3516 
G01 X-14.7621 Y6.3516 
G01 X-14.9145 Y6.1992 
G01 X-15.5654 Y6.1992 
G01 X-15.7178 Y6.3516 
G01 X-22.3821 Y6.3516 
G01 X-22.5345 Y6.1992 
G01 X-23.1854 Y6.1992 
G01 X-23.3378 Y6.3516 
G01 X-30.0021 Y6.3516 
G01 X-30.1545 Y6.1992 
G01 X-30.8054 Y6.1992 
G01 X-30.9578 Y6.3516 
G01 X-37.6221 Y6.3516 
G01 X-37.7745 Y6.1992 
G01 X-38.4254 Y6.1992 
G01 X-38.5778 Y6.3516 
G01 X-45.2421 Y6.3516 
G01 X-45.3945 Y6.1992 
G01 X-46.0454 Y6.1992 
G01 X-46.1978 Y6.3516 
G01 X-52.8621 Y6.3516 
G01 X-53.0145 Y6.1992 
G01 X-53.6654 Y6.1992 
G01 X-53.8177 Y6.3516 
G01 X-60.4822 Y6.3516 
G01 X-60.6345 Y6.1992 
G01 X-61.2854 Y6.1992 
G01 X-61.7457 Y6.6595 
G01 X-61.7457 Y7.3104 
G01 X-61.2854 Y7.7707 
G01 X-60.6345 Y7.7707 
G01 X-60.4822 Y7.6183 
G01 X-53.8177 Y7.6183 
G01 X-53.6654 Y7.7707 
G01 X-53.0145 Y7.7707 
G01 X-52.8621 Y7.6183 
G01 X-46.1978 Y7.6183 
G01 X-46.0454 Y7.7707 
G01 X-45.3945 Y7.7707 
G01 X-45.2421 Y7.6183 
G01 X-38.5778 Y7.6183 
G01 X-38.4254 Y7.7707 
G01 X-37.7745 Y7.7707 
G01 X-37.6221 Y7.6183 
G01 X-30.9578 Y7.6183 
G01 X-30.8054 Y7.7707 
G01 X-30.1545 Y7.7707 
G01 X-30.0021 Y7.6183 
G01 X-23.3378 Y7.6183 
G01 X-23.1854 Y7.7707 
G01 X-22.5345 Y7.7707 
G01 X-22.3821 Y7.6183 
G01 X-15.7178 Y7.6183 
G01 X-15.5654 Y7.7707 
G01 X-14.9145 Y7.7707 
G01 X-14.7621 Y7.6183 
G01 X-8.0978 Y7.6183 
G01 X-7.9454 Y7.7707 
G00 Z1.5000 
G00 X-8.4057 Y9.1995 
G01 Z-0.1778 F375.00 
G01 X-8.4057 Y9.8504 F1500.00 
G01 X-7.9454 Y10.3107 
G01 X-7.7299 Y10.3107 
G01 X-6.9833 Y11.0573 
G01 X-6.9833 Y12.6243 
G01 X-7.3003 Y12.9413 
G01 X-7.3003 Y13.7286 
G01 X-6.7436 Y14.2853 
G01 X-5.9563 Y14.2853 
G01 X-5.3996 Y13.7286 
G01 X-5.3996 Y12.9413 
G01 X-5.7166 Y12.6243 
G01 X-5.7166 Y10.8574 
G01 X-5.7166 Y10.7325 
G01 X-5.7409 Y10.6102 
G01 X-5.7887 Y10.4949 
G01 X-5.8580 Y10.3912 
G01 X-6.8342 Y9.4150 
G01 X-6.8342 Y9.1995 
G01 X-7.2945 Y8.7392 
G01 X-7.9454 Y8.7392 
G01 X-8.4057 Y9.1995 
G00 Z1.5000 
G00 X-54.2273 Y25.6674 
G01 Z-0.1778 F375.00 
G01 X-54.2273 Y26.0266 F1500.00 
G01 X-57.0069 Y28.8062 
G01 X-57.0571 Y28.8814 
G01 X-62.0732 Y28.8814 
G01 X-62.1568 Y28.9038 
G01 X-62.2317 Y28.9470 
G01 X-62.2929 Y29.0082 
G01 X-63.5629 Y30.2782 
G01 X-63.6061 Y30.3531 
G01 X-63.6285 Y30.4367 
G01 X-63.6285 Y30.5232 
G01 X-63.6285 Y31.7455 
G01 X-63.6297 Y31.7825 
G01 X-63.6285 Y31.7876 
G01 X-63.6285 Y31.7932 
G01 X-63.6187 Y31.8295 
G01 X-63.6101 Y31.8668 
G01 X-63.6074 Y31.8717 
G01 X-63.6061 Y31.8768 
G01 X-63.5876 Y31.9088 
G01 X-63.5693 Y31.9431 
G01 X-63.5655 Y31.9470 
G01 X-63.5629 Y31.9517 
G01 X-63.5365 Y31.9780 
G01 X-60.5906 Y35.1219 
G01 X-60.5879 Y35.1267 
G01 X-60.5604 Y35.1541 
G01 X-60.5351 Y35.1812 
G01 X-60.5306 Y35.1839 
G01 X-60.5267 Y35.1879 
G01 X-60.4934 Y35.2070 
G01 X-60.4617 Y35.2268 
G01 X-60.4565 Y35.2283 
G01 X-60.4518 Y35.2311 
G01 X-60.4149 Y35.2409 
G01 X-60.3789 Y35.2519 
G01 X-60.3735 Y35.2520 
G01 X-60.3682 Y35.2535 
G01 X-60.3295 Y35.2535 
G01 X-60.2924 Y35.2547 
G01 X-60.2873 Y35.2535 
G01 X-32.5357 Y35.2535 
G01 X-32.5357 Y35.6628 
G01 X-32.5055 Y35.8146 
G01 X-32.4463 Y35.9576 
G01 X-32.3603 Y36.0863 
G01 X-32.2509 Y36.1957 
G01 X-32.1222 Y36.2817 
G01 X-31.9792 Y36.3409 
G01 X-31.8274 Y36.3711 
G01 X-31.6725 Y36.3711 
G01 X-31.5207 Y36.3409 
G01 X-31.3777 Y36.2817 
G01 X-31.2490 Y36.1957 
G01 X-31.1396 Y36.0863 
G01 X-31.0536 Y35.9576 
G01 X-30.9944 Y35.8146 
G01 X-30.9642 Y35.6628 
G01 X-30.9642 Y34.1871 
G01 X-30.9944 Y34.0353 
G01 X-31.0536 Y33.8923 
G01 X-31.1396 Y33.7636 
G01 X-31.2490 Y33.6542 
G01 X-31.3777 Y33.5682 
G01 X-31.5207 Y33.5090 
G01 X-31.6725 Y33.4788 
G01 X-31.8274 Y33.4788 
G01 X-31.9792 Y33.5090 
G01 X-32.1222 Y33.5682 
G01 X-32.2509 Y33.6542 
G01 X-32.3603 Y33.7636 
G01 X-32.4463 Y33.8923 
G01 X-32.5055 Y34.0353 
G01 X-32.5357 Y34.1871 
G01 X-32.5357 Y34.5964 
G01 X-60.1825 Y34.5964 
G01 X-62.9714 Y31.6201 
G01 X-62.9714 Y30.6161 
G01 X-61.8938 Y29.5385 
G01 X-57.0571 Y29.5385 
G01 X-57.0069 Y29.6137 
G01 X-56.9187 Y29.7019 
G01 X-56.8150 Y29.7712 
G01 X-56.6997 Y29.8190 
G01 X-56.5774 Y29.8433 
G01 X-56.4525 Y29.8433 
G01 X-56.3302 Y29.8190 
G01 X-56.2149 Y29.7712 
G01 X-56.1112 Y29.7019 
G01 X-53.3316 Y26.9223 
G01 X-52.9724 Y26.9223 
G01 X-52.4526 Y26.4025 
G01 X-52.4526 Y25.6674 
G01 X-52.9724 Y25.1476 
G01 X-53.7075 Y25.1476 
G01 X-54.2273 Y25.6674 
G00 Z1.5000 
G00 X-49.1473 Y28.2074 
G01 Z-0.1778 F375.00 
G01 X-49.1473 Y28.9425 F1500.00 
G01 X-48.6275 Y29.4623 
G01 X-48.2683 Y29.4623 
G01 X-47.1397 Y30.5909 
G01 X-47.0360 Y30.6602 
G01 X-46.9207 Y30.7080 
G01 X-46.7984 Y30.7323 
G01 X-46.6735 Y30.7323 
G01 X-42.3765 Y30.7323 
G01 X-42.2822 Y30.7953 
G01 X-42.1392 Y30.8545 
G01 X-41.9874 Y30.8847 
G01 X-41.8325 Y30.8847 
G01 X-41.6807 Y30.8545 
G01 X-41.5377 Y30.7953 
G01 X-41.4434 Y30.7323 
G01 X-37.0215 Y30.7323 
G01 X-36.8992 Y30.7080 
G01 X-36.7839 Y30.6602 
G01 X-36.7398 Y30.6307 
G01 X-36.5045 Y30.6307 
G01 X-36.3522 Y30.4783 
G01 X-34.2275 Y30.4783 
G01 X-34.1052 Y30.4540 
G01 X-33.9899 Y30.4062 
G01 X-33.8862 Y30.3369 
G01 X-33.7980 Y30.2487 
G01 X-32.1754 Y28.6261 
G01 X-32.1222 Y28.6617 
G01 X-31.9792 Y28.7209 
G01 X-31.8274 Y28.7511 
G01 X-31.6725 Y28.7511 
G01 X-31.5207 Y28.7209 
G01 X-31.3777 Y28.6617 
G01 X-31.2490 Y28.5757 
G01 X-31.1396 Y28.4663 
G01 X-31.0536 Y28.3376 
G01 X-30.9944 Y28.1946 
G01 X-30.9642 Y28.0428 
G01 X-30.9642 Y26.5671 
G01 X-30.9944 Y26.4153 
G01 X-31.0536 Y26.2723 
G01 X-31.1396 Y26.1436 
G01 X-31.2490 Y26.0342 
G01 X-31.3777 Y25.9482 
G01 X-31.5207 Y25.8890 
G01 X-31.6725 Y25.8588 
G01 X-31.8274 Y25.8588 
G01 X-31.9792 Y25.8890 
G01 X-32.1222 Y25.9482 
G01 X-32.1754 Y25.9838 
G01 X-33.0216 Y25.1376 
G01 X-33.0216 Y21.6524 
G01 X-33.0216 Y21.5275 
G01 X-33.0459 Y21.4052 
G01 X-33.0937 Y21.2899 
G01 X-33.1630 Y21.1862 
G01 X-37.8412 Y16.5080 
G01 X-37.9449 Y16.4387 
G01 X-38.0602 Y16.3909 
G01 X-38.1825 Y16.3666 
G01 X-38.3074 Y16.3666 
G01 X-58.9926 Y16.3666 
G01 X-60.1858 Y15.1735 
G01 X-60.1696 Y15.0716 
G01 X-60.1696 Y14.8983 
G01 X-60.1967 Y14.7272 
G01 X-60.2502 Y14.5625 
G01 X-60.3288 Y14.4082 
G01 X-60.4306 Y14.2681 
G01 X-60.5531 Y14.1456 
G01 X-60.6932 Y14.0438 
G01 X-60.8475 Y13.9652 
G01 X-61.0122 Y13.9117 
G01 X-61.1833 Y13.8846 
G01 X-61.3566 Y13.8846 
G01 X-61.5277 Y13.9117 
G01 X-61.6924 Y13.9652 
G01 X-61.8467 Y14.0438 
G01 X-61.9868 Y14.1456 
G01 X-62.1093 Y14.2681 
G01 X-62.2111 Y14.4082 
G01 X-62.2897 Y14.5625 
G01 X-62.3432 Y14.7272 
G01 X-62.3703 Y14.8983 
G01 X-62.3703 Y15.0716 
G01 X-62.3432 Y15.2427 
G01 X-62.2897 Y15.4074 
G01 X-62.2111 Y15.5617 
G01 X-62.1093 Y15.7018 
G01 X-61.9868 Y15.8243 
G01 X-61.9033 Y15.8849 
G01 X-61.9033 Y16.5906 
G01 X-68.5918 Y22.7001 
G01 X-68.6037 Y22.7080 
G01 X-68.6373 Y22.7417 
G01 X-68.6732 Y22.7744 
G01 X-68.6818 Y22.7862 
G01 X-68.6919 Y22.7962 
G01 X-68.7185 Y22.8360 
G01 X-68.7471 Y22.8749 
G01 X-68.7532 Y22.8880 
G01 X-68.7612 Y22.8999 
G01 X-68.7795 Y22.9441 
G01 X-68.8000 Y22.9878 
G01 X-68.8034 Y23.0018 
G01 X-68.8090 Y23.0152 
G01 X-68.8185 Y23.0632 
G01 X-68.8298 Y23.1090 
G01 X-68.8304 Y23.1232 
G01 X-68.8333 Y23.1375 
G01 X-68.8333 Y23.1855 
G01 X-68.8355 Y23.2337 
G01 X-68.8333 Y23.2481 
G01 X-68.8333 Y38.2866 
G01 X-68.8354 Y38.3342 
G01 X-68.8333 Y38.3479 
G01 X-68.8333 Y38.3624 
G01 X-68.8238 Y38.4100 
G01 X-68.8166 Y38.4575 
G01 X-68.8117 Y38.4708 
G01 X-68.8090 Y38.4847 
G01 X-68.7906 Y38.5290 
G01 X-68.7740 Y38.5748 
G01 X-68.7665 Y38.5871 
G01 X-68.7612 Y38.6000 
G01 X-68.7350 Y38.6391 
G01 X-68.7094 Y38.6815 
G01 X-68.6995 Y38.6923 
G01 X-68.6919 Y38.7037 
G01 X-68.6588 Y38.7367 
G01 X-64.3998 Y43.3917 
G01 X-64.3919 Y43.4037 
G01 X-64.3573 Y43.4382 
G01 X-64.3251 Y43.4735 
G01 X-64.3137 Y43.4818 
G01 X-64.3037 Y43.4919 
G01 X-64.2639 Y43.5184 
G01 X-64.2246 Y43.5474 
G01 X-64.2114 Y43.5535 
G01 X-64.2000 Y43.5612 
G01 X-64.1562 Y43.5793 
G01 X-64.1116 Y43.6002 
G01 X-64.0977 Y43.6036 
G01 X-64.0847 Y43.6090 
G01 X-64.0370 Y43.6184 
G01 X-63.9904 Y43.6299 
G01 X-63.9763 Y43.6305 
G01 X-63.9624 Y43.6333 
G01 X-63.9133 Y43.6333 
G01 X-63.8657 Y43.6354 
G01 X-63.8520 Y43.6333 
G01 X-52.7033 Y43.6333 
G01 X-52.7033 Y45.7824 
G01 X-52.6790 Y45.9047 
G01 X-52.6312 Y46.0200 
G01 X-52.5619 Y46.1237 
G01 X-52.4737 Y46.2119 
G01 X-51.1987 Y47.4869 
G01 X-51.0950 Y47.5562 
G01 X-50.9797 Y47.6040 
G01 X-50.8574 Y47.6283 
G01 X-50.7325 Y47.6283 
G01 X-34.0055 Y47.6283 
G01 X-33.6886 Y47.9453 
G01 X-32.9013 Y47.9453 
G01 X-32.3446 Y47.3886 
G01 X-32.3446 Y46.6013 
G01 X-32.9013 Y46.0446 
G01 X-33.6886 Y46.0446 
G01 X-34.0055 Y46.3616 
G01 X-50.5326 Y46.3616 
G01 X-51.4366 Y45.4576 
G01 X-51.4366 Y43.6333 
G01 X-39.8623 Y43.6333 
G01 X-39.1037 Y44.3919 
G01 X-39.0000 Y44.4612 
G01 X-38.8847 Y44.5090 
G01 X-38.7624 Y44.5333 
G01 X-38.6375 Y44.5333 
G01 X-38.5152 Y44.5090 
G01 X-38.3999 Y44.4612 
G01 X-38.2962 Y44.3919 
G01 X-38.2080 Y44.3037 
G01 X-38.1578 Y44.2285 
G01 X-18.1721 Y44.2285 
G01 X-18.1219 Y44.3037 
G01 X-18.0337 Y44.3919 
G01 X-17.9300 Y44.4612 
G01 X-17.8147 Y44.5090 
G01 X-17.6924 Y44.5333 
G01 X-17.5675 Y44.5333 
G01 X-17.4452 Y44.5090 
G01 X-17.3299 Y44.4612 
G01 X-17.2262 Y44.3919 
G01 X-15.0000 Y42.1656 
G01 X-13.4919 Y43.6737 
G01 X-13.4037 Y43.7619 
G01 X-13.3000 Y43.8312 
G01 X-13.1847 Y43.8790 
G01 X-13.0624 Y43.9033 
G01 X-12.4778 Y43.9033 
G01 X-12.3254 Y44.0557 
G01 X-11.6745 Y44.0557 
G01 X-11.2142 Y43.5954 
G01 X-11.2142 Y42.9445 
G01 X-11.6745 Y42.4842 
G01 X-12.3254 Y42.4842 
G01 X-12.4778 Y42.6366 
G01 X-12.7376 Y42.6366 
G01 X-14.5962 Y40.7780 
G01 X-14.6999 Y40.7087 
G01 X-14.8152 Y40.6609 
G01 X-14.9375 Y40.6366 
G01 X-15.0624 Y40.6366 
G01 X-15.1847 Y40.6609 
G01 X-15.3000 Y40.7087 
G01 X-15.4037 Y40.7780 
G01 X-15.4919 Y40.8662 
G01 X-18.1219 Y43.4962 
G01 X-18.1721 Y43.5714 
G01 X-38.1578 Y43.5714 
G01 X-38.2080 Y43.4962 
G01 X-39.1080 Y42.5962 
G01 X-39.1962 Y42.5080 
G01 X-39.2999 Y42.4387 
G01 X-39.4152 Y42.3909 
G01 X-39.5375 Y42.3666 
G01 X-52.0075 Y42.3666 
G01 X-52.1324 Y42.3666 
G01 X-63.6209 Y42.3666 
G01 X-67.5666 Y38.0540 
G01 X-67.5666 Y23.4793 
G01 X-60.8781 Y17.3698 
G01 X-60.8662 Y17.3619 
G01 X-60.8325 Y17.3282 
G01 X-60.7967 Y17.2955 
G01 X-60.7881 Y17.2838 
G01 X-60.7780 Y17.2737 
G01 X-60.7514 Y17.2338 
G01 X-60.7228 Y17.1950 
G01 X-60.7167 Y17.1819 
G01 X-60.7087 Y17.1700 
G01 X-60.6904 Y17.1257 
G01 X-60.6699 Y17.0821 
G01 X-60.6665 Y17.0681 
G01 X-60.6609 Y17.0547 
G01 X-60.6514 Y17.0067 
G01 X-60.6401 Y16.9609 
G01 X-60.6395 Y16.9467 
G01 X-60.6366 Y16.9324 
G01 X-60.6366 Y16.8843 
G01 X-60.6344 Y16.8362 
G01 X-60.6366 Y16.8218 
G01 X-60.6366 Y16.5139 
G01 X-59.7469 Y17.4037 
G01 X-59.6587 Y17.4919 
G01 X-59.5550 Y17.5612 
G01 X-59.4397 Y17.6090 
G01 X-59.3174 Y17.6333 
G01 X-38.5073 Y17.6333 
G01 X-34.2883 Y21.8523 
G01 X-34.2883 Y25.3375 
G01 X-34.2883 Y25.4624 
G01 X-34.2640 Y25.5847 
G01 X-34.2162 Y25.7000 
G01 X-34.1469 Y25.8037 
G01 X-32.6456 Y27.3049 
G01 X-34.5523 Y29.2116 
G01 X-36.3522 Y29.2116 
G01 X-36.5045 Y29.0592 
G01 X-37.1554 Y29.0592 
G01 X-37.5618 Y29.4656 
G01 X-41.4434 Y29.4656 
G01 X-41.5377 Y29.4026 
G01 X-41.6807 Y29.3434 
G01 X-41.8325 Y29.3132 
G01 X-41.9874 Y29.3132 
G01 X-42.1392 Y29.3434 
G01 X-42.2822 Y29.4026 
G01 X-42.3765 Y29.4656 
G01 X-46.4736 Y29.4656 
G01 X-47.3726 Y28.5666 
G01 X-47.3726 Y28.2074 
G01 X-47.8924 Y27.6876 
G01 X-48.6275 Y27.6876 
G01 X-49.1473 Y28.2074 
G00 Z1.5000 
G00 X-14.7557 Y26.5671 
G01 Z-0.1778 F375.00 
G01 X-14.7557 Y28.0428 F1500.00 
G01 X-14.7255 Y28.1946 
G01 X-14.6663 Y28.3376 
G01 X-14.5803 Y28.4663 
G01 X-14.4709 Y28.5757 
G01 X-14.3422 Y28.6617 
G01 X-14.1992 Y28.7209 
G01 X-14.0474 Y28.7511 
G01 X-13.8925 Y28.7511 
G01 X-13.7407 Y28.7209 
G01 X-13.5977 Y28.6617 
G01 X-13.4690 Y28.5757 
G01 X-13.3596 Y28.4663 
G01 X-13.2736 Y28.3376 
G01 X-13.2144 Y28.1946 
G01 X-13.1842 Y28.0428 
G01 X-13.1842 Y26.5671 
G01 X-13.2144 Y26.4153 
G01 X-13.2736 Y26.2723 
G01 X-13.2889 Y26.2495 
G01 X-11.4847 Y24.4453 
G01 X-11.0363 Y24.4453 
G01 X-10.4796 Y23.8886 
G01 X-10.4796 Y23.1013 
G01 X-11.0363 Y22.5446 
G01 X-11.8236 Y22.5446 
G01 X-12.3803 Y23.1013 
G01 X-12.3803 Y23.5497 
G01 X-14.4619 Y25.6312 
G01 X-14.5312 Y25.7349 
G01 X-14.5790 Y25.8502 
G01 X-14.6033 Y25.9725 
G01 X-14.6033 Y26.0974 
G01 X-14.6033 Y26.1781 
G01 X-14.6663 Y26.2723 
G01 X-14.7255 Y26.4153 
G01 X-14.7557 Y26.5671 
G00 Z1.5000 
G00 X-12.2157 Y26.5671 
G01 Z-0.1778 F375.00 
G01 X-12.2157 Y28.0428 F1500.00 
G01 X-12.1855 Y28.1946 
G01 X-12.1263 Y28.3376 
G01 X-12.0403 Y28.4663 
G01 X-11.9309 Y28.5757 
G01 X-11.8022 Y28.6617 
G01 X-11.6592 Y28.7209 
G01 X-11.5074 Y28.7511 
G01 X-11.3525 Y28.7511 
G01 X-11.2007 Y28.7209 
G01 X-11.0577 Y28.6617 
G01 X-10.9290 Y28.5757 
G01 X-10.8196 Y28.4663 
G01 X-10.7336 Y28.3376 
G01 X-10.6744 Y28.1946 
G01 X-10.6442 Y28.0428 
G01 X-10.6442 Y26.7798 
G01 X-9.2627 Y25.3983 
G01 X-7.6824 Y25.3983 
G01 X-7.5575 Y25.3983 
G01 X-7.4352 Y25.3740 
G01 X-7.3199 Y25.3262 
G01 X-7.2162 Y25.2569 
G01 X-6.4047 Y24.4453 
G01 X-5.9563 Y24.4453 
G01 X-5.3996 Y23.8886 
G01 X-5.3996 Y23.1013 
G01 X-5.9563 Y22.5446 
G01 X-6.7436 Y22.5446 
G01 X-7.3003 Y23.1013 
G01 X-7.3003 Y23.5497 
G01 X-7.8823 Y24.1316 
G01 X-9.5874 Y24.1316 
G01 X-9.7097 Y24.1559 
G01 X-9.8250 Y24.2037 
G01 X-9.9287 Y24.2730 
G01 X-10.0169 Y24.3612 
G01 X-11.5162 Y25.8606 
G01 X-11.6592 Y25.8890 
G01 X-11.8022 Y25.9482 
G01 X-11.9309 Y26.0342 
G01 X-12.0403 Y26.1436 
G01 X-12.1263 Y26.2723 
G01 X-12.1855 Y26.4153 
G01 X-12.2157 Y26.5671 
G00 Z1.5000 
G00 X-9.6757 Y26.5671 
G01 Z-0.1778 F375.00 
G01 X-9.6757 Y28.0428 F1500.00 
G01 X-9.6455 Y28.1946 
G01 X-9.5863 Y28.3376 
G01 X-9.5003 Y28.4663 
G01 X-9.3909 Y28.5757 
G01 X-9.2622 Y28.6617 
G01 X-9.1192 Y28.7209 
G01 X-8.9674 Y28.7511 
G01 X-8.8125 Y28.7511 
G01 X-8.6607 Y28.7209 
G01 X-8.5177 Y28.6617 
G01 X-8.3890 Y28.5757 
G01 X-8.2796 Y28.4663 
G01 X-8.1936 Y28.3376 
G01 X-8.1344 Y28.1946 
G01 X-8.1042 Y28.0428 
G01 X-8.1042 Y26.5671 
G01 X-8.1344 Y26.4153 
G01 X-8.1936 Y26.2723 
G01 X-8.2796 Y26.1436 
G01 X-8.3890 Y26.0342 
G01 X-8.5177 Y25.9482 
G01 X-8.6607 Y25.8890 
G01 X-8.8125 Y25.8588 
G01 X-8.9674 Y25.8588 
G01 X-9.1192 Y25.8890 
G01 X-9.2622 Y25.9482 
G01 X-9.3909 Y26.0342 
G01 X-9.5003 Y26.1436 
G01 X-9.5863 Y26.2723 
G01 X-9.6455 Y26.4153 
G01 X-9.6757 Y26.5671 
G00 Z1.5000 
G00 X-17.2957 Y34.1871 
G01 Z-0.1778 F375.00 
G01 X-17.2957 Y35.6628 F1500.00 
G01 X-17.2655 Y35.8146 
G01 X-17.2063 Y35.9576 
G01 X-17.1203 Y36.0863 
G01 X-17.0109 Y36.1957 
G01 X-16.8822 Y36.2817 
G01 X-16.7392 Y36.3409 
G01 X-16.5874 Y36.3711 
G01 X-16.4325 Y36.3711 
G01 X-16.2807 Y36.3409 
G01 X-16.1697 Y36.2949 
G01 X-15.2629 Y37.2017 
G01 X-15.2017 Y37.2629 
G01 X-15.1268 Y37.3061 
G01 X-15.0432 Y37.3285 
G01 X-12.6661 Y37.3285 
G01 X-10.4885 Y39.5061 
G01 X-10.4885 Y43.6788 
G01 X-10.9311 Y44.1214 
G01 X-16.4667 Y44.1214 
G01 X-16.5532 Y44.1214 
G01 X-16.6368 Y44.1438 
G01 X-16.7117 Y44.1870 
G01 X-17.2811 Y44.7564 
G01 X-41.2565 Y44.7564 
G01 X-41.2975 Y44.6949 
G01 X-41.4211 Y44.5713 
G01 X-41.5664 Y44.4742 
G01 X-41.7279 Y44.4073 
G01 X-41.8993 Y44.3732 
G01 X-43.5982 Y44.3732 
G01 X-43.7696 Y44.4073 
G01 X-43.9311 Y44.4742 
G01 X-44.0764 Y44.5713 
G01 X-44.2000 Y44.6949 
G01 X-44.2971 Y44.8402 
G01 X-44.3351 Y44.9320 
G01 X-47.6648 Y44.9320 
G01 X-47.7028 Y44.8402 
G01 X-47.7999 Y44.6949 
G01 X-47.9235 Y44.5713 
G01 X-48.0688 Y44.4742 
G01 X-48.2303 Y44.4073 
G01 X-48.4017 Y44.3732 
G01 X-50.1006 Y44.3732 
G01 X-50.2720 Y44.4073 
G01 X-50.4335 Y44.4742 
G01 X-50.5788 Y44.5713 
G01 X-50.7024 Y44.6949 
G01 X-50.7995 Y44.8402 
G01 X-50.8664 Y45.0017 
G01 X-50.9005 Y45.1731 
G01 X-50.9005 Y45.3480 
G01 X-50.8664 Y45.5194 
G01 X-50.7995 Y45.6809 
G01 X-50.7024 Y45.8262 
G01 X-50.5788 Y45.9498 
G01 X-50.4335 Y46.0469 
G01 X-50.2720 Y46.1138 
G01 X-50.1006 Y46.1479 
G01 X-48.4017 Y46.1479 
G01 X-48.2303 Y46.1138 
G01 X-48.0688 Y46.0469 
G01 X-47.9235 Y45.9498 
G01 X-47.7999 Y45.8262 
G01 X-47.7028 Y45.6809 
G01 X-47.6648 Y45.5891 
G01 X-44.3351 Y45.5891 
G01 X-44.2971 Y45.6809 
G01 X-44.2000 Y45.8262 
G01 X-44.0764 Y45.9498 
G01 X-43.9311 Y46.0469 
G01 X-43.7696 Y46.1138 
G01 X-43.5982 Y46.1479 
G01 X-41.8993 Y46.1479 
G01 X-41.7279 Y46.1138 
G01 X-41.5664 Y46.0469 
G01 X-41.4211 Y45.9498 
G01 X-41.2975 Y45.8262 
G01 X-41.2004 Y45.6809 
G01 X-41.1335 Y45.5194 
G01 X-41.1125 Y45.4135 
G01 X-17.2704 Y45.4135 
G01 X-17.3467 Y45.4570 
G01 X-17.4079 Y45.5182 
G01 X-17.5611 Y45.6714 
G01 X-18.0432 Y45.6714 
G01 X-18.1268 Y45.6938 
G01 X-18.2017 Y45.7370 
G01 X-18.2629 Y45.7982 
G01 X-18.8439 Y46.3793 
G01 X-18.9325 Y46.3616 
G01 X-22.4243 Y46.3616 
G01 X-22.7413 Y46.0446 
G01 X-23.5286 Y46.0446 
G01 X-24.0853 Y46.6013 
G01 X-24.0853 Y47.3886 
G01 X-23.5286 Y47.9453 
G01 X-22.7413 Y47.9453 
G01 X-22.4243 Y47.6283 
G01 X-18.9325 Y47.6283 
G01 X-18.8102 Y47.6040 
G01 X-18.6949 Y47.5562 
G01 X-18.5912 Y47.4869 
G01 X-18.5030 Y47.3987 
G01 X-18.4337 Y47.2950 
G01 X-18.3859 Y47.1797 
G01 X-18.3616 Y47.0574 
G01 X-18.3616 Y46.9325 
G01 X-18.3793 Y46.8439 
G01 X-17.8638 Y46.3285 
G01 X-17.4682 Y46.3285 
G01 X-17.3817 Y46.3285 
G01 X-17.2981 Y46.3061 
G01 X-17.2232 Y46.2629 
G01 X-17.0088 Y46.0485 
G01 X-14.5285 Y46.0485 
G01 X-14.5285 Y46.2173 
G01 X-14.9857 Y46.6745 
G01 X-14.9857 Y47.3254 
G01 X-14.5254 Y47.7857 
G01 X-13.8745 Y47.7857 
G01 X-13.4142 Y47.3254 
G01 X-13.4142 Y46.6745 
G01 X-13.8714 Y46.2173 
G01 X-13.8714 Y45.7632 
G01 X-13.8714 Y45.6767 
G01 X-13.8714 Y45.4135 
G01 X-10.1167 Y45.4135 
G01 X-10.0331 Y45.3911 
G01 X-9.9582 Y45.3479 
G01 X-9.8970 Y45.2867 
G01 X-8.6884 Y44.0780 
G01 X-8.6270 Y44.0167 
G01 X-8.5838 Y43.9418 
G01 X-8.5614 Y43.8582 
G01 X-8.5614 Y38.6917 
G01 X-8.5838 Y38.6081 
G01 X-8.6270 Y38.5332 
G01 X-8.6882 Y38.4720 
G01 X-10.9504 Y36.2099 
G01 X-10.9290 Y36.1957 
G01 X-10.8196 Y36.0863 
G01 X-10.7336 Y35.9576 
G01 X-10.6744 Y35.8146 
G01 X-10.6442 Y35.6628 
G01 X-10.6442 Y34.1871 
G01 X-10.6744 Y34.0353 
G01 X-10.7336 Y33.8923 
G01 X-10.8196 Y33.7636 
G01 X-10.9290 Y33.6542 
G01 X-11.0577 Y33.5682 
G01 X-11.2007 Y33.5090 
G01 X-11.3525 Y33.4788 
G01 X-11.5074 Y33.4788 
G01 X-11.6592 Y33.5090 
G01 X-11.8022 Y33.5682 
G01 X-11.9309 Y33.6542 
G01 X-12.0403 Y33.7636 
G01 X-12.1263 Y33.8923 
G01 X-12.1855 Y34.0353 
G01 X-12.2157 Y34.1871 
G01 X-12.2157 Y35.6628 
G01 X-12.1855 Y35.8146 
G01 X-12.1263 Y35.9576 
G01 X-12.0403 Y36.0863 
G01 X-11.9309 Y36.1957 
G01 X-11.8022 Y36.2817 
G01 X-11.7399 Y36.3074 
G01 X-11.7361 Y36.3218 
G01 X-11.6929 Y36.3967 
G01 X-9.2185 Y38.8711 
G01 X-9.2185 Y43.6789 
G01 X-10.2960 Y44.7564 
G01 X-10.6696 Y44.7564 
G01 X-10.5932 Y44.7129 
G01 X-10.5320 Y44.6517 
G01 X-9.8970 Y44.0167 
G01 X-9.8538 Y43.9418 
G01 X-9.8314 Y43.8582 
G01 X-9.8314 Y43.7717 
G01 X-9.8314 Y39.3267 
G01 X-9.8538 Y39.2431 
G01 X-9.8970 Y39.1682 
G01 X-9.9582 Y39.1070 
G01 X-12.3282 Y36.7370 
G01 X-12.4031 Y36.6938 
G01 X-12.4867 Y36.6714 
G01 X-12.5732 Y36.6714 
G01 X-14.8638 Y36.6714 
G01 X-15.7489 Y35.7864 
G01 X-15.7242 Y35.6628 
G01 X-15.7242 Y34.1871 
G01 X-15.7544 Y34.0353 
G01 X-15.8136 Y33.8923 
G01 X-15.8996 Y33.7636 
G01 X-16.0090 Y33.6542 
G01 X-16.1377 Y33.5682 
G01 X-16.2807 Y33.5090 
G01 X-16.4325 Y33.4788 
G01 X-16.5874 Y33.4788 
G01 X-16.7392 Y33.5090 
G01 X-16.8822 Y33.5682 
G01 X-17.0109 Y33.6542 
G01 X-17.1203 Y33.7636 
G01 X-17.2063 Y33.8923 
G01 X-17.2655 Y34.0353 
G01 X-17.2957 Y34.1871 
G00 Z1.5000 
G00 X-19.8357 Y34.1871 
G01 Z-0.1778 F375.00 
G01 X-19.8357 Y35.6628 F1500.00 
G01 X-19.8055 Y35.8146 
G01 X-19.7463 Y35.9576 
G01 X-19.6833 Y36.0519 
G01 X-19.6833 Y37.0124 
G01 X-19.6590 Y37.1347 
G01 X-19.6112 Y37.2500 
G01 X-19.5419 Y37.3537 
G01 X-19.4537 Y37.4419 
G01 X-17.6737 Y39.2219 
G01 X-17.5700 Y39.2912 
G01 X-17.4547 Y39.3390 
G01 X-17.3324 Y39.3633 
G01 X-17.2075 Y39.3633 
G01 X-14.9375 Y39.3633 
G01 X-14.8152 Y39.3390 
G01 X-14.6999 Y39.2912 
G01 X-14.5962 Y39.2219 
G01 X-14.5080 Y39.1337 
G01 X-14.4387 Y39.0300 
G01 X-14.3909 Y38.9147 
G01 X-14.3666 Y38.7924 
G01 X-14.3666 Y38.6675 
G01 X-14.3909 Y38.5452 
G01 X-14.4387 Y38.4299 
G01 X-14.5080 Y38.3262 
G01 X-14.5962 Y38.2380 
G01 X-14.6999 Y38.1687 
G01 X-14.7970 Y38.1285 
G01 X-13.3361 Y38.1285 
G01 X-12.5985 Y38.8661 
G01 X-12.5985 Y39.6965 
G01 X-12.6031 Y39.6938 
G01 X-12.6867 Y39.6714 
G01 X-12.7732 Y39.6714 
G01 X-14.4578 Y39.6714 
G01 X-14.5080 Y39.5962 
G01 X-14.5962 Y39.5080 
G01 X-14.6999 Y39.4387 
G01 X-14.8152 Y39.3909 
G01 X-14.9375 Y39.3666 
G01 X-16.6675 Y39.3666 
G01 X-16.7924 Y39.3666 
G01 X-16.9147 Y39.3909 
G01 X-17.0300 Y39.4387 
G01 X-17.1337 Y39.5080 
G01 X-17.8398 Y40.2142 
G01 X-18.0554 Y40.2142 
G01 X-18.5157 Y40.6745 
G01 X-18.5157 Y41.3211 
G01 X-19.8661 Y42.6714 
G01 X-36.8638 Y42.6714 
G01 X-37.8471 Y41.6882 
G01 X-37.4842 Y41.3254 
G01 X-37.4842 Y40.6745 
G01 X-37.9445 Y40.2142 
G01 X-38.5954 Y40.2142 
G01 X-38.7920 Y40.4108 
G01 X-41.1624 Y40.4108 
G01 X-41.2004 Y40.3190 
G01 X-41.2975 Y40.1737 
G01 X-41.4211 Y40.0501 
G01 X-41.5664 Y39.9530 
G01 X-41.7279 Y39.8861 
G01 X-41.8993 Y39.8520 
G01 X-43.5982 Y39.8520 
G01 X-43.7696 Y39.8861 
G01 X-43.9311 Y39.9530 
G01 X-44.0764 Y40.0501 
G01 X-44.2000 Y40.1737 
G01 X-44.2971 Y40.3190 
G01 X-44.3351 Y40.4108 
G01 X-47.6648 Y40.4108 
G01 X-47.7028 Y40.3190 
G01 X-47.7999 Y40.1737 
G01 X-47.9235 Y40.0501 
G01 X-48.0688 Y39.9530 
G01 X-48.2303 Y39.8861 
G01 X-48.4017 Y39.8520 
G01 X-50.1006 Y39.8520 
G01 X-50.2720 Y39.8861 
G01 X-50.4335 Y39.9530 
G01 X-50.5788 Y40.0501 
G01 X-50.7024 Y40.1737 
G01 X-50.7995 Y40.3190 
G01 X-50.8664 Y40.4805 
G01 X-50.9005 Y40.6519 
G01 X-50.9005 Y40.8268 
G01 X-50.8664 Y40.9982 
G01 X-50.7995 Y41.1597 
G01 X-50.7024 Y41.3050 
G01 X-50.5788 Y41.4286 
G01 X-50.4335 Y41.5257 
G01 X-50.2720 Y41.5926 
G01 X-50.1006 Y41.6267 
G01 X-48.4017 Y41.6267 
G01 X-48.2303 Y41.5926 
G01 X-48.0688 Y41.5257 
G01 X-47.9235 Y41.4286 
G01 X-47.7999 Y41.3050 
G01 X-47.7028 Y41.1597 
G01 X-47.6648 Y41.0679 
G01 X-44.3351 Y41.0679 
G01 X-44.2971 Y41.1597 
G01 X-44.2000 Y41.3050 
G01 X-44.0764 Y41.4286 
G01 X-43.9311 Y41.5257 
G01 X-43.7696 Y41.5926 
G01 X-43.5982 Y41.6267 
G01 X-41.8993 Y41.6267 
G01 X-41.7279 Y41.5926 
G01 X-41.5664 Y41.5257 
G01 X-41.4211 Y41.4286 
G01 X-41.2975 Y41.3050 
G01 X-41.2004 Y41.1597 
G01 X-41.1624 Y41.0679 
G01 X-39.0557 Y41.0679 
G01 X-39.0557 Y41.3254 
G01 X-38.5954 Y41.7857 
G01 X-38.5761 Y41.8568 
G01 X-38.5329 Y41.9317 
G01 X-37.2629 Y43.2017 
G01 X-37.2017 Y43.2629 
G01 X-37.1268 Y43.3061 
G01 X-37.0432 Y43.3285 
G01 X-19.7732 Y43.3285 
G01 X-19.6867 Y43.3285 
G01 X-19.6031 Y43.3061 
G01 X-19.5282 Y43.2629 
G01 X-18.0511 Y41.7857 
G01 X-17.4045 Y41.7857 
G01 X-16.9442 Y41.3254 
G01 X-16.9442 Y41.1098 
G01 X-16.4676 Y40.6333 
G01 X-14.9375 Y40.6333 
G01 X-14.8152 Y40.6090 
G01 X-14.6999 Y40.5612 
G01 X-14.5962 Y40.4919 
G01 X-14.5080 Y40.4037 
G01 X-14.4578 Y40.3285 
G01 X-12.8661 Y40.3285 
G01 X-12.7857 Y40.4089 
G01 X-12.7857 Y41.0554 
G01 X-12.3254 Y41.5157 
G01 X-11.6745 Y41.5157 
G01 X-11.2142 Y41.0554 
G01 X-11.2142 Y40.4045 
G01 X-11.6745 Y39.9442 
G01 X-11.9414 Y39.9442 
G01 X-11.9414 Y38.6867 
G01 X-11.9638 Y38.6031 
G01 X-12.0070 Y38.5282 
G01 X-12.0682 Y38.4670 
G01 X-12.9370 Y37.5982 
G01 X-12.9982 Y37.5370 
G01 X-13.0731 Y37.4938 
G01 X-13.1567 Y37.4714 
G01 X-16.2638 Y37.4714 
G01 X-17.3714 Y36.3638 
G01 X-17.3714 Y31.1133 
G01 X-13.5973 Y31.1133 
G01 X-13.2269 Y31.4837 
G01 X-13.1387 Y31.5719 
G01 X-13.0350 Y31.6412 
G01 X-12.9197 Y31.6890 
G01 X-12.7974 Y31.7133 
G01 X-7.6333 Y31.7133 
G01 X-7.6333 Y32.7726 
G01 X-8.4645 Y33.6038 
G01 X-8.5177 Y33.5682 
G01 X-8.6607 Y33.5090 
G01 X-8.8125 Y33.4788 
G01 X-8.9674 Y33.4788 
G01 X-9.1192 Y33.5090 
G01 X-9.2622 Y33.5682 
G01 X-9.3909 Y33.6542 
G01 X-9.5003 Y33.7636 
G01 X-9.5863 Y33.8923 
G01 X-9.6455 Y34.0353 
G01 X-9.6757 Y34.1871 
G01 X-9.6757 Y35.6628 
G01 X-9.6455 Y35.8146 
G01 X-9.5863 Y35.9576 
G01 X-9.5003 Y36.0863 
G01 X-9.3909 Y36.1957 
G01 X-9.2622 Y36.2817 
G01 X-9.1192 Y36.3409 
G01 X-8.9674 Y36.3711 
G01 X-8.8125 Y36.3711 
G01 X-8.6607 Y36.3409 
G01 X-8.5177 Y36.2817 
G01 X-8.4645 Y36.2461 
G01 X-7.2333 Y37.4773 
G01 X-7.2333 Y44.0376 
G01 X-9.5623 Y46.3666 
G01 X-11.1822 Y46.3666 
G01 X-11.3345 Y46.2142 
G01 X-11.9854 Y46.2142 
G01 X-12.4457 Y46.6745 
G01 X-12.4457 Y47.3254 
G01 X-11.9854 Y47.7857 
G01 X-11.3345 Y47.7857 
G01 X-11.1822 Y47.6333 
G01 X-9.3624 Y47.6333 
G01 X-9.2375 Y47.6333 
G01 X-9.1152 Y47.6090 
G01 X-8.9999 Y47.5612 
G01 X-8.8962 Y47.4919 
G01 X-6.1962 Y44.7919 
G01 X-6.1080 Y44.7037 
G01 X-6.0387 Y44.6000 
G01 X-5.9909 Y44.4847 
G01 X-5.9666 Y44.3624 
G01 X-5.9666 Y37.2774 
G01 X-5.9666 Y37.1525 
G01 X-5.9909 Y37.0302 
G01 X-6.0387 Y36.9149 
G01 X-6.1080 Y36.8112 
G01 X-7.9943 Y34.9249 
G01 X-6.5962 Y33.5269 
G01 X-6.5080 Y33.4387 
G01 X-6.4387 Y33.3350 
G01 X-6.3909 Y33.2197 
G01 X-6.3666 Y33.0974 
G01 X-6.3666 Y31.3423 
G01 X-6.0276 Y31.0033 
G01 X-5.4835 Y31.0033 
G01 X-5.4276 Y31.0592 
G01 X-5.2823 Y31.1563 
G01 X-5.1208 Y31.2232 
G01 X-4.9494 Y31.2573 
G01 X-3.2505 Y31.2573 
G01 X-3.0791 Y31.2232 
G01 X-2.9176 Y31.1563 
G01 X-2.7723 Y31.0592 
G01 X-2.6487 Y30.9356 
G01 X-2.5516 Y30.7903 
G01 X-2.4847 Y30.6288 
G01 X-2.4506 Y30.4574 
G01 X-2.4506 Y30.2825 
G01 X-2.4847 Y30.1111 
G01 X-2.5516 Y29.9496 
G01 X-2.6487 Y29.8043 
G01 X-2.7723 Y29.6807 
G01 X-2.9176 Y29.5836 
G01 X-3.0791 Y29.5167 
G01 X-3.2505 Y29.4826 
G01 X-4.9494 Y29.4826 
G01 X-5.1208 Y29.5167 
G01 X-5.2823 Y29.5836 
G01 X-5.4276 Y29.6807 
G01 X-5.4835 Y29.7366 
G01 X-6.2275 Y29.7366 
G01 X-6.3524 Y29.7366 
G01 X-6.4747 Y29.7609 
G01 X-6.5900 Y29.8087 
G01 X-6.6937 Y29.8780 
G01 X-7.2623 Y30.4466 
G01 X-12.4726 Y30.4466 
G01 X-12.9312 Y29.9880 
G01 X-13.0349 Y29.9187 
G01 X-13.1502 Y29.8709 
G01 X-13.2725 Y29.8466 
G01 X-13.3974 Y29.8466 
G01 X-17.8375 Y29.8466 
G01 X-21.9626 Y29.8466 
G01 X-22.4562 Y29.3530 
G01 X-22.5599 Y29.2837 
G01 X-22.5822 Y29.2745 
G01 X-22.5822 Y25.9983 
G01 X-22.6011 Y25.9277 
G01 X-22.6126 Y25.9079 
G01 X-22.2710 Y26.2495 
G01 X-22.2863 Y26.2723 
G01 X-22.3455 Y26.4153 
G01 X-22.3757 Y26.5671 
G01 X-22.3757 Y28.0428 
G01 X-22.3455 Y28.1946 
G01 X-22.2863 Y28.3376 
G01 X-22.2003 Y28.4663 
G01 X-22.0909 Y28.5757 
G01 X-21.9622 Y28.6617 
G01 X-21.8192 Y28.7209 
G01 X-21.6674 Y28.7511 
G01 X-21.5125 Y28.7511 
G01 X-21.3607 Y28.7209 
G01 X-21.2177 Y28.6617 
G01 X-21.0890 Y28.5757 
G01 X-20.9796 Y28.4663 
G01 X-20.8936 Y28.3376 
G01 X-20.8344 Y28.1946 
G01 X-20.8042 Y28.0428 
G01 X-20.8042 Y26.5671 
G01 X-20.8344 Y26.4153 
G01 X-20.8936 Y26.2723 
G01 X-20.9566 Y26.1781 
G01 X-20.9566 Y26.0974 
G01 X-20.9566 Y25.9725 
G01 X-20.9809 Y25.8502 
G01 X-21.0287 Y25.7349 
G01 X-21.0980 Y25.6312 
G01 X-23.7262 Y23.0030 
G01 X-23.8299 Y22.9337 
G01 X-23.9452 Y22.8859 
G01 X-24.0675 Y22.8616 
G01 X-24.1924 Y22.8616 
G01 X-25.9593 Y22.8616 
G01 X-26.2763 Y22.5446 
G01 X-27.0636 Y22.5446 
G01 X-27.6203 Y23.1013 
G01 X-27.6203 Y23.8886 
G01 X-27.0636 Y24.4453 
G01 X-26.2763 Y24.4453 
G01 X-25.9593 Y24.1283 
G01 X-24.3923 Y24.1283 
G01 X-23.3679 Y25.1526 
G01 X-23.3877 Y25.1411 
G01 X-23.4583 Y25.1222 
G01 X-23.5316 Y25.1222 
G01 X-29.8816 Y25.1222 
G01 X-29.9522 Y25.1411 
G01 X-30.0155 Y25.1777 
G01 X-30.0672 Y25.2294 
G01 X-30.7022 Y25.8644 
G01 X-30.7388 Y25.9277 
G01 X-30.7577 Y25.9983 
G01 X-30.7577 Y26.0716 
G01 X-30.7577 Y28.6395 
G01 X-30.7800 Y28.6487 
G01 X-30.8837 Y28.7180 
G01 X-33.9173 Y31.7516 
G01 X-36.3522 Y31.7516 
G01 X-36.5045 Y31.5992 
G01 X-37.1554 Y31.5992 
G01 X-37.3077 Y31.7516 
G01 X-41.1782 Y31.7516 
G01 X-41.5845 Y31.3452 
G01 X-42.2354 Y31.3452 
G01 X-42.3877 Y31.4976 
G01 X-49.5216 Y31.4976 
G01 X-52.4526 Y28.5666 
G01 X-52.4526 Y28.2074 
G01 X-52.9724 Y27.6876 
G01 X-53.7075 Y27.6876 
G01 X-54.2273 Y28.2074 
G01 X-54.2273 Y28.5666 
G01 X-56.0123 Y30.3516 
G01 X-60.3700 Y30.3516 
G01 X-60.4306 Y30.2681 
G01 X-60.5531 Y30.1456 
G01 X-60.6932 Y30.0438 
G01 X-60.8475 Y29.9652 
G01 X-61.0122 Y29.9117 
G01 X-61.1833 Y29.8846 
G01 X-61.3566 Y29.8846 
G01 X-61.5277 Y29.9117 
G01 X-61.6924 Y29.9652 
G01 X-61.8467 Y30.0438 
G01 X-61.9868 Y30.1456 
G01 X-62.1093 Y30.2681 
G01 X-62.2111 Y30.4082 
G01 X-62.2897 Y30.5625 
G01 X-62.3432 Y30.7272 
G01 X-62.3703 Y30.8983 
G01 X-62.3703 Y31.0716 
G01 X-62.3432 Y31.2427 
G01 X-62.2897 Y31.4074 
G01 X-62.2111 Y31.5617 
G01 X-62.1093 Y31.7018 
G01 X-61.9868 Y31.8243 
G01 X-61.8467 Y31.9261 
G01 X-61.6924 Y32.0047 
G01 X-61.5277 Y32.0582 
G01 X-61.3566 Y32.0853 
G01 X-61.1833 Y32.0853 
G01 X-61.0122 Y32.0582 
G01 X-60.8475 Y32.0047 
G01 X-60.6932 Y31.9261 
G01 X-60.5531 Y31.8243 
G01 X-60.4306 Y31.7018 
G01 X-60.3700 Y31.6183 
G01 X-55.8124 Y31.6183 
G01 X-55.6875 Y31.6183 
G01 X-55.5652 Y31.5940 
G01 X-55.4499 Y31.5462 
G01 X-55.3462 Y31.4769 
G01 X-53.3400 Y29.4706 
G01 X-50.2759 Y32.5347 
G01 X-50.1877 Y32.6229 
G01 X-50.0840 Y32.6922 
G01 X-49.9687 Y32.7400 
G01 X-49.8464 Y32.7643 
G01 X-42.3877 Y32.7643 
G01 X-42.2354 Y32.9167 
G01 X-42.0001 Y32.9167 
G01 X-41.9560 Y32.9462 
G01 X-41.8407 Y32.9940 
G01 X-41.7184 Y33.0183 
G01 X-37.3077 Y33.0183 
G01 X-37.1554 Y33.1707 
G01 X-36.5045 Y33.1707 
G01 X-36.3522 Y33.0183 
G01 X-33.7174 Y33.0183 
G01 X-33.5925 Y33.0183 
G01 X-33.4702 Y32.9940 
G01 X-33.3549 Y32.9462 
G01 X-33.2512 Y32.8769 
G01 X-29.9880 Y29.6137 
G01 X-29.9187 Y29.5100 
G01 X-29.8709 Y29.3947 
G01 X-29.8466 Y29.2724 
G01 X-29.8466 Y29.1475 
G01 X-29.8709 Y29.0252 
G01 X-29.9187 Y28.9099 
G01 X-29.9880 Y28.8062 
G01 X-30.0762 Y28.7180 
G01 X-30.1799 Y28.6487 
G01 X-30.2022 Y28.6395 
G01 X-30.2022 Y26.1500 
G01 X-29.7300 Y25.6777 
G01 X-23.6100 Y25.6777 
G01 X-23.1377 Y26.1500 
G01 X-23.1377 Y29.2745 
G01 X-23.1600 Y29.2837 
G01 X-23.2637 Y29.3530 
G01 X-23.3519 Y29.4412 
G01 X-23.4212 Y29.5449 
G01 X-23.4690 Y29.6602 
G01 X-23.4933 Y29.7825 
G01 X-23.4933 Y29.9074 
G01 X-23.4690 Y30.0297 
G01 X-23.4212 Y30.1450 
G01 X-23.3519 Y30.2487 
G01 X-22.7169 Y30.8836 
G01 X-22.6287 Y30.9719 
G01 X-22.5250 Y31.0412 
G01 X-22.4097 Y31.0890 
G01 X-22.2874 Y31.1133 
G01 X-18.0285 Y31.1133 
G01 X-18.0285 Y36.5432 
G01 X-18.0061 Y36.6268 
G01 X-17.9629 Y36.7017 
G01 X-17.9017 Y36.7629 
G01 X-16.6017 Y38.0629 
G01 X-16.5431 Y38.0966 
G01 X-17.0076 Y38.0966 
G01 X-18.4166 Y36.6876 
G01 X-18.4166 Y36.0519 
G01 X-18.3536 Y35.9576 
G01 X-18.2944 Y35.8146 
G01 X-18.2642 Y35.6628 
G01 X-18.2642 Y34.1871 
G01 X-18.2944 Y34.0353 
G01 X-18.3536 Y33.8923 
G01 X-18.4396 Y33.7636 
G01 X-18.5490 Y33.6542 
G01 X-18.6777 Y33.5682 
G01 X-18.8207 Y33.5090 
G01 X-18.9725 Y33.4788 
G01 X-19.1274 Y33.4788 
G01 X-19.2792 Y33.5090 
G01 X-19.4222 Y33.5682 
G01 X-19.5509 Y33.6542 
G01 X-19.6603 Y33.7636 
G01 X-19.7463 Y33.8923 
G01 X-19.8055 Y34.0353 
G01 X-19.8357 Y34.1871 
G00 Z1.5000 
G00 X-27.4557 Y34.1871 
G01 Z-0.1778 F375.00 
G01 X-27.4557 Y35.6628 F1500.00 
G01 X-27.4255 Y35.8146 
G01 X-27.3663 Y35.9576 
G01 X-27.2803 Y36.0863 
G01 X-27.1709 Y36.1957 
G01 X-27.0422 Y36.2817 
G01 X-26.8992 Y36.3409 
G01 X-26.7474 Y36.3711 
G01 X-26.5925 Y36.3711 
G01 X-26.4407 Y36.3409 
G01 X-26.2977 Y36.2817 
G01 X-26.1690 Y36.1957 
G01 X-26.0596 Y36.0863 
G01 X-25.9736 Y35.9576 
G01 X-25.9144 Y35.8146 
G01 X-25.8842 Y35.6628 
G01 X-25.8842 Y34.1871 
G01 X-25.9144 Y34.0353 
G01 X-25.9736 Y33.8923 
G01 X-26.0596 Y33.7636 
G01 X-26.1690 Y33.6542 
G01 X-26.2977 Y33.5682 
G01 X-26.4407 Y33.5090 
G01 X-26.5925 Y33.4788 
G01 X-26.7474 Y33.4788 
G01 X-26.8992 Y33.5090 
G01 X-27.0422 Y33.5682 
G01 X-27.1709 Y33.6542 
G01 X-27.2803 Y33.7636 
G01 X-27.3663 Y33.8923 
G01 X-27.4255 Y34.0353 
G01 X-27.4557 Y34.1871 
G00 Z1.5000 
G00 X-29.9957 Y34.1871 
G01 Z-0.1778 F375.00 
G01 X-29.9957 Y35.6628 F1500.00 
G01 X-29.9655 Y35.8146 
G01 X-29.9063 Y35.9576 
G01 X-29.8203 Y36.0863 
G01 X-29.7109 Y36.1957 
G01 X-29.5822 Y36.2817 
G01 X-29.4392 Y36.3409 
G01 X-29.2874 Y36.3711 
G01 X-29.1325 Y36.3711 
G01 X-28.9807 Y36.3409 
G01 X-28.8377 Y36.2817 
G01 X-28.7090 Y36.1957 
G01 X-28.5996 Y36.0863 
G01 X-28.5136 Y35.9576 
G01 X-28.4544 Y35.8146 
G01 X-28.4242 Y35.6628 
G01 X-28.4242 Y34.1871 
G01 X-28.4544 Y34.0353 
G01 X-28.5136 Y33.8923 
G01 X-28.5996 Y33.7636 
G01 X-28.7090 Y33.6542 
G01 X-28.8377 Y33.5682 
G01 X-28.9807 Y33.5090 
G01 X-29.1325 Y33.4788 
G01 X-29.2874 Y33.4788 
G01 X-29.4392 Y33.5090 
G01 X-29.5822 Y33.5682 
G01 X-29.7109 Y33.6542 
G01 X-29.8203 Y33.7636 
G01 X-29.9063 Y33.8923 
G01 X-29.9655 Y34.0353 
G01 X-29.9957 Y34.1871 
G00 Z1.5000 
G00 X-11.7174 Y20.4425 
G01 Z-0.1778 F375.00 
G01 X-11.2089 Y19.9339 F1500.00 
G01 X-11.1423 Y19.8185 
G01 X-11.1409 Y19.8130 
G01 X-11.1078 Y19.6898 
G01 X-11.1078 Y19.5563 
G01 X-11.1078 Y17.5226 
G01 X-11.1423 Y17.3939 
G01 X-11.2090 Y17.2784 
G01 X-11.3032 Y17.1842 
G01 X-11.8116 Y16.6758 
G01 X-11.9271 Y16.6091 
G01 X-12.0558 Y16.5746 
G01 X-12.1893 Y16.5746 
G01 X-13.2062 Y16.5746 
G01 X-13.3349 Y16.6091 
G01 X-13.4504 Y16.6758 
G01 X-13.5446 Y16.7700 
G01 X-14.0530 Y17.2784 
G01 X-14.1197 Y17.3939 
G01 X-14.1542 Y17.5226 
G01 X-14.1542 Y17.6561 
G01 X-14.1542 Y19.6898 
G01 X-14.1197 Y19.8185 
G01 X-14.1177 Y19.8219 
G01 X-14.0531 Y19.9339 
G01 X-14.0437 Y19.9433 
G01 X-13.5446 Y20.4424 
G01 X-13.4598 Y20.5273 
G01 X-13.4504 Y20.5367 
G01 X-13.3350 Y20.6034 
G01 X-13.2062 Y20.6379 
G01 X-13.0728 Y20.6379 
G01 X-12.1892 Y20.6379 
G01 X-12.0558 Y20.6379 
G01 X-11.9270 Y20.6034 
G01 X-11.8116 Y20.5367 
G01 X-11.7459 Y20.4709 
G01 X-11.7174 Y20.4425 
G00 Z1.5000 
G00 X-28.4958 Y17.0142 
G01 Z-0.1778 F375.00 
G01 X-28.5303 Y16.8855 F1500.00 
G01 X-28.5970 Y16.7700 
G01 X-28.6912 Y16.6758 
G01 X-28.8067 Y16.6091 
G01 X-28.9354 Y16.5746 
G01 X-29.0689 Y16.5746 
G01 X-29.1976 Y16.6091 
G01 X-29.3131 Y16.6758 
G01 X-29.4073 Y16.7700 
G01 X-29.4740 Y16.8855 
G01 X-29.5085 Y17.0142 
G01 X-29.5085 Y19.6252 
G01 X-30.0857 Y19.6252 
G01 X-30.2144 Y19.6597 
G01 X-30.3299 Y19.7264 
G01 X-30.4241 Y19.8206 
G01 X-30.4908 Y19.9361 
G01 X-30.5253 Y20.0648 
G01 X-30.5253 Y20.1983 
G01 X-30.4908 Y20.3270 
G01 X-30.4241 Y20.4425 
G01 X-30.3299 Y20.5367 
G01 X-30.2144 Y20.6034 
G01 X-30.0857 Y20.6379 
G01 X-27.9185 Y20.6379 
G01 X-27.7898 Y20.6034 
G01 X-27.6743 Y20.5367 
G01 X-27.5801 Y20.4425 
G01 X-27.5134 Y20.3270 
G01 X-27.4789 Y20.1983 
G01 X-27.4789 Y20.0648 
G01 X-27.5134 Y19.9361 
G01 X-27.5801 Y19.8206 
G01 X-27.6743 Y19.7264 
G01 X-27.7898 Y19.6597 
G01 X-27.9185 Y19.6252 
G01 X-28.4958 Y19.6252 
G01 X-28.4958 Y17.0142 
G00 Z1.5000 
G00 X-25.4273 Y16.5746 
G01 Z-0.1778 F375.00 
G01 X-25.9357 Y16.5746 F1500.00 
G01 X-26.0692 Y16.5746 
G01 X-26.5776 Y16.5746 
G01 X-26.7063 Y16.6091 
G01 X-26.8218 Y16.6758 
G01 X-26.9160 Y16.7700 
G01 X-26.9827 Y16.8855 
G01 X-27.0172 Y17.0142 
G01 X-27.0172 Y17.1477 
G01 X-26.9827 Y17.2764 
G01 X-26.9160 Y17.3919 
G01 X-26.8218 Y17.4861 
G01 X-26.7063 Y17.5528 
G01 X-26.5776 Y17.5873 
G01 X-26.5088 Y17.5873 
G01 X-26.5088 Y19.6252 
G01 X-26.5776 Y19.6252 
G01 X-26.7063 Y19.6597 
G01 X-26.8218 Y19.7264 
G01 X-26.9160 Y19.8206 
G01 X-26.9827 Y19.9361 
G01 X-27.0172 Y20.0648 
G01 X-27.0172 Y20.1983 
G01 X-26.9827 Y20.3270 
G01 X-26.9160 Y20.4425 
G01 X-26.8218 Y20.5367 
G01 X-26.7063 Y20.6034 
G01 X-26.5776 Y20.6379 
G01 X-25.4273 Y20.6379 
G01 X-25.2986 Y20.6034 
G01 X-25.1831 Y20.5367 
G01 X-25.0889 Y20.4425 
G01 X-25.0222 Y20.3270 
G01 X-24.9877 Y20.1983 
G01 X-24.9877 Y20.0648 
G01 X-25.0222 Y19.9361 
G01 X-25.0889 Y19.8206 
G01 X-25.1831 Y19.7264 
G01 X-25.2986 Y19.6597 
G01 X-25.4273 Y19.6252 
G01 X-25.4961 Y19.6252 
G01 X-25.4961 Y17.5873 
G01 X-25.4273 Y17.5873 
G01 X-25.2986 Y17.5528 
G01 X-25.1831 Y17.4861 
G01 X-25.0889 Y17.3919 
G01 X-25.0222 Y17.2764 
G01 X-24.9877 Y17.1477 
G01 X-24.9877 Y17.0142 
G01 X-25.0222 Y16.8855 
G01 X-25.0889 Y16.7700 
G01 X-25.1831 Y16.6758 
G01 X-25.2986 Y16.6091 
G01 X-25.4273 Y16.5746 
G00 Z1.5000 
G00 X-23.6658 Y17.0142 
G01 Z-0.1778 F375.00 
G01 X-23.7003 Y16.8855 F1500.00 
G01 X-23.7670 Y16.7700 
G01 X-23.8612 Y16.6758 
G01 X-23.9767 Y16.6091 
G01 X-24.1054 Y16.5746 
G01 X-24.2389 Y16.5746 
G01 X-24.3676 Y16.6091 
G01 X-24.4831 Y16.6758 
G01 X-24.5773 Y16.7700 
G01 X-24.6440 Y16.8855 
G01 X-24.6785 Y17.0142 
G01 X-24.6785 Y20.1154 
G01 X-24.6817 Y20.1655 
G01 X-24.6785 Y20.1815 
G01 X-24.6785 Y20.1983 
G01 X-24.6654 Y20.2470 
G01 X-24.6556 Y20.2963 
G01 X-24.6482 Y20.3111 
G01 X-24.6440 Y20.3270 
G01 X-24.6190 Y20.3701 
G01 X-24.5965 Y20.4158 
G01 X-24.5854 Y20.4283 
G01 X-24.5773 Y20.4425 
G01 X-24.5419 Y20.4778 
G01 X-24.5085 Y20.5159 
G01 X-24.4947 Y20.5250 
G01 X-24.4831 Y20.5367 
G01 X-24.4395 Y20.5618 
G01 X-24.3976 Y20.5898 
G01 X-24.3819 Y20.5950 
G01 X-24.3676 Y20.6034 
G01 X-24.3191 Y20.6163 
G01 X-24.2713 Y20.6326 
G01 X-24.2547 Y20.6336 
G01 X-24.2389 Y20.6379 
G01 X-24.1883 Y20.6379 
G01 X-24.1382 Y20.6411 
G01 X-24.1222 Y20.6379 
G01 X-24.1054 Y20.6379 
G01 X-24.0567 Y20.6248 
G01 X-24.0074 Y20.6150 
G01 X-23.9926 Y20.6076 
G01 X-23.9767 Y20.6034 
G01 X-23.9336 Y20.5784 
G01 X-23.8879 Y20.5559 
G01 X-23.8754 Y20.5448 
G01 X-23.8612 Y20.5367 
G01 X-23.8259 Y20.5013 
G01 X-23.7878 Y20.4679 
G01 X-23.7786 Y20.4541 
G01 X-23.7670 Y20.4425 
G01 X-23.7420 Y20.3991 
G01 X-22.6448 Y18.7532 
G01 X-22.6448 Y20.1983 
G01 X-22.6103 Y20.3270 
G01 X-22.5436 Y20.4425 
G01 X-22.4494 Y20.5367 
G01 X-22.3339 Y20.6034 
G01 X-22.2052 Y20.6379 
G01 X-22.0717 Y20.6379 
G01 X-21.9430 Y20.6034 
G01 X-21.8275 Y20.5367 
G01 X-21.7333 Y20.4425 
G01 X-21.6666 Y20.3270 
G01 X-21.6321 Y20.1983 
G01 X-21.6321 Y17.0971 
G01 X-21.6289 Y17.0470 
G01 X-21.6321 Y17.0310 
G01 X-21.6321 Y17.0142 
G01 X-21.6452 Y16.9654 
G01 X-21.6550 Y16.9162 
G01 X-21.6624 Y16.9014 
G01 X-21.6666 Y16.8855 
G01 X-21.6916 Y16.8423 
G01 X-21.7141 Y16.7967 
G01 X-21.7252 Y16.7842 
G01 X-21.7333 Y16.7700 
G01 X-21.7687 Y16.7347 
G01 X-21.8021 Y16.6966 
G01 X-21.8159 Y16.6875 
G01 X-21.8275 Y16.6758 
G01 X-21.8712 Y16.6507 
G01 X-21.9130 Y16.6227 
G01 X-21.9287 Y16.6175 
G01 X-21.9430 Y16.6091 
G01 X-21.9916 Y16.5961 
G01 X-22.0393 Y16.5799 
G01 X-22.0559 Y16.5789 
G01 X-22.0717 Y16.5746 
G01 X-22.1223 Y16.5746 
G01 X-22.1724 Y16.5714 
G01 X-22.1884 Y16.5746 
G01 X-22.2052 Y16.5746 
G01 X-22.2540 Y16.5877 
G01 X-22.3032 Y16.5975 
G01 X-22.3180 Y16.6049 
G01 X-22.3339 Y16.6091 
G01 X-22.3771 Y16.6341 
G01 X-22.4227 Y16.6566 
G01 X-22.4352 Y16.6677 
G01 X-22.4494 Y16.6758 
G01 X-22.4847 Y16.7112 
G01 X-22.5228 Y16.7446 
G01 X-22.5320 Y16.7584 
G01 X-22.5436 Y16.7700 
G01 X-22.5686 Y16.8134 
G01 X-23.6658 Y18.4593 
G01 X-23.6658 Y17.0142 
G00 Z1.5000 
G00 X-21.1704 Y20.1983 
G01 Z-0.1778 F375.00 
G01 X-21.1359 Y20.3270 F1500.00 
G01 X-21.0692 Y20.4425 
G01 X-20.9750 Y20.5367 
G01 X-20.8595 Y20.6034 
G01 X-20.7308 Y20.6379 
G01 X-20.5973 Y20.6379 
G01 X-20.4686 Y20.6034 
G01 X-20.3531 Y20.5367 
G01 X-20.2589 Y20.4425 
G01 X-20.1922 Y20.3270 
G01 X-20.1577 Y20.1983 
G01 X-20.1577 Y19.8328 
G01 X-19.6473 Y19.3223 
G01 X-19.1367 Y19.8329 
G01 X-19.1367 Y20.1983 
G01 X-19.1022 Y20.3270 
G01 X-19.0355 Y20.4425 
G01 X-18.9413 Y20.5367 
G01 X-18.8258 Y20.6034 
G01 X-18.6971 Y20.6379 
G01 X-18.5636 Y20.6379 
G01 X-18.4349 Y20.6034 
G01 X-18.3194 Y20.5367 
G01 X-18.2252 Y20.4425 
G01 X-18.1585 Y20.3270 
G01 X-18.1240 Y20.1983 
G01 X-18.1240 Y19.5563 
G01 X-18.1585 Y19.4276 
G01 X-18.2252 Y19.3121 
G01 X-18.3194 Y19.2179 
G01 X-19.1409 Y18.3964 
G01 X-19.1409 Y17.0142 
G01 X-19.1754 Y16.8855 
G01 X-19.2421 Y16.7700 
G01 X-19.3363 Y16.6758 
G01 X-19.4518 Y16.6091 
G01 X-19.5805 Y16.5746 
G01 X-19.7140 Y16.5746 
G01 X-19.8427 Y16.6091 
G01 X-19.9582 Y16.6758 
G01 X-20.0524 Y16.7700 
G01 X-20.1191 Y16.8855 
G01 X-20.1536 Y17.0142 
G01 X-20.1536 Y18.3965 
G01 X-21.0692 Y19.3121 
G01 X-21.1359 Y19.4276 
G01 X-21.1704 Y19.5563 
G01 X-21.1704 Y19.6898 
G01 X-21.1704 Y20.1983 
G00 Z1.5000 
G00 X-16.6496 Y17.0142 
G01 Z-0.1778 F375.00 
G01 X-16.6841 Y16.8855 F1500.00 
G01 X-16.7508 Y16.7700 
G01 X-16.8450 Y16.6758 
G01 X-16.9605 Y16.6091 
G01 X-17.0892 Y16.5746 
G01 X-17.2227 Y16.5746 
G01 X-17.3514 Y16.6091 
G01 X-17.4669 Y16.6758 
G01 X-17.5611 Y16.7700 
G01 X-17.6278 Y16.8855 
G01 X-17.6623 Y17.0142 
G01 X-17.6623 Y18.0310 
G01 X-17.6623 Y18.1645 
G01 X-17.6623 Y20.0648 
G01 X-17.6623 Y20.1983 
G01 X-17.6278 Y20.3270 
G01 X-17.5611 Y20.4425 
G01 X-17.4669 Y20.5367 
G01 X-17.3514 Y20.6034 
G01 X-17.2227 Y20.6379 
G01 X-15.6973 Y20.6379 
G01 X-15.5639 Y20.6379 
G01 X-15.4351 Y20.6034 
G01 X-15.3197 Y20.5367 
G01 X-15.3103 Y20.5273 
G01 X-15.2255 Y20.4425 
G01 X-14.7264 Y19.9433 
G01 X-14.7171 Y19.9340 
G01 X-14.6524 Y19.8219 
G01 X-14.6504 Y19.8185 
G01 X-14.6159 Y19.6898 
G01 X-14.6159 Y18.6730 
G01 X-14.6159 Y18.5396 
G01 X-14.6490 Y18.4163 
G01 X-14.6504 Y18.4108 
G01 X-14.7170 Y18.2954 
G01 X-15.2255 Y17.7869 
G01 X-15.3197 Y17.6926 
G01 X-15.3223 Y17.6912 
G01 X-15.4351 Y17.6259 
G01 X-15.5585 Y17.5929 
G01 X-15.5639 Y17.5914 
G01 X-16.6496 Y17.5914 
G01 X-16.6496 Y17.0142 
G00 Z1.5000 
G00 X-10.6461 Y20.1983 
G01 Z-0.1778 F375.00 
G01 X-10.6116 Y20.3270 F1500.00 
G01 X-10.5449 Y20.4425 
G01 X-10.4507 Y20.5367 
G01 X-10.3352 Y20.6034 
G01 X-10.2065 Y20.6379 
G01 X-10.0730 Y20.6379 
G01 X-9.9443 Y20.6034 
G01 X-9.8288 Y20.5367 
G01 X-9.7346 Y20.4425 
G01 X-9.6679 Y20.3270 
G01 X-9.6334 Y20.1983 
G01 X-9.6334 Y18.3075 
G01 X-9.1230 Y17.7970 
G01 X-8.6124 Y18.3076 
G01 X-8.6124 Y20.1983 
G01 X-8.5779 Y20.3270 
G01 X-8.5112 Y20.4425 
G01 X-8.4170 Y20.5367 
G01 X-8.3015 Y20.6034 
G01 X-8.1728 Y20.6379 
G01 X-8.0393 Y20.6379 
G01 X-7.9106 Y20.6034 
G01 X-7.7951 Y20.5367 
G01 X-7.7009 Y20.4425 
G01 X-7.6342 Y20.3270 
G01 X-7.5997 Y20.1983 
G01 X-7.5997 Y18.0310 
G01 X-7.6342 Y17.9023 
G01 X-7.7009 Y17.7868 
G01 X-7.7951 Y17.6926 
G01 X-8.8120 Y16.6757 
G01 X-8.9275 Y16.6091 
G01 X-8.9330 Y16.6077 
G01 X-9.0562 Y16.5746 
G01 X-9.1897 Y16.5746 
G01 X-9.3184 Y16.6091 
G01 X-9.4339 Y16.6758 
G01 X-9.5282 Y16.7700 
G01 X-10.5449 Y17.7868 
G01 X-10.6116 Y17.9023 
G01 X-10.6461 Y18.0310 
G01 X-10.6461 Y18.1645 
G01 X-10.6461 Y20.1983 
G00 Z1.5000 
G00 X-47.7680 Y9.1212 
G01 Z-0.1778 F375.00 
G01 X-47.8562 Y9.0330 F1500.00 
G01 X-47.9599 Y8.9637 
G01 X-48.0752 Y8.9159 
G01 X-48.1975 Y8.8916 
G01 X-52.8621 Y8.8916 
G01 X-53.0145 Y8.7392 
G01 X-53.6654 Y8.7392 
G01 X-54.1257 Y9.1995 
G01 X-54.1257 Y9.8504 
G01 X-53.6654 Y10.3107 
G01 X-53.0145 Y10.3107 
G01 X-52.8621 Y10.1583 
G01 X-48.5223 Y10.1583 
G01 X-46.8469 Y11.8336 
G01 X-46.7587 Y11.9219 
G01 X-46.6550 Y11.9912 
G01 X-46.5397 Y12.0390 
G01 X-46.4174 Y12.0633 
G01 X-43.4423 Y12.0633 
G01 X-42.2253 Y13.2803 
G01 X-42.2253 Y13.7286 
G01 X-41.6686 Y14.2853 
G01 X-40.8813 Y14.2853 
G01 X-40.3246 Y13.7286 
G01 X-40.3246 Y12.9413 
G01 X-40.8813 Y12.3846 
G01 X-41.3296 Y12.3846 
G01 X-42.6880 Y11.0262 
G01 X-42.7762 Y10.9380 
G01 X-42.8799 Y10.8687 
G01 X-42.9952 Y10.8209 
G01 X-43.1175 Y10.7966 
G01 X-46.0926 Y10.7966 
G01 X-47.7680 Y9.1212 
G00 Z1.5000 
G00 X-42.3627 Y30.9459 
G01 Z-0.1778 F375.00 
G01 X-42.1888 Y31.0180 F1500.00 
G01 X-42.0041 Y31.0547 
G01 X-41.8158 Y31.0547 
G01 X-41.6311 Y31.0180 
G01 X-41.4572 Y30.9459 
G01 X-41.3920 Y30.9023 
G01 X-37.0048 Y30.9023 
G01 X-36.8496 Y30.8714 
G01 X-36.7034 Y30.8109 
G01 X-36.6882 Y30.8007 
G01 X-36.4341 Y30.8007 
G01 X-36.2818 Y30.6483 
G01 X-34.2108 Y30.6483 
G01 X-34.0556 Y30.6174 
G01 X-33.9094 Y30.5569 
G01 X-33.7778 Y30.4690 
G01 X-33.6659 Y30.3571 
G01 X-32.1450 Y28.8362 
G01 X-32.0288 Y28.8844 
G01 X-31.8441 Y28.9211 
G01 X-31.6558 Y28.9211 
G01 X-31.4711 Y28.8844 
G01 X-31.2972 Y28.8123 
G01 X-31.1407 Y28.7077 
G01 X-31.0076 Y28.5746 
G01 X-30.9277 Y28.4549 
G01 X-30.9277 Y28.5429 
G01 X-30.9921 Y28.5859 
G01 X-33.9878 Y31.5816 
G01 X-36.2818 Y31.5816 
G01 X-36.4341 Y31.4292 
G01 X-37.2258 Y31.4292 
G01 X-37.3781 Y31.5816 
G01 X-41.1078 Y31.5816 
G01 X-41.5141 Y31.1752 
G01 X-42.3058 Y31.1752 
G01 X-42.4581 Y31.3276 
G01 X-49.4511 Y31.3276 
G01 X-51.1465 Y29.6323 
G01 X-50.3620 Y29.6323 
G01 X-49.7426 Y29.0129 
G01 X-49.7426 Y28.1370 
G01 X-50.0173 Y27.8623 
G01 X-49.9584 Y27.8035 
G01 X-48.9837 Y27.8035 
G01 X-49.3173 Y28.1370 
G01 X-49.3173 Y29.0129 
G01 X-48.6979 Y29.6323 
G01 X-48.3388 Y29.6323 
G01 X-47.2481 Y30.7230 
G01 X-47.1165 Y30.8109 
G01 X-46.9703 Y30.8714 
G01 X-46.8151 Y30.9023 
G01 X-46.6568 Y30.9023 
G01 X-42.4279 Y30.9023 
G01 X-42.3627 Y30.9459 
G00 Z1.5000 
G00 X-44.4151 Y45.8147 
G01 Z-0.1778 F375.00 
G01 X-44.3173 Y45.9494 F1500.00 
G01 X-44.1996 Y46.0671 
G01 X-44.0649 Y46.1649 
G01 X-44.0123 Y46.1916 
G01 X-47.9876 Y46.1916 
G01 X-47.9350 Y46.1649 
G01 X-47.8003 Y46.0671 
G01 X-47.6826 Y45.9494 
G01 X-47.5848 Y45.8147 
G01 X-47.5565 Y45.7591 
G01 X-44.4434 Y45.7591 
G01 X-44.4151 Y45.8147 
G00 Z1.5000 
G00 X-41.1802 Y44.5717 
G01 Z-0.1778 F375.00 
G01 X-41.2979 Y44.4540 F1500.00 
G01 X-41.4326 Y44.3562 
G01 X-41.5808 Y44.2807 
G01 X-41.7391 Y44.2292 
G01 X-41.9035 Y44.2032 
G01 X-43.5940 Y44.2032 
G01 X-43.7584 Y44.2292 
G01 X-43.9167 Y44.2807 
G01 X-44.0649 Y44.3562 
G01 X-44.1996 Y44.4540 
G01 X-44.3173 Y44.5717 
G01 X-44.4151 Y44.7064 
G01 X-44.4434 Y44.7620 
G01 X-47.5565 Y44.7620 
G01 X-47.5848 Y44.7064 
G01 X-47.6826 Y44.5717 
G01 X-47.8003 Y44.4540 
G01 X-47.9350 Y44.3562 
G01 X-48.0832 Y44.2807 
G01 X-48.2415 Y44.2292 
G01 X-48.4059 Y44.2032 
G01 X-50.0964 Y44.2032 
G01 X-50.2608 Y44.2292 
G01 X-50.4191 Y44.2807 
G01 X-50.5673 Y44.3562 
G01 X-50.7020 Y44.4540 
G01 X-50.8197 Y44.5717 
G01 X-50.9175 Y44.7064 
G01 X-50.9930 Y44.8546 
G01 X-51.0445 Y45.0129 
G01 X-51.0705 Y45.1773 
G01 X-51.0705 Y45.3438 
G01 X-51.0445 Y45.5082 
G01 X-50.9957 Y45.6581 
G01 X-51.2666 Y45.3871 
G01 X-51.2666 Y43.8033 
G01 X-39.9328 Y43.8033 
G01 X-39.2121 Y44.5240 
G01 X-39.1185 Y44.5864 
G01 X-41.1696 Y44.5864 
G01 X-41.1802 Y44.5717 
G00 Z1.5000 
G00 X-38.1878 Y44.5240 
G01 Z-0.1778 F375.00 
G01 X-38.0759 Y44.4121 F1500.00 
G01 X-38.0669 Y44.3985 
G01 X-18.2630 Y44.3985 
G01 X-18.2540 Y44.4121 
G01 X-18.1421 Y44.5240 
G01 X-18.0485 Y44.5864 
G01 X-38.2814 Y44.5864 
G01 X-38.1878 Y44.5240 
G00 Z1.5000 
G00 X-15.0000 Y42.4061 
G01 Z-0.1778 F375.00 
G01 X-13.6240 Y43.7821 F1500.00 
G01 X-13.5121 Y43.8940 
G01 X-13.4260 Y43.9514 
G01 X-16.4443 Y43.9514 
G01 X-16.5453 Y43.9514 
G01 X-15.0000 Y42.4061 
G00 Z1.5000 
G00 X-11.0442 Y43.6658 
G01 Z-0.1778 F375.00 
G01 X-11.0442 Y42.8741 F1500.00 
G01 X-11.6041 Y42.3142 
G01 X-12.3958 Y42.3142 
G01 X-12.5482 Y42.4666 
G01 X-12.6671 Y42.4666 
G01 X-14.4878 Y40.6459 
G01 X-14.5043 Y40.6349 
G01 X-14.4878 Y40.6240 
G01 X-14.3759 Y40.5121 
G01 X-14.3669 Y40.4985 
G01 X-12.9557 Y40.4985 
G01 X-12.9557 Y41.1258 
G01 X-12.3958 Y41.6857 
G01 X-11.6041 Y41.6857 
G01 X-11.0442 Y41.1258 
G01 X-11.0442 Y40.3341 
G01 X-11.6041 Y39.7742 
G01 X-11.7714 Y39.7742 
G01 X-11.7714 Y38.6643 
G01 X-11.8054 Y38.5375 
G01 X-11.8710 Y38.4238 
G01 X-11.9638 Y38.3310 
G01 X-12.7964 Y37.4985 
G01 X-12.7365 Y37.4985 
G01 X-10.6585 Y39.5765 
G01 X-10.6585 Y43.6084 
G01 X-11.0015 Y43.9514 
G01 X-11.3299 Y43.9514 
G01 X-11.0442 Y43.6658 
G00 Z1.5000 
G00 X-16.1934 Y37.3014 
G01 Z-0.1778 F375.00 
G01 X-17.2014 Y36.2934 F1500.00 
G01 X-17.2014 Y36.2454 
G01 X-17.1192 Y36.3277 
G01 X-16.9627 Y36.4323 
G01 X-16.7888 Y36.5044 
G01 X-16.6041 Y36.5411 
G01 X-16.4158 Y36.5411 
G01 X-16.2311 Y36.5044 
G01 X-16.2095 Y36.4954 
G01 X-15.4035 Y37.3014 
G01 X-16.1934 Y37.3014 
G00 Z1.5000 
G00 X-18.2030 Y36.0381 
G01 Z-0.1778 F375.00 
G01 X-18.1985 Y36.0271 F1500.00 
G01 X-18.1985 Y36.5656 
G01 X-18.1645 Y36.6924 
G01 X-18.1550 Y36.7087 
G01 X-18.2466 Y36.6171 
G01 X-18.2466 Y36.1033 
G01 X-18.2030 Y36.0381 
G00 Z1.5000 
G00 X-19.4238 Y43.3989 
G01 Z-0.1778 F375.00 
G01 X-17.9807 Y41.9557 F1500.00 
G01 X-17.3341 Y41.9557 
G01 X-16.7742 Y41.3958 
G01 X-16.7742 Y41.1803 
G01 X-16.3971 Y40.8033 
G01 X-15.6694 Y40.8033 
G01 X-18.2540 Y43.3878 
G01 X-18.2630 Y43.4014 
G01 X-19.4283 Y43.4014 
G01 X-19.4238 Y43.3989 
G00 Z1.5000 
G00 X-15.7986 Y18.8864 
G01 Z-0.1778 F375.00 
G01 X-15.7986 Y19.3429 F1500.00 
G01 X-15.9109 Y19.4552 
G01 X-16.4796 Y19.4552 
G01 X-16.4796 Y18.7741 
G01 X-15.9109 Y18.7741 
G01 X-15.7986 Y18.8864 
G00 Z1.5000 
G00 X-24.8947 Y19.8112 
G01 Z-0.1778 F375.00 
G01 X-24.9687 Y19.7004 F1500.00 
G01 X-25.0629 Y19.6062 
G01 X-25.1737 Y19.5322 
G01 X-25.2967 Y19.4812 
G01 X-25.3261 Y19.4754 
G01 X-25.3261 Y17.7371 
G01 X-25.2967 Y17.7313 
G01 X-25.1737 Y17.6803 
G01 X-25.0629 Y17.6063 
G01 X-24.9687 Y17.5121 
G01 X-24.8947 Y17.4013 
G01 X-24.8485 Y17.2896 
G01 X-24.8485 Y19.9229 
G01 X-24.8947 Y19.8112 
G00 Z1.5000 
G00 X-12.8592 Y19.4552 
G01 Z-0.1778 F375.00 
G01 X-12.9715 Y19.3429 F1500.00 
G01 X-12.9715 Y17.8695 
G01 X-12.8593 Y17.7573 
G01 X-12.4027 Y17.7573 
G01 X-12.2905 Y17.8695 
G01 X-12.2905 Y19.3429 
G01 X-12.4028 Y19.4552 
G01 X-12.8592 Y19.4552 
G00 Z1.5000 
G00 X-29.9523 Y36.1946 
G01 Z-0.1778 F375.00 
G01 X-29.8192 Y36.3277 F1500.00 
G01 X-29.6627 Y36.4323 
G01 X-29.4888 Y36.5044 
G01 X-29.3041 Y36.5411 
G01 X-29.1158 Y36.5411 
G01 X-28.9311 Y36.5044 
G01 X-28.7572 Y36.4323 
G01 X-28.6007 Y36.3277 
G01 X-28.4676 Y36.1946 
G01 X-28.4385 Y36.1510 
G01 X-28.4385 Y36.6234 
G01 X-28.7815 Y36.9664 
G01 X-30.5464 Y36.9664 
G01 X-30.0810 Y36.5011 
G01 X-30.0154 Y36.3874 
G01 X-29.9814 Y36.2606 
G01 X-29.9814 Y36.1510 
G01 X-29.9523 Y36.1946 
G00 Z1.5000 
G00 X-66.2014 Y32.9266 
G01 Z-0.1778 F375.00 
G01 X-66.1989 Y32.9311 F1500.00 
G01 X-61.2661 Y37.8639 
G01 X-61.1524 Y37.9295 
G01 X-61.0256 Y37.9635 
G01 X-60.8943 Y37.9635 
G01 X-28.5093 Y37.9635 
G01 X-28.3825 Y37.9295 
G01 X-28.2688 Y37.8639 
G01 X-28.1760 Y37.7711 
G01 X-27.5410 Y37.1361 
G01 X-27.4754 Y37.0224 
G01 X-27.4414 Y36.8956 
G01 X-27.4414 Y36.7643 
G01 X-27.4414 Y36.1510 
G01 X-27.4123 Y36.1946 
G01 X-27.2792 Y36.3277 
G01 X-27.1227 Y36.4323 
G01 X-26.9488 Y36.5044 
G01 X-26.7641 Y36.5411 
G01 X-26.5758 Y36.5411 
G01 X-26.4202 Y36.5102 
G01 X-28.1465 Y38.2364 
G01 X-62.4584 Y38.2364 
G01 X-66.2014 Y34.4934 
G01 X-66.2014 Y32.9266 
G00 Z1.5000 
G00 X-57.5784 Y20.1835 
G01 Z-0.1778 F375.00 
G01 X-41.2730 Y20.1835 F1500.00 
G01 X-41.2640 Y20.1971 
G01 X-37.9503 Y23.5108 
G01 X-37.9503 Y23.5845 
G01 X-40.6353 Y26.8064 
G01 X-42.9434 Y26.8064 
G01 X-42.8924 Y26.7853 
G01 X-42.8387 Y26.7665 
G01 X-42.8200 Y26.7554 
G01 X-42.7994 Y26.7469 
G01 X-42.7514 Y26.7148 
G01 X-42.7025 Y26.6859 
G01 X-42.6862 Y26.6713 
G01 X-42.6678 Y26.6590 
G01 X-42.6272 Y26.6184 
G01 X-42.5847 Y26.5803 
G01 X-42.5715 Y26.5627 
G01 X-42.5559 Y26.5471 
G01 X-42.5242 Y26.4995 
G01 X-41.1110 Y24.6153 
G01 X-40.8109 Y24.6153 
G01 X-40.1546 Y23.9590 
G01 X-40.1546 Y23.0309 
G01 X-40.8109 Y22.3746 
G01 X-41.2591 Y22.3746 
G01 X-42.6678 Y20.9659 
G01 X-42.7994 Y20.8780 
G01 X-42.9456 Y20.8175 
G01 X-43.1008 Y20.7866 
G01 X-43.2591 Y20.7866 
G01 X-43.4143 Y20.8175 
G01 X-43.5605 Y20.8780 
G01 X-43.6921 Y20.9659 
G01 X-43.8040 Y21.0778 
G01 X-43.8130 Y21.0914 
G01 X-57.6243 Y21.0914 
G01 X-57.7556 Y21.0914 
G01 X-57.8824 Y21.1254 
G01 X-57.9961 Y21.1910 
G01 X-58.9489 Y22.1438 
G01 X-66.1061 Y29.3010 
G01 X-66.1989 Y29.3938 
G01 X-66.2014 Y29.3983 
G01 X-66.2014 Y28.8065 
G01 X-57.5784 Y20.1835 
G00 Z1.5000 
G00 X-12.3100 Y46.2985 
G01 Z-0.1778 F375.00 
G01 X-12.4014 Y46.3899 F1500.00 
G01 X-12.4014 Y46.2985 
G01 X-12.3100 Y46.2985 
G00 Z1.5000 
G00 X-8.9841 Y36.5411 
G01 Z-0.1778 F375.00 
G01 X-8.7958 Y36.5411 F1500.00 
G01 X-8.6111 Y36.5044 
G01 X-8.4949 Y36.4562 
G01 X-7.4033 Y37.5478 
G01 X-7.4033 Y38.2466 
G01 X-9.1397 Y36.5101 
G01 X-8.9841 Y36.5411 
G00 Z1.5000 
G00 X-12.3669 Y32.5014 
G01 Z-0.1778 F375.00 
G01 X-12.3759 Y32.4878 F1500.00 
G01 X-12.4878 Y32.3759 
G01 X-12.6194 Y32.2880 
G01 X-12.7656 Y32.2275 
G01 X-12.9208 Y32.1966 
G01 X-13.0791 Y32.1966 
G01 X-13.2343 Y32.2275 
G01 X-13.3805 Y32.2880 
G01 X-13.5121 Y32.3759 
G01 X-14.5940 Y33.4578 
G01 X-14.6819 Y33.5894 
G01 X-14.7070 Y33.6501 
G01 X-14.7123 Y33.6553 
G01 X-14.8169 Y33.8118 
G01 X-14.8890 Y33.9857 
G01 X-14.9257 Y34.1704 
G01 X-14.9257 Y35.6795 
G01 X-14.8890 Y35.8642 
G01 X-14.8169 Y36.0381 
G01 X-14.7123 Y36.1946 
G01 X-14.5792 Y36.3277 
G01 X-14.4227 Y36.4323 
G01 X-14.2558 Y36.5014 
G01 X-14.7934 Y36.5014 
G01 X-15.5644 Y35.7305 
G01 X-15.5542 Y35.6795 
G01 X-15.5542 Y34.1704 
G01 X-15.5909 Y33.9857 
G01 X-15.6630 Y33.8118 
G01 X-15.7676 Y33.6553 
G01 X-15.9007 Y33.5222 
G01 X-16.0572 Y33.4176 
G01 X-16.2311 Y33.3455 
G01 X-16.4158 Y33.3088 
G01 X-16.6041 Y33.3088 
G01 X-16.7888 Y33.3455 
G01 X-16.9627 Y33.4176 
G01 X-17.1192 Y33.5222 
G01 X-17.2014 Y33.6045 
G01 X-17.2014 Y31.2833 
G01 X-13.6678 Y31.2833 
G01 X-13.3590 Y31.5921 
G01 X-13.2471 Y31.7040 
G01 X-13.1155 Y31.7919 
G01 X-12.9693 Y31.8524 
G01 X-12.8141 Y31.8833 
G01 X-7.8033 Y31.8833 
G01 X-7.8033 Y32.7021 
G01 X-8.4949 Y33.3938 
G01 X-8.6111 Y33.3455 
G01 X-8.7958 Y33.3088 
G01 X-8.9841 Y33.3088 
G01 X-9.1688 Y33.3455 
G01 X-9.3427 Y33.4176 
G01 X-9.4992 Y33.5222 
G01 X-9.6323 Y33.6553 
G01 X-9.6614 Y33.6990 
G01 X-9.6614 Y33.5893 
G01 X-9.6954 Y33.4625 
G01 X-9.7610 Y33.3488 
G01 X-9.8538 Y33.2560 
G01 X-10.5088 Y32.6010 
G01 X-10.6225 Y32.5354 
G01 X-10.7493 Y32.5014 
G01 X-10.8806 Y32.5014 
G01 X-12.3669 Y32.5014 
G00 Z1.5000 
G00 X-23.6314 Y28.7816 
G01 Z-0.1778 F375.00 
G01 X-23.5207 Y28.7077 F1500.00 
G01 X-23.3876 Y28.5746 
G01 X-23.3077 Y28.4549 
G01 X-23.3077 Y29.1779 
G01 X-23.3721 Y29.2209 
G01 X-23.4840 Y29.3328 
G01 X-23.5719 Y29.4644 
G01 X-23.6314 Y29.6084 
G01 X-23.6314 Y28.7816 
G00 Z1.5000 
G00 X-24.7392 Y25.9022 
G01 Z-0.1778 F375.00 
G01 X-24.8723 Y26.0353 F1500.00 
G01 X-24.9769 Y26.1918 
G01 X-25.0490 Y26.3657 
G01 X-25.0857 Y26.5504 
G01 X-25.0857 Y28.0595 
G01 X-25.0490 Y28.2442 
G01 X-24.9769 Y28.4181 
G01 X-24.8723 Y28.5746 
G01 X-24.7392 Y28.7077 
G01 X-24.6285 Y28.7816 
G01 X-24.6285 Y30.9084 
G01 X-25.7061 Y31.9860 
G01 X-25.7989 Y32.0788 
G01 X-25.8645 Y32.1925 
G01 X-25.8985 Y32.3193 
G01 X-25.8985 Y33.6989 
G01 X-25.9276 Y33.6553 
G01 X-26.0607 Y33.5222 
G01 X-26.2172 Y33.4176 
G01 X-26.3911 Y33.3455 
G01 X-26.5758 Y33.3088 
G01 X-26.7641 Y33.3088 
G01 X-26.9488 Y33.3455 
G01 X-27.1227 Y33.4176 
G01 X-27.2792 Y33.5222 
G01 X-27.4123 Y33.6553 
G01 X-27.4414 Y33.6989 
G01 X-27.4414 Y33.2265 
G01 X-26.2710 Y32.0561 
G01 X-26.2054 Y31.9424 
G01 X-26.1714 Y31.8156 
G01 X-26.1714 Y31.6843 
G01 X-26.1714 Y28.7816 
G01 X-26.0607 Y28.7077 
G01 X-25.9276 Y28.5746 
G01 X-25.8230 Y28.4181 
G01 X-25.7509 Y28.2442 
G01 X-25.7142 Y28.0595 
G01 X-25.7142 Y26.5504 
G01 X-25.7509 Y26.3657 
G01 X-25.8230 Y26.1918 
G01 X-25.9276 Y26.0353 
G01 X-26.0607 Y25.9022 
G01 X-26.1424 Y25.8477 
G01 X-24.6575 Y25.8477 
G01 X-24.7392 Y25.9022 
G00 Z1.5000 
G00 X-27.2792 Y25.9022 
G01 Z-0.1778 F375.00 
G01 X-27.4123 Y26.0353 F1500.00 
G01 X-27.5169 Y26.1918 
G01 X-27.5890 Y26.3657 
G01 X-27.6257 Y26.5504 
G01 X-27.6257 Y28.0595 
G01 X-27.5890 Y28.2442 
G01 X-27.5169 Y28.4181 
G01 X-27.4123 Y28.5746 
G01 X-27.2792 Y28.7077 
G01 X-27.1685 Y28.7816 
G01 X-27.1685 Y31.5434 
G01 X-28.2461 Y32.6210 
G01 X-28.3389 Y32.7138 
G01 X-28.4045 Y32.8275 
G01 X-28.4385 Y32.9543 
G01 X-28.4385 Y33.6989 
G01 X-28.4676 Y33.6553 
G01 X-28.6007 Y33.5222 
G01 X-28.7572 Y33.4176 
G01 X-28.9311 Y33.3455 
G01 X-29.1158 Y33.3088 
G01 X-29.3041 Y33.3088 
G01 X-29.4888 Y33.3455 
G01 X-29.6627 Y33.4176 
G01 X-29.8192 Y33.5222 
G01 X-29.9523 Y33.6553 
G01 X-29.9814 Y33.6989 
G01 X-29.9814 Y33.2265 
G01 X-28.8110 Y32.0561 
G01 X-28.7454 Y31.9424 
G01 X-28.7114 Y31.8156 
G01 X-28.7114 Y31.6843 
G01 X-28.7114 Y28.7816 
G01 X-28.6007 Y28.7077 
G01 X-28.4676 Y28.5746 
G01 X-28.3630 Y28.4181 
G01 X-28.2909 Y28.2442 
G01 X-28.2542 Y28.0595 
G01 X-28.2542 Y26.5504 
G01 X-28.2909 Y26.3657 
G01 X-28.3630 Y26.1918 
G01 X-28.4676 Y26.0353 
G01 X-28.6007 Y25.9022 
G01 X-28.6824 Y25.8477 
G01 X-27.1975 Y25.8477 
G01 X-27.2792 Y25.9022 
G00 Z1.5000 
G00 X-29.9523 Y28.5746 
G01 Z-0.1778 F375.00 
G01 X-29.8192 Y28.7077 F1500.00 
G01 X-29.7085 Y28.7816 
G01 X-29.7085 Y28.9733 
G01 X-29.7680 Y28.8294 
G01 X-29.8559 Y28.6978 
G01 X-29.9678 Y28.5859 
G01 X-30.0322 Y28.5429 
G01 X-30.0322 Y28.4549 
G01 X-29.9523 Y28.5746 
G00 Z1.5000 
G00 X-49.7426 Y26.4729 
G01 Z-0.1778 F375.00 
G01 X-49.7426 Y25.5970 F1500.00 
G01 X-49.9966 Y25.3431 
G01 X-49.9966 Y25.0978 
G01 X-49.1971 Y24.2983 
G01 X-46.5009 Y24.2983 
G01 X-46.1840 Y24.6153 
G01 X-45.2559 Y24.6153 
G01 X-44.5996 Y23.9590 
G01 X-44.5996 Y23.0309 
G01 X-45.2559 Y22.3746 
G01 X-46.1840 Y22.3746 
G01 X-46.5009 Y22.6916 
G01 X-49.6091 Y22.6916 
G01 X-49.7643 Y22.7225 
G01 X-49.9105 Y22.7830 
G01 X-50.0421 Y22.8709 
G01 X-50.1540 Y22.9828 
G01 X-51.0155 Y23.8444 
G01 X-51.1288 Y23.7310 
G01 X-51.2425 Y23.6654 
G01 X-51.3693 Y23.6314 
G01 X-51.5006 Y23.6314 
G01 X-53.4056 Y23.6314 
G01 X-53.5324 Y23.6654 
G01 X-53.6461 Y23.7310 
G01 X-53.7389 Y23.8238 
G01 X-57.3565 Y27.4414 
G01 X-62.1643 Y27.4414 
G01 X-62.2956 Y27.4414 
G01 X-62.4224 Y27.4754 
G01 X-62.5361 Y27.5410 
G01 X-64.6060 Y29.6110 
G01 X-64.6989 Y29.7038 
G01 X-64.7645 Y29.8175 
G01 X-64.7985 Y29.9443 
G01 X-64.7985 Y32.1543 
G01 X-64.7985 Y32.2856 
G01 X-64.7645 Y32.4124 
G01 X-64.6989 Y32.5261 
G01 X-60.6311 Y36.5939 
G01 X-60.5174 Y36.6595 
G01 X-60.3906 Y36.6935 
G01 X-60.2593 Y36.6935 
G01 X-33.2265 Y36.6935 
G01 X-32.9535 Y36.9664 
G01 X-60.7534 Y36.9664 
G01 X-65.3014 Y32.4184 
G01 X-65.3014 Y29.9065 
G01 X-58.2439 Y22.8489 
G01 X-57.4834 Y22.0885 
G01 X-43.8130 Y22.0885 
G01 X-43.8040 Y22.1021 
G01 X-42.3953 Y23.5108 
G01 X-42.3953 Y23.6498 
G01 X-43.5816 Y25.2316 
G01 X-47.5680 Y25.2316 
G01 X-47.8220 Y24.9776 
G01 X-48.6979 Y24.9776 
G01 X-49.3173 Y25.5970 
G01 X-49.3173 Y26.4729 
G01 X-48.9837 Y26.8064 
G01 X-50.0762 Y26.8064 
G01 X-49.7426 Y26.4729 
G00 Z1.5000 
G00 X-62.0956 Y28.7114 
G01 Z-0.1778 F375.00 
G01 X-62.2224 Y28.7454 F1500.00 
G01 X-62.3361 Y28.8110 
G01 X-62.4289 Y28.9038 
G01 X-63.6989 Y30.1738 
G01 X-63.7645 Y30.2875 
G01 X-63.7985 Y30.4143 
G01 X-63.7985 Y30.5456 
G01 X-63.7985 Y31.7414 
G01 X-63.8004 Y31.7994 
G01 X-63.7985 Y31.8075 
G01 X-63.7985 Y31.8156 
G01 X-63.7836 Y31.8709 
G01 X-63.7705 Y31.9272 
G01 X-63.7666 Y31.9344 
G01 X-63.7645 Y31.9424 
G01 X-63.7355 Y31.9925 
G01 X-63.7086 Y32.0430 
G01 X-63.7030 Y32.0489 
G01 X-63.6989 Y32.0561 
G01 X-63.6580 Y32.0970 
G01 X-62.7657 Y33.0492 
G01 X-63.8014 Y32.0134 
G01 X-63.8014 Y30.2164 
G01 X-62.0234 Y28.4385 
G01 X-57.2156 Y28.4385 
G01 X-57.0843 Y28.4385 
G01 X-56.9575 Y28.4045 
G01 X-56.8438 Y28.3389 
G01 X-54.3973 Y25.8923 
G01 X-54.3973 Y25.9561 
G01 X-57.1390 Y28.6978 
G01 X-57.1480 Y28.7114 
G01 X-62.0956 Y28.7114 
G00 Z1.5000 
G00 X-32.7057 Y35.6795 
G01 Z-0.1778 F375.00 
G01 X-32.6748 Y35.8351 F1500.00 
G01 X-32.7138 Y35.7960 
G01 X-32.8275 Y35.7304 
G01 X-32.9543 Y35.6964 
G01 X-33.0856 Y35.6964 
G01 X-60.1184 Y35.6964 
G01 X-60.3918 Y35.4231 
G01 X-60.3336 Y35.4235 
G01 X-60.2755 Y35.4254 
G01 X-60.2674 Y35.4235 
G01 X-32.7057 Y35.4235 
G01 X-32.7057 Y35.6795 
G00 Z1.5000 
G00 X-42.3058 Y33.0867 
G01 Z-0.1778 F375.00 
G01 X-42.0518 Y33.0867 F1500.00 
G01 X-42.0365 Y33.0969 
G01 X-41.8903 Y33.1574 
G01 X-41.7351 Y33.1883 
G01 X-37.3781 Y33.1883 
G01 X-37.2258 Y33.3407 
G01 X-36.4341 Y33.3407 
G01 X-36.2818 Y33.1883 
G01 X-33.7341 Y33.1883 
G01 X-33.5758 Y33.1883 
G01 X-33.4206 Y33.1574 
G01 X-33.2744 Y33.0969 
G01 X-33.1428 Y33.0090 
G01 X-29.8559 Y29.7221 
G01 X-29.7680 Y29.5905 
G01 X-29.7085 Y29.4466 
G01 X-29.7085 Y31.5434 
G01 X-30.7861 Y32.6210 
G01 X-30.8789 Y32.7138 
G01 X-30.9445 Y32.8275 
G01 X-30.9785 Y32.9543 
G01 X-30.9785 Y33.6989 
G01 X-31.0076 Y33.6553 
G01 X-31.1407 Y33.5222 
G01 X-31.2972 Y33.4176 
G01 X-31.4711 Y33.3455 
G01 X-31.6558 Y33.3088 
G01 X-31.8441 Y33.3088 
G01 X-32.0288 Y33.3455 
G01 X-32.2027 Y33.4176 
G01 X-32.3592 Y33.5222 
G01 X-32.4923 Y33.6553 
G01 X-32.5969 Y33.8118 
G01 X-32.6690 Y33.9857 
G01 X-32.7057 Y34.1704 
G01 X-32.7057 Y34.4264 
G01 X-60.1089 Y34.4264 
G01 X-62.8014 Y31.5529 
G01 X-62.8014 Y30.6865 
G01 X-61.8234 Y29.7085 
G01 X-57.1480 Y29.7085 
G01 X-57.1390 Y29.7221 
G01 X-57.0271 Y29.8340 
G01 X-56.8955 Y29.9219 
G01 X-56.7493 Y29.9824 
G01 X-56.5941 Y30.0133 
G01 X-56.4358 Y30.0133 
G01 X-56.2806 Y29.9824 
G01 X-56.1344 Y29.9219 
G01 X-56.0028 Y29.8340 
G01 X-54.3973 Y28.2284 
G01 X-54.3973 Y28.4961 
G01 X-56.0828 Y30.1816 
G01 X-60.2834 Y30.1816 
G01 X-60.3010 Y30.1574 
G01 X-60.4424 Y30.0160 
G01 X-60.6041 Y29.8984 
G01 X-60.7823 Y29.8077 
G01 X-60.9724 Y29.7459 
G01 X-61.1699 Y29.7146 
G01 X-61.3700 Y29.7146 
G01 X-61.5675 Y29.7459 
G01 X-61.7576 Y29.8077 
G01 X-61.9358 Y29.8984 
G01 X-62.0975 Y30.0160 
G01 X-62.2389 Y30.1574 
G01 X-62.3565 Y30.3191 
G01 X-62.4472 Y30.4973 
G01 X-62.5090 Y30.6874 
G01 X-62.5403 Y30.8849 
G01 X-62.5403 Y31.0850 
G01 X-62.5090 Y31.2825 
G01 X-62.4472 Y31.4726 
G01 X-62.3565 Y31.6508 
G01 X-62.2389 Y31.8125 
G01 X-62.0975 Y31.9539 
G01 X-61.9358 Y32.0715 
G01 X-61.7576 Y32.1622 
G01 X-61.5675 Y32.2240 
G01 X-61.3700 Y32.2553 
G01 X-61.1699 Y32.2553 
G01 X-60.9724 Y32.2240 
G01 X-60.7823 Y32.1622 
G01 X-60.6041 Y32.0715 
G01 X-60.4424 Y31.9539 
G01 X-60.3010 Y31.8125 
G01 X-60.2834 Y31.7883 
G01 X-55.8291 Y31.7883 
G01 X-55.6708 Y31.7883 
G01 X-55.5156 Y31.7574 
G01 X-55.3694 Y31.6969 
G01 X-55.2378 Y31.6090 
G01 X-53.3400 Y29.7111 
G01 X-50.4080 Y32.6431 
G01 X-50.2961 Y32.7550 
G01 X-50.1645 Y32.8429 
G01 X-50.0183 Y32.9034 
G01 X-49.8631 Y32.9343 
G01 X-42.4581 Y32.9343 
G01 X-42.3058 Y33.0867 
G00 Z1.5000 
G00 X-52.2826 Y28.1370 
G01 Z-0.1778 F375.00 
G01 X-52.9020 Y27.5176 F1500.00 
G01 X-53.6865 Y27.5176 
G01 X-53.2611 Y27.0923 
G01 X-52.9020 Y27.0923 
G01 X-52.2826 Y26.4729 
G01 X-52.2826 Y25.5970 
G01 X-52.9020 Y24.9776 
G01 X-53.4826 Y24.9776 
G01 X-53.1335 Y24.6285 
G01 X-51.6415 Y24.6285 
G01 X-51.6001 Y24.6699 
G01 X-51.6033 Y24.6858 
G01 X-51.6033 Y24.8441 
G01 X-51.6033 Y25.3431 
G01 X-51.8573 Y25.5970 
G01 X-51.8573 Y26.4729 
G01 X-51.2379 Y27.0923 
G01 X-50.6573 Y27.0923 
G01 X-51.0827 Y27.5176 
G01 X-51.2379 Y27.5176 
G01 X-51.8573 Y28.1370 
G01 X-51.8573 Y28.9215 
G01 X-52.2826 Y28.4961 
G01 X-52.2826 Y28.1370 
G00 Z1.5000 
G00 X-36.6857 Y40.6041 
G01 Z-0.1778 F375.00 
G01 X-36.6857 Y41.3958 F1500.00 
G01 X-36.1258 Y41.9557 
G01 X-35.3341 Y41.9557 
G01 X-35.1317 Y41.7533 
G01 X-30.8509 Y41.7533 
G01 X-30.7857 Y41.7969 
G01 X-30.6118 Y41.8690 
G01 X-30.4271 Y41.9057 
G01 X-30.2388 Y41.9057 
G01 X-30.0541 Y41.8690 
G01 X-29.8957 Y41.8033 
G01 X-27.9208 Y41.8033 
G01 X-27.7656 Y41.7724 
G01 X-27.6194 Y41.7119 
G01 X-27.4878 Y41.6240 
G01 X-27.3759 Y41.5121 
G01 X-26.3394 Y40.4755 
G01 X-26.3539 Y40.4972 
G01 X-26.4260 Y40.6711 
G01 X-26.4627 Y40.8558 
G01 X-26.4627 Y41.0441 
G01 X-26.4260 Y41.2288 
G01 X-26.3539 Y41.4027 
G01 X-26.2493 Y41.5592 
G01 X-26.1162 Y41.6923 
G01 X-25.9597 Y41.7969 
G01 X-25.7858 Y41.8690 
G01 X-25.6011 Y41.9057 
G01 X-25.4128 Y41.9057 
G01 X-25.2281 Y41.8690 
G01 X-25.0697 Y41.8033 
G01 X-20.8182 Y41.8033 
G01 X-20.6658 Y41.9557 
G01 X-19.8741 Y41.9557 
G01 X-19.3142 Y41.3958 
G01 X-19.3142 Y40.6041 
G01 X-19.8741 Y40.0442 
G01 X-20.6658 Y40.0442 
G01 X-20.8182 Y40.1966 
G01 X-23.6175 Y40.1966 
G01 X-20.9659 Y37.5451 
G01 X-20.8780 Y37.4135 
G01 X-20.8175 Y37.2673 
G01 X-20.7866 Y37.1121 
G01 X-20.7866 Y36.9538 
G01 X-20.7866 Y36.1033 
G01 X-20.7430 Y36.0381 
G01 X-20.6709 Y35.8642 
G01 X-20.6342 Y35.6795 
G01 X-20.6342 Y34.1704 
G01 X-20.6709 Y33.9857 
G01 X-20.7430 Y33.8118 
G01 X-20.8476 Y33.6553 
G01 X-20.9807 Y33.5222 
G01 X-21.1372 Y33.4176 
G01 X-21.3111 Y33.3455 
G01 X-21.4958 Y33.3088 
G01 X-21.6841 Y33.3088 
G01 X-21.8688 Y33.3455 
G01 X-22.0427 Y33.4176 
G01 X-22.1992 Y33.5222 
G01 X-22.3323 Y33.6553 
G01 X-22.4369 Y33.8118 
G01 X-22.5090 Y33.9857 
G01 X-22.5457 Y34.1704 
G01 X-22.5457 Y35.6795 
G01 X-22.5090 Y35.8642 
G01 X-22.4369 Y36.0381 
G01 X-22.3933 Y36.1033 
G01 X-22.3933 Y36.7001 
G01 X-25.7088 Y40.0156 
G01 X-25.7858 Y40.0309 
G01 X-25.9597 Y40.1030 
G01 X-25.9814 Y40.1175 
G01 X-23.5059 Y37.6421 
G01 X-23.4180 Y37.5105 
G01 X-23.3575 Y37.3643 
G01 X-23.3266 Y37.2091 
G01 X-23.3266 Y37.0508 
G01 X-23.3266 Y36.1033 
G01 X-23.2830 Y36.0381 
G01 X-23.2109 Y35.8642 
G01 X-23.1742 Y35.6795 
G01 X-23.1742 Y34.1704 
G01 X-23.2109 Y33.9857 
G01 X-23.2830 Y33.8118 
G01 X-23.3876 Y33.6553 
G01 X-23.5207 Y33.5222 
G01 X-23.6772 Y33.4176 
G01 X-23.8511 Y33.3455 
G01 X-24.0358 Y33.3088 
G01 X-24.2241 Y33.3088 
G01 X-24.4088 Y33.3455 
G01 X-24.5827 Y33.4176 
G01 X-24.7392 Y33.5222 
G01 X-24.8723 Y33.6553 
G01 X-24.9014 Y33.6989 
G01 X-24.9014 Y32.5915 
G01 X-23.7310 Y31.4211 
G01 X-23.6654 Y31.3074 
G01 X-23.6314 Y31.1806 
G01 X-23.6314 Y31.0493 
G01 X-23.6314 Y30.0815 
G01 X-23.5719 Y30.2255 
G01 X-23.4840 Y30.3571 
G01 X-22.8490 Y30.9920 
G01 X-22.7371 Y31.1040 
G01 X-22.6055 Y31.1919 
G01 X-22.4593 Y31.2524 
G01 X-22.3041 Y31.2833 
G01 X-18.1985 Y31.2833 
G01 X-18.1985 Y33.8228 
G01 X-18.2030 Y33.8118 
G01 X-18.3076 Y33.6553 
G01 X-18.4407 Y33.5222 
G01 X-18.5972 Y33.4176 
G01 X-18.7711 Y33.3455 
G01 X-18.9558 Y33.3088 
G01 X-19.1441 Y33.3088 
G01 X-19.3288 Y33.3455 
G01 X-19.5027 Y33.4176 
G01 X-19.6592 Y33.5222 
G01 X-19.7923 Y33.6553 
G01 X-19.8969 Y33.8118 
G01 X-19.9690 Y33.9857 
G01 X-20.0057 Y34.1704 
G01 X-20.0057 Y35.6795 
G01 X-19.9690 Y35.8642 
G01 X-19.8969 Y36.0381 
G01 X-19.8533 Y36.1033 
G01 X-19.8533 Y37.0291 
G01 X-19.8224 Y37.1843 
G01 X-19.7619 Y37.3305 
G01 X-19.6740 Y37.4621 
G01 X-19.5621 Y37.5740 
G01 X-17.7821 Y39.3540 
G01 X-17.6505 Y39.4419 
G01 X-17.5043 Y39.5024 
G01 X-17.3910 Y39.5249 
G01 X-17.9103 Y40.0442 
G01 X-18.1258 Y40.0442 
G01 X-18.6857 Y40.6041 
G01 X-18.6857 Y41.2507 
G01 X-19.9365 Y42.5014 
G01 X-36.7934 Y42.5014 
G01 X-37.6067 Y41.6882 
G01 X-37.3142 Y41.3958 
G01 X-37.3142 Y40.6041 
G01 X-37.8741 Y40.0442 
G01 X-38.6658 Y40.0442 
G01 X-38.8624 Y40.2408 
G01 X-41.0541 Y40.2408 
G01 X-41.0824 Y40.1852 
G01 X-41.1802 Y40.0505 
G01 X-41.2979 Y39.9328 
G01 X-41.4326 Y39.8350 
G01 X-41.5808 Y39.7595 
G01 X-41.7391 Y39.7080 
G01 X-41.9035 Y39.6820 
G01 X-43.5940 Y39.6820 
G01 X-43.7584 Y39.7080 
G01 X-43.9167 Y39.7595 
G01 X-44.0649 Y39.8350 
G01 X-44.1996 Y39.9328 
G01 X-44.3173 Y40.0505 
G01 X-44.4151 Y40.1852 
G01 X-44.4434 Y40.2408 
G01 X-47.5565 Y40.2408 
G01 X-47.5848 Y40.1852 
G01 X-47.6826 Y40.0505 
G01 X-47.8003 Y39.9328 
G01 X-47.9350 Y39.8350 
G01 X-48.0832 Y39.7595 
G01 X-48.2415 Y39.7080 
G01 X-48.4059 Y39.6820 
G01 X-50.0964 Y39.6820 
G01 X-50.2608 Y39.7080 
G01 X-50.4191 Y39.7595 
G01 X-50.5673 Y39.8350 
G01 X-50.7020 Y39.9328 
G01 X-50.8197 Y40.0505 
G01 X-50.9175 Y40.1852 
G01 X-50.9930 Y40.3334 
G01 X-51.0445 Y40.4917 
G01 X-51.0705 Y40.6561 
G01 X-51.0705 Y40.8226 
G01 X-51.0445 Y40.9870 
G01 X-50.9930 Y41.1453 
G01 X-50.9175 Y41.2935 
G01 X-50.8197 Y41.4282 
G01 X-50.7020 Y41.5459 
G01 X-50.5673 Y41.6437 
G01 X-50.4191 Y41.7192 
G01 X-50.2608 Y41.7707 
G01 X-50.0964 Y41.7967 
G01 X-48.4059 Y41.7967 
G01 X-48.2415 Y41.7707 
G01 X-48.0832 Y41.7192 
G01 X-47.9350 Y41.6437 
G01 X-47.8003 Y41.5459 
G01 X-47.6826 Y41.4282 
G01 X-47.5848 Y41.2935 
G01 X-47.5565 Y41.2379 
G01 X-44.4434 Y41.2379 
G01 X-44.4151 Y41.2935 
G01 X-44.3173 Y41.4282 
G01 X-44.1996 Y41.5459 
G01 X-44.0649 Y41.6437 
G01 X-43.9167 Y41.7192 
G01 X-43.7584 Y41.7707 
G01 X-43.5940 Y41.7967 
G01 X-41.9035 Y41.7967 
G01 X-41.7391 Y41.7707 
G01 X-41.5808 Y41.7192 
G01 X-41.4326 Y41.6437 
G01 X-41.2979 Y41.5459 
G01 X-41.1802 Y41.4282 
G01 X-41.0824 Y41.2935 
G01 X-41.0541 Y41.2379 
G01 X-39.2257 Y41.2379 
G01 X-39.2257 Y41.3958 
G01 X-38.7474 Y41.8740 
G01 X-38.7345 Y41.9224 
G01 X-38.6689 Y42.0361 
G01 X-37.3989 Y43.3061 
G01 X-37.3061 Y43.3989 
G01 X-37.3016 Y43.4014 
G01 X-38.0669 Y43.4014 
G01 X-38.0759 Y43.3878 
G01 X-38.9759 Y42.4878 
G01 X-39.0878 Y42.3759 
G01 X-39.2194 Y42.2880 
G01 X-39.3656 Y42.2275 
G01 X-39.5208 Y42.1966 
G01 X-51.9908 Y42.1966 
G01 X-52.1491 Y42.1966 
G01 X-63.5461 Y42.1966 
G01 X-67.3966 Y37.9879 
G01 X-67.3966 Y23.5542 
G01 X-60.7730 Y17.5041 
G01 X-60.7578 Y17.4940 
G01 X-60.7148 Y17.4509 
G01 X-60.6697 Y17.4098 
G01 X-60.6589 Y17.3951 
G01 X-60.6459 Y17.3821 
G01 X-60.6116 Y17.3306 
G01 X-60.5760 Y17.2823 
G01 X-60.5684 Y17.2660 
G01 X-60.5580 Y17.2505 
G01 X-60.5344 Y17.1933 
G01 X-60.5089 Y17.1390 
G01 X-60.5046 Y17.1213 
G01 X-60.4975 Y17.1043 
G01 X-60.4856 Y17.0443 
G01 X-60.4710 Y16.9853 
G01 X-60.4702 Y16.9670 
G01 X-60.4666 Y16.9491 
G01 X-60.4666 Y16.9244 
G01 X-59.8790 Y17.5121 
G01 X-59.7671 Y17.6240 
G01 X-59.6355 Y17.7119 
G01 X-59.4893 Y17.7724 
G01 X-59.3341 Y17.8033 
G01 X-38.5778 Y17.8033 
G01 X-34.4583 Y21.9228 
G01 X-34.4583 Y25.3208 
G01 X-34.4583 Y25.4791 
G01 X-34.4274 Y25.6343 
G01 X-34.3669 Y25.7805 
G01 X-34.2790 Y25.9121 
G01 X-32.8861 Y27.3049 
G01 X-34.6228 Y29.0416 
G01 X-36.2818 Y29.0416 
G01 X-36.4341 Y28.8892 
G01 X-37.2258 Y28.8892 
G01 X-37.6322 Y29.2956 
G01 X-41.3920 Y29.2956 
G01 X-41.4572 Y29.2520 
G01 X-41.6311 Y29.1799 
G01 X-41.8158 Y29.1432 
G01 X-42.0041 Y29.1432 
G01 X-42.1888 Y29.1799 
G01 X-42.3627 Y29.2520 
G01 X-42.4279 Y29.2956 
G01 X-46.4031 Y29.2956 
G01 X-47.2026 Y28.4961 
G01 X-47.2026 Y28.1370 
G01 X-47.5362 Y27.8035 
G01 X-40.6349 Y27.8035 
G01 X-40.5800 Y27.8715 
G01 X-40.4585 Y27.9728 
G01 X-40.3195 Y28.0484 
G01 X-40.1684 Y28.0955 
G01 X-40.0111 Y28.1122 
G01 X-39.8534 Y28.0978 
G01 X-39.7016 Y28.0530 
G01 X-39.5615 Y27.9795 
G01 X-39.4384 Y27.8800 
G01 X-36.7178 Y24.6153 
G01 X-36.3659 Y24.6153 
G01 X-35.7096 Y23.9590 
G01 X-35.7096 Y23.0309 
G01 X-36.3659 Y22.3746 
G01 X-36.8141 Y22.3746 
G01 X-40.1278 Y19.0609 
G01 X-40.2594 Y18.9730 
G01 X-40.4056 Y18.9125 
G01 X-40.5608 Y18.8816 
G01 X-40.7191 Y18.8816 
G01 X-40.8743 Y18.9125 
G01 X-41.0205 Y18.9730 
G01 X-41.1521 Y19.0609 
G01 X-41.2640 Y19.1728 
G01 X-41.2730 Y19.1864 
G01 X-57.7193 Y19.1864 
G01 X-57.8506 Y19.1864 
G01 X-57.9774 Y19.2204 
G01 X-58.0911 Y19.2860 
G01 X-67.0061 Y28.2010 
G01 X-67.0989 Y28.2938 
G01 X-67.1645 Y28.4075 
G01 X-67.1985 Y28.5343 
G01 X-67.1985 Y34.6343 
G01 X-67.1985 Y34.7656 
G01 X-67.1645 Y34.8924 
G01 X-67.0989 Y35.0061 
G01 X-62.9711 Y39.1339 
G01 X-62.8574 Y39.1995 
G01 X-62.7306 Y39.2335 
G01 X-62.5993 Y39.2335 
G01 X-27.8743 Y39.2335 
G01 X-27.7475 Y39.1995 
G01 X-27.6338 Y39.1339 
G01 X-27.5410 Y39.0411 
G01 X-25.0010 Y36.5011 
G01 X-24.9354 Y36.3874 
G01 X-24.9333 Y36.3794 
G01 X-24.9333 Y36.7971 
G01 X-28.3328 Y40.1966 
G01 X-29.7402 Y40.1966 
G01 X-29.8802 Y40.1030 
G01 X-30.0541 Y40.0309 
G01 X-30.2388 Y39.9942 
G01 X-30.4271 Y39.9942 
G01 X-30.6118 Y40.0309 
G01 X-30.7857 Y40.1030 
G01 X-30.8509 Y40.1466 
G01 X-35.2317 Y40.1466 
G01 X-35.3341 Y40.0442 
G01 X-36.1258 Y40.0442 
G01 X-36.6857 Y40.6041 
G00 Z1.5000 
G00 X-53.9035 Y39.6820 
G01 Z-0.1778 F375.00 
G01 X-55.5940 Y39.6820 F1500.00 
G01 X-55.7584 Y39.7080 
G01 X-55.9167 Y39.7595 
G01 X-56.0649 Y39.8350 
G01 X-56.1996 Y39.9328 
G01 X-56.3173 Y40.0505 
G01 X-56.4151 Y40.1852 
G01 X-56.4906 Y40.3334 
G01 X-56.5421 Y40.4917 
G01 X-56.5681 Y40.6561 
G01 X-56.5681 Y40.8226 
G01 X-56.5421 Y40.9870 
G01 X-56.4906 Y41.1453 
G01 X-56.4151 Y41.2935 
G01 X-56.3173 Y41.4282 
G01 X-56.1996 Y41.5459 
G01 X-56.0649 Y41.6437 
G01 X-55.9167 Y41.7192 
G01 X-55.7584 Y41.7707 
G01 X-55.5940 Y41.7967 
G01 X-53.9035 Y41.7967 
G01 X-53.7391 Y41.7707 
G01 X-53.5808 Y41.7192 
G01 X-53.4326 Y41.6437 
G01 X-53.2979 Y41.5459 
G01 X-53.1802 Y41.4282 
G01 X-53.0824 Y41.2935 
G01 X-53.0069 Y41.1453 
G01 X-52.9554 Y40.9870 
G01 X-52.9294 Y40.8226 
G01 X-52.9294 Y40.6561 
G01 X-52.9554 Y40.4917 
G01 X-53.0069 Y40.3334 
G01 X-53.0824 Y40.1852 
G01 X-53.1802 Y40.0505 
G01 X-53.2979 Y39.9328 
G01 X-53.4326 Y39.8350 
G01 X-53.5808 Y39.7595 
G01 X-53.7391 Y39.7080 
G01 X-53.9035 Y39.6820 
G00 Z1.5000 
G00 X-60.4059 Y39.6820 
G01 Z-0.1778 F375.00 
G01 X-62.0964 Y39.6820 F1500.00 
G01 X-62.2608 Y39.7080 
G01 X-62.4191 Y39.7595 
G01 X-62.5673 Y39.8350 
G01 X-62.7020 Y39.9328 
G01 X-62.8197 Y40.0505 
G01 X-62.9175 Y40.1852 
G01 X-62.9930 Y40.3334 
G01 X-63.0445 Y40.4917 
G01 X-63.0705 Y40.6561 
G01 X-63.0705 Y40.8226 
G01 X-63.0445 Y40.9870 
G01 X-62.9930 Y41.1453 
G01 X-62.9175 Y41.2935 
G01 X-62.8197 Y41.4282 
G01 X-62.7020 Y41.5459 
G01 X-62.5673 Y41.6437 
G01 X-62.4191 Y41.7192 
G01 X-62.2608 Y41.7707 
G01 X-62.0964 Y41.7967 
G01 X-60.4059 Y41.7967 
G01 X-60.2415 Y41.7707 
G01 X-60.0832 Y41.7192 
G01 X-59.9350 Y41.6437 
G01 X-59.8003 Y41.5459 
G01 X-59.6826 Y41.4282 
G01 X-59.5848 Y41.2935 
G01 X-59.5093 Y41.1453 
G01 X-59.4578 Y40.9870 
G01 X-59.4318 Y40.8226 
G01 X-59.4318 Y40.6561 
G01 X-59.4578 Y40.4917 
G01 X-59.5093 Y40.3334 
G01 X-59.5848 Y40.1852 
G01 X-59.6826 Y40.0505 
G01 X-59.8003 Y39.9328 
G01 X-59.9350 Y39.8350 
G01 X-60.0832 Y39.7595 
G01 X-60.2415 Y39.7080 
G01 X-60.4059 Y39.6820 
G00 Z1.5000 
G00 X-14.3759 Y39.4878 
G01 Z-0.1778 F375.00 
G01 X-14.4878 Y39.3759 F1500.00 
G01 X-14.5043 Y39.3650 
G01 X-14.4878 Y39.3540 
G01 X-14.3759 Y39.2421 
G01 X-14.2880 Y39.1105 
G01 X-14.2275 Y38.9643 
G01 X-14.1966 Y38.8091 
G01 X-14.1966 Y38.6508 
G01 X-14.2275 Y38.4956 
G01 X-14.2880 Y38.3494 
G01 X-14.3221 Y38.2985 
G01 X-13.4065 Y38.2985 
G01 X-12.7685 Y38.9365 
G01 X-12.7685 Y39.5014 
G01 X-12.7956 Y39.5014 
G01 X-14.3669 Y39.5014 
G01 X-14.3759 Y39.4878 
G00 Z1.5000 
G00 X-51.0293 Y47.7674 
G01 Z-0.1778 F375.00 
G01 X-50.8741 Y47.7983 F1500.00 
G01 X-50.7158 Y47.7983 
G01 X-34.0759 Y47.7983 
G01 X-33.8776 Y47.9966 
G01 X-50.8765 Y47.9966 
G01 X-51.1598 Y47.7134 
G01 X-51.0293 Y47.7674 
G00 Z1.5000 
G00 X-10.6876 Y36.1946 
G01 Z-0.1778 F375.00 
G01 X-10.6585 Y36.1509 F1500.00 
G01 X-10.6585 Y36.2606 
G01 X-10.7065 Y36.2134 
G01 X-10.6876 Y36.1946 
G00 Z1.5000 
G00 X-9.6614 Y43.8806 
G01 Z-0.1778 F375.00 
G01 X-9.6614 Y43.7493 F1500.00 
G01 X-9.6614 Y39.3043 
G01 X-9.6954 Y39.1775 
G01 X-9.7610 Y39.0638 
G01 X-9.8538 Y38.9710 
G01 X-12.2238 Y36.6010 
G01 X-12.3375 Y36.5354 
G01 X-12.4643 Y36.5014 
G01 X-12.5956 Y36.5014 
G01 X-13.6841 Y36.5014 
G01 X-13.5172 Y36.4323 
G01 X-13.3607 Y36.3277 
G01 X-13.2276 Y36.1946 
G01 X-13.1230 Y36.0381 
G01 X-13.0509 Y35.8642 
G01 X-13.0142 Y35.6795 
G01 X-13.0142 Y34.1704 
G01 X-13.0176 Y34.1537 
G01 X-12.3759 Y33.5121 
G01 X-12.3669 Y33.4985 
G01 X-12.0036 Y33.4985 
G01 X-12.0392 Y33.5222 
G01 X-12.1723 Y33.6553 
G01 X-12.2769 Y33.8118 
G01 X-12.3490 Y33.9857 
G01 X-12.3857 Y34.1704 
G01 X-12.3857 Y35.6795 
G01 X-12.3490 Y35.8642 
G01 X-12.2769 Y36.0381 
G01 X-12.1723 Y36.1946 
G01 X-12.0392 Y36.3277 
G01 X-11.8827 Y36.4323 
G01 X-11.8642 Y36.4399 
G01 X-11.8289 Y36.5011 
G01 X-9.3885 Y38.9415 
G01 X-9.3885 Y43.6085 
G01 X-9.6618 Y43.8818 
G00 Z1.5000 
G00 X-13.3506 Y45.5835 
G01 Z-0.1778 F375.00 
G01 X-13.3645 Y45.6075 F1500.00 
G01 X-13.3985 Y45.7343 
G01 X-13.3985 Y46.4499 
G01 X-13.7014 Y46.1469 
G01 X-13.7014 Y45.7856 
G01 X-13.7014 Y45.6543 
G01 X-13.7014 Y45.5835 
G01 X-13.3506 Y45.5835 
G00 Z1.5000 
G00 X-24.2553 Y46.5309 
G01 Z-0.1778 F375.00 
G01 X-24.2553 Y47.4590 F1500.00 
G01 X-23.7176 Y47.9966 
G01 X-32.7123 Y47.9966 
G01 X-32.1746 Y47.4590 
G01 X-32.1746 Y46.5309 
G01 X-32.8309 Y45.8746 
G01 X-33.7590 Y45.8746 
G01 X-34.0759 Y46.1916 
G01 X-41.4852 Y46.1916 
G01 X-41.4326 Y46.1649 
G01 X-41.2979 Y46.0671 
G01 X-41.1802 Y45.9494 
G01 X-41.0824 Y45.8147 
G01 X-41.0069 Y45.6665 
G01 X-40.9800 Y45.5835 
G01 X-18.2756 Y45.5835 
G01 X-18.3061 Y45.6010 
G01 X-18.3989 Y45.6938 
G01 X-18.8998 Y46.1948 
