( Made using CamBam - http://www.cambam.co.uk )
( inventables_logo_svg 1/29/2013 8:10:35 PM )
( T0 : 3.175 )
G21 G90 G64 G40
G0 Z3.0
( T0 : 3.175 )
T0 M6
( Pocket1 )
G17
M3 S1000
G0 X17.4257 Y17.2394
G1 F300.0 Z0.0
G1 F1500.0 X16.1903 Z-0.0393
G1 Y31.7194 Z-0.5
G1 X17.4257 Z-0.5393
G1 Y17.2394 Z-1.0
G1 X16.1903 Z-1.0393
G1 Y31.7194 Z-1.5
G1 X17.4257 Z-1.5393
G1 Y17.2394 Z-2.0
G1 X16.1903 Z-2.0393
G1 Y31.7194 Z-2.5
G1 X17.4257 Z-2.5393
G1 Y17.2394 Z-3.0
G1 X16.1903 Z-3.0393
G1 Y31.7194 Z-3.5
G1 X17.4257 Z-3.5393
G1 Y17.2394 Z-4.0
G1 X16.1903 Z-4.0393
G1 Y31.7194 Z-4.5
G1 X17.4257 Z-4.5393
G1 Y17.2394 Z-5.0
G1 X16.1903 Z-5.0393
G1 Y31.7194 Z-5.5
G1 X17.4257 Z-5.5393
G1 Y17.2394 Z-6.0
G1 X16.1903
G1 Y31.7194
G1 X17.4257
G1 Y17.2394
G0 Z3.0
G0 X21.4933
G1 F300.0 Z0.0
G1 F1500.0 Y31.7194 Z-0.1794
G1 X32.051 Z-0.3102
G3 X32.0542 Z-0.3103 I0.0 J1.5875
G2 X32.8332 Y31.6479 Z-0.32 I0.0085 J-4.1895
G2 X33.8781 Y31.2709 Z-0.3338 I-0.6494 J-3.436
G3 X33.8788 Y31.2705 I0.7692 J1.3887
G2 X34.3524 Y30.9589 Z-0.3409 I-1.7894 J-3.2349
G3 X34.3559 Y30.9561 I0.9718 J1.2553
G2 X34.7996 Y30.5633 Z-0.3483 I-2.6349 J-3.4235
G3 X34.8181 Y30.5449 Z-0.3486 I1.1313 J1.1137
G2 X35.325 Y29.9446 Z-0.3583 I-2.9715 J-3.0232
G3 X35.3256 Y29.9437 I1.3026 J0.9074
G2 X35.8138 Y28.9379 Z-0.3723 I-2.9295 J-2.0436
G2 X35.933 Y28.3905 Z-0.3792 I-3.4239 J-1.0321
G3 X35.9359 Y28.3707 Z-0.3795 I1.5729 J0.2152
G2 X35.9494 Y28.2587 Z-0.3808 I-1.9669 J-0.2945
G3 X35.9503 Y28.249 Z-0.381 I1.5808 J0.1457
G2 X35.9607 Y28.1334 Z-0.3824 I-6.6205 J-0.6517
G1 X35.9635 Y28.0936 Z-0.3829
G2 X35.9732 Y27.7922 Z-0.3866 I-5.8936 J-0.3407
G1 Y17.2394 Z-0.5174
G1 X34.7378 Z-0.5327
G1 Y27.35 Z-0.658
G3 X34.5034 Y28.5539 Z-0.6733 I-3.0891 J0.0234
G3 X34.4959 Y28.5719 Z-0.6735 I-1.467 J-0.6066
G3 X33.8195 Y29.5673 Z-0.6885 I-2.8922 J-1.2379
G3 X33.3688 Y29.944 Z-0.6958 I-2.2764 J-2.2654
G3 X33.3647 Y29.9469 Z-0.6959 I-0.9025 J-1.306
G3 X31.6014 Y30.4839 Z-0.7191 I-1.7321 J-2.5235
G1 X24.3162 Z-0.8094
G3 X22.7287 Y28.8964 Z-0.8403 I0.0 J-1.5875
G1 Y17.2394 Z-0.9847
G1 X21.4933 Z-1.0
G1 Y31.7194 Z-1.1794
G1 X32.051 Z-1.3102
G3 X32.0542 Z-1.3103 I0.0 J1.5875
G2 X32.8332 Y31.6479 Z-1.32 I0.0085 J-4.1895
G2 X33.8781 Y31.2709 Z-1.3338 I-0.6494 J-3.436
G3 X33.8788 Y31.2705 I0.7692 J1.3887
G2 X34.3524 Y30.9589 Z-1.3409 I-1.7894 J-3.2349
G3 X34.3559 Y30.9561 I0.9718 J1.2553
G2 X34.7996 Y30.5633 Z-1.3483 I-2.6349 J-3.4235
G3 X34.8181 Y30.5449 Z-1.3486 I1.1313 J1.1137
G2 X35.325 Y29.9446 Z-1.3583 I-2.9715 J-3.0232
G3 X35.3256 Y29.9437 I1.3026 J0.9074
G2 X35.8138 Y28.9379 Z-1.3723 I-2.9295 J-2.0436
G2 X35.933 Y28.3905 Z-1.3792 I-3.4239 J-1.0321
G3 X35.9359 Y28.3707 Z-1.3795 I1.5729 J0.2152
G2 X35.9494 Y28.2587 Z-1.3808 I-1.9669 J-0.2945
G3 X35.9503 Y28.249 Z-1.381 I1.5808 J0.1457
G2 X35.9607 Y28.1334 Z-1.3824 I-6.6205 J-0.6517
G1 X35.9635 Y28.0936 Z-1.3829
G2 X35.9732 Y27.7922 Z-1.3866 I-5.8936 J-0.3407
G1 Y17.2394 Z-1.5174
G1 X34.7378 Z-1.5327
G1 Y27.35 Z-1.658
G3 X34.5034 Y28.5539 Z-1.6733 I-3.0891 J0.0234
G3 X34.4959 Y28.5719 Z-1.6735 I-1.467 J-0.6066
G3 X33.8195 Y29.5673 Z-1.6885 I-2.8922 J-1.2379
G3 X33.3688 Y29.944 Z-1.6958 I-2.2764 J-2.2654
G3 X33.3647 Y29.9469 Z-1.6959 I-0.9025 J-1.306
G3 X31.6014 Y30.4839 Z-1.7191 I-1.7321 J-2.5235
G1 X24.3162 Z-1.8094
G3 X22.7287 Y28.8964 Z-1.8403 I0.0 J-1.5875
G1 Y17.2394 Z-1.9847
G1 X21.4933 Z-2.0
G1 Y31.7194 Z-2.1794
G1 X32.051 Z-2.3102
G3 X32.0542 Z-2.3103 I0.0 J1.5875
G2 X32.8332 Y31.6479 Z-2.32 I0.0085 J-4.1895
G2 X33.8781 Y31.2709 Z-2.3338 I-0.6494 J-3.436
G3 X33.8788 Y31.2705 I0.7692 J1.3887
G2 X34.3524 Y30.9589 Z-2.3409 I-1.7894 J-3.2349
G3 X34.3559 Y30.9561 I0.9718 J1.2553
G2 X34.7996 Y30.5633 Z-2.3483 I-2.6349 J-3.4235
G3 X34.8181 Y30.5449 Z-2.3486 I1.1313 J1.1137
G2 X35.325 Y29.9446 Z-2.3583 I-2.9715 J-3.0232
G3 X35.3256 Y29.9437 I1.3026 J0.9074
G2 X35.8138 Y28.9379 Z-2.3723 I-2.9295 J-2.0436
G2 X35.933 Y28.3905 Z-2.3792 I-3.4239 J-1.0321
G3 X35.9359 Y28.3707 Z-2.3795 I1.5729 J0.2152
G2 X35.9494 Y28.2587 Z-2.3808 I-1.9669 J-0.2945
G3 X35.9503 Y28.249 Z-2.381 I1.5808 J0.1457
G2 X35.9607 Y28.1334 Z-2.3824 I-6.6205 J-0.6517
G1 X35.9635 Y28.0936 Z-2.3829
G2 X35.9732 Y27.7922 Z-2.3866 I-5.8936 J-0.3407
G1 Y17.2394 Z-2.5174
G1 X34.7378 Z-2.5327
G1 Y27.35 Z-2.658
G3 X34.5034 Y28.5539 Z-2.6733 I-3.0891 J0.0234
G3 X34.4959 Y28.5719 Z-2.6735 I-1.467 J-0.6066
G3 X33.8195 Y29.5673 Z-2.6885 I-2.8922 J-1.2379
G3 X33.3688 Y29.944 Z-2.6958 I-2.2764 J-2.2654
G3 X33.3647 Y29.9469 Z-2.6959 I-0.9025 J-1.306
G3 X31.6014 Y30.4839 Z-2.7191 I-1.7321 J-2.5235
G1 X24.3162 Z-2.8094
G3 X22.7287 Y28.8964 Z-2.8403 I0.0 J-1.5875
G1 Y17.2394 Z-2.9847
G1 X21.4933 Z-3.0
G1 Y31.7194 Z-3.1794
G1 X32.051 Z-3.3102
G3 X32.0542 Z-3.3103 I0.0 J1.5875
G2 X32.8332 Y31.6479 Z-3.32 I0.0085 J-4.1895
G2 X33.8781 Y31.2709 Z-3.3338 I-0.6494 J-3.436
G3 X33.8788 Y31.2705 I0.7692 J1.3887
G2 X34.3524 Y30.9589 Z-3.3409 I-1.7894 J-3.2349
G3 X34.3559 Y30.9561 I0.9718 J1.2553
G2 X34.7996 Y30.5633 Z-3.3483 I-2.6349 J-3.4235
G3 X34.8181 Y30.5449 Z-3.3486 I1.1313 J1.1137
G2 X35.325 Y29.9446 Z-3.3583 I-2.9715 J-3.0232
G3 X35.3256 Y29.9437 I1.3026 J0.9074
G2 X35.8138 Y28.9379 Z-3.3723 I-2.9295 J-2.0436
G2 X35.933 Y28.3905 Z-3.3792 I-3.4239 J-1.0321
G3 X35.9359 Y28.3707 Z-3.3795 I1.5729 J0.2152
G2 X35.9494 Y28.2587 Z-3.3808 I-1.9669 J-0.2945
G3 X35.9503 Y28.249 Z-3.381 I1.5808 J0.1457
G2 X35.9607 Y28.1334 Z-3.3824 I-6.6205 J-0.6517
G1 X35.9635 Y28.0936 Z-3.3829
G2 X35.9732 Y27.7922 Z-3.3866 I-5.8936 J-0.3407
G1 Y17.2394 Z-3.5174
G1 X34.7378 Z-3.5327
G1 Y27.35 Z-3.658
G3 X34.5034 Y28.5539 Z-3.6733 I-3.0891 J0.0234
G3 X34.4959 Y28.5719 Z-3.6735 I-1.467 J-0.6066
G3 X33.8195 Y29.5673 Z-3.6885 I-2.8922 J-1.2379
G3 X33.3688 Y29.944 Z-3.6958 I-2.2764 J-2.2654
G3 X33.3647 Y29.9469 Z-3.6959 I-0.9025 J-1.306
G3 X31.6014 Y30.4839 Z-3.7191 I-1.7321 J-2.5235
G1 X24.3162 Z-3.8094
G3 X22.7287 Y28.8964 Z-3.8403 I0.0 J-1.5875
G1 Y17.2394 Z-3.9847
G1 X21.4933 Z-4.0
G1 Y31.7194 Z-4.1794
G1 X32.051 Z-4.3102
G3 X32.0542 Z-4.3103 I0.0 J1.5875
G2 X32.8332 Y31.6479 Z-4.32 I0.0085 J-4.1895
G2 X33.8781 Y31.2709 Z-4.3338 I-0.6494 J-3.436
G3 X33.8788 Y31.2705 I0.7692 J1.3887
G2 X34.3524 Y30.9589 Z-4.3409 I-1.7894 J-3.2349
G3 X34.3559 Y30.9561 I0.9718 J1.2553
G2 X34.7996 Y30.5633 Z-4.3483 I-2.6349 J-3.4235
G3 X34.8181 Y30.5449 Z-4.3486 I1.1313 J1.1137
G2 X35.325 Y29.9446 Z-4.3583 I-2.9715 J-3.0232
G3 X35.3256 Y29.9437 I1.3026 J0.9074
G2 X35.8138 Y28.9379 Z-4.3723 I-2.9295 J-2.0436
G2 X35.933 Y28.3905 Z-4.3792 I-3.4239 J-1.0321
G3 X35.9359 Y28.3707 Z-4.3795 I1.5729 J0.2152
G2 X35.9494 Y28.2587 Z-4.3808 I-1.9669 J-0.2945
G3 X35.9503 Y28.249 Z-4.381 I1.5808 J0.1457
G2 X35.9607 Y28.1334 Z-4.3824 I-6.6205 J-0.6517
G1 X35.9635 Y28.0936 Z-4.3829
G2 X35.9732 Y27.7922 Z-4.3866 I-5.8936 J-0.3407
G1 Y17.2394 Z-4.5174
G1 X34.7378 Z-4.5327
G1 Y27.35 Z-4.658
G3 X34.5034 Y28.5539 Z-4.6733 I-3.0891 J0.0234
G3 X34.4959 Y28.5719 Z-4.6735 I-1.467 J-0.6066
G3 X33.8195 Y29.5673 Z-4.6885 I-2.8922 J-1.2379
G3 X33.3688 Y29.944 Z-4.6958 I-2.2764 J-2.2654
G3 X33.3647 Y29.9469 Z-4.6959 I-0.9025 J-1.306
G3 X31.6014 Y30.4839 Z-4.7191 I-1.7321 J-2.5235
G1 X24.3162 Z-4.8094
G3 X22.7287 Y28.8964 Z-4.8403 I0.0 J-1.5875
G1 Y17.2394 Z-4.9847
G1 X21.4933 Z-5.0
G1 Y31.7194 Z-5.1794
G1 X32.051 Z-5.3102
G3 X32.0542 Z-5.3103 I0.0 J1.5875
G2 X32.8332 Y31.6479 Z-5.32 I0.0085 J-4.1895
G2 X33.8781 Y31.2709 Z-5.3338 I-0.6494 J-3.436
G3 X33.8788 Y31.2705 I0.7692 J1.3887
G2 X34.3524 Y30.9589 Z-5.3409 I-1.7894 J-3.2349
G3 X34.3559 Y30.9561 I0.9718 J1.2553
G2 X34.7996 Y30.5633 Z-5.3483 I-2.6349 J-3.4235
G3 X34.8181 Y30.5449 Z-5.3486 I1.1313 J1.1137
G2 X35.325 Y29.9446 Z-5.3583 I-2.9715 J-3.0232
G3 X35.3256 Y29.9437 I1.3026 J0.9074
G2 X35.8138 Y28.9379 Z-5.3723 I-2.9295 J-2.0436
G2 X35.933 Y28.3905 Z-5.3792 I-3.4239 J-1.0321
G3 X35.9359 Y28.3707 Z-5.3795 I1.5729 J0.2152
G2 X35.9494 Y28.2587 Z-5.3808 I-1.9669 J-0.2945
G3 X35.9503 Y28.249 Z-5.381 I1.5808 J0.1457
G2 X35.9607 Y28.1334 Z-5.3824 I-6.6205 J-0.6517
G1 X35.9635 Y28.0936 Z-5.3829
G2 X35.9732 Y27.7922 Z-5.3866 I-5.8936 J-0.3407
G1 Y17.2394 Z-5.5174
G1 X34.7378 Z-5.5327
G1 Y27.35 Z-5.658
G3 X34.5034 Y28.5539 Z-5.6733 I-3.0891 J0.0234
G3 X34.4959 Y28.5719 Z-5.6735 I-1.467 J-0.6066
G3 X33.8195 Y29.5673 Z-5.6885 I-2.8922 J-1.2379
G3 X33.3688 Y29.944 Z-5.6958 I-2.2764 J-2.2654
G3 X33.3647 Y29.9469 Z-5.6959 I-0.9025 J-1.306
G3 X31.6014 Y30.4839 Z-5.7191 I-1.7321 J-2.5235
G1 X24.3162 Z-5.8094
G3 X22.7287 Y28.8964 Z-5.8403 I0.0 J-1.5875
G1 Y17.2394 Z-5.9847
G1 X21.4933 Z-6.0
G1 Y31.7194
G1 X32.051
G3 X32.0542 I0.0 J1.5875
G2 X32.8332 Y31.6479 I0.0085 J-4.1895
G2 X33.8781 Y31.2709 I-0.6494 J-3.436
G3 X33.8788 Y31.2705 I0.7692 J1.3887
G2 X34.3524 Y30.9589 I-1.7894 J-3.2349
G3 X34.3559 Y30.9561 I0.9718 J1.2553
G2 X34.7996 Y30.5633 I-2.6349 J-3.4235
G3 X34.8181 Y30.5449 I1.1313 J1.1137
G2 X35.325 Y29.9446 I-2.9715 J-3.0232
G3 X35.3256 Y29.9437 I1.3026 J0.9074
G2 X35.8138 Y28.9379 I-2.9295 J-2.0436
G2 X35.933 Y28.3905 I-3.4239 J-1.0321
G3 X35.9359 Y28.3707 I1.5729 J0.2152
G2 X35.9494 Y28.2587 I-1.9669 J-0.2945
G3 X35.9503 Y28.249 I1.5808 J0.1457
G2 X35.9607 Y28.1334 I-6.6205 J-0.6517
G1 X35.9635 Y28.0936
G2 X35.9732 Y27.7922 I-5.8936 J-0.3407
G1 Y17.2394
G1 X34.7378
G1 Y27.35
G3 X34.5034 Y28.5539 I-3.0891 J0.0234
G3 X34.4959 Y28.5719 I-1.467 J-0.6066
G3 X33.8195 Y29.5673 I-2.8922 J-1.2379
G3 X33.3688 Y29.944 I-2.2764 J-2.2654
G3 X33.3647 Y29.9469 I-0.9025 J-1.306
G3 X31.6014 Y30.4839 I-1.7321 J-2.5235
G1 X24.3162
G3 X22.7287 Y28.8964 I0.0 J-1.5875
G1 Y17.2394
G1 X21.4933
G0 Z3.0
G0 X41.8646 Y24.597
G1 F300.0 Z0.0
G1 F1500.0 X39.2922 Y31.7194 Z-0.1172
G1 X40.7004 Z-0.139
G1 X44.3231 Y20.1068 Z-0.3272
G3 X47.354 Z-0.3895 I1.5155 J0.4728
G1 X50.9773 Y31.7194 Z-0.5777
G1 X52.4083 Z-0.5999
G1 X47.1574 Y17.2394 Z-0.8382
G1 X44.5219 Z-0.879
G1 X41.8646 Y24.597 Z-1.0
G1 X39.2922 Y31.7194 Z-1.1172
G1 X40.7004 Z-1.139
G1 X44.3231 Y20.1068 Z-1.3272
G3 X47.354 Z-1.3895 I1.5155 J0.4728
G1 X50.9773 Y31.7194 Z-1.5777
G1 X52.4083 Z-1.5999
G1 X47.1574 Y17.2394 Z-1.8382
G1 X44.5219 Z-1.879
G1 X41.8646 Y24.597 Z-2.0
G1 X39.2922 Y31.7194 Z-2.1172
G1 X40.7004 Z-2.139
G1 X44.3231 Y20.1068 Z-2.3272
G3 X47.354 Z-2.3895 I1.5155 J0.4728
G1 X50.9773 Y31.7194 Z-2.5777
G1 X52.4083 Z-2.5999
G1 X47.1574 Y17.2394 Z-2.8382
G1 X44.5219 Z-2.879
G1 X41.8646 Y24.597 Z-3.0
G1 X39.2922 Y31.7194 Z-3.1172
G1 X40.7004 Z-3.139
G1 X44.3231 Y20.1068 Z-3.3272
G3 X47.354 Z-3.3895 I1.5155 J0.4728
G1 X50.9773 Y31.7194 Z-3.5777
G1 X52.4083 Z-3.5999
G1 X47.1574 Y17.2394 Z-3.8382
G1 X44.5219 Z-3.879
G1 X41.8646 Y24.597 Z-4.0
G1 X39.2922 Y31.7194 Z-4.1172
G1 X40.7004 Z-4.139
G1 X44.3231 Y20.1068 Z-4.3272
G3 X47.354 Z-4.3895 I1.5155 J0.4728
G1 X50.9773 Y31.7194 Z-4.5777
G1 X52.4083 Z-4.5999
G1 X47.1574 Y17.2394 Z-4.8382
G1 X44.5219 Z-4.879
G1 X41.8646 Y24.597 Z-5.0
G1 X39.2922 Y31.7194 Z-5.1172
G1 X40.7004 Z-5.139
G1 X44.3231 Y20.1068 Z-5.3272
G3 X47.354 Z-5.3895 I1.5155 J0.4728
G1 X50.9773 Y31.7194 Z-5.5777
G1 X52.4083 Z-5.5999
G1 X47.1574 Y17.2394 Z-5.8382
G1 X44.5219 Z-5.879
G1 X41.8646 Y24.597 Z-6.0
G1 X39.2922 Y31.7194
G1 X40.7004
G1 X44.3231 Y20.1068
G3 X47.354 I1.5155 J0.4728
G1 X50.9773 Y31.7194
G1 X52.4083
G1 X47.1574 Y17.2394
G1 X44.5219
G1 X41.8646 Y24.597
G0 Z3.0
G0 X55.7039
G1 F300.0 Z0.0
G1 F1500.0 Y27.7971 Z-0.0434
G3 X55.7038 Y27.8046 Z-0.0435 I-1.5875 J0.0
G2 X55.774 Y28.5776 Z-0.054 I4.08 J0.0192
G3 X55.7747 Y28.5811 Z-0.0541 I-1.5602 J0.2933
G2 X56.1477 Y29.627 Z-0.0692 I3.4466 J-0.6399
G2 X56.4576 Y30.1032 Z-0.0769 I3.3425 J-1.8363
G2 X56.8549 Y30.5561 Z-0.0851 I3.7346 J-2.8748
G3 X56.8593 Y30.5606 Z-0.0852 I-1.1242 J1.1209
G2 X57.4649 Y31.0687 Z-0.0959 I3.0352 J-3.0025
G3 X57.4683 Y31.0711 Z-0.096 I-0.9034 J1.3054
G2 X58.4777 Y31.5585 Z-0.1113 I2.0331 J-2.9216
G2 X59.0366 Y31.6795 Z-0.119 I1.0842 J-3.6555
G2 X59.6277 Y31.7194 Z-0.1271 I0.5817 J-4.2277
G3 X59.6312 I0.0035 J1.5875
G1 X66.6794 Z-0.2227
G2 X67.0369 Y31.702 Z-0.2276 I-0.017 J-4.0397
G2 X68.1241 Y31.3789 Z-0.243 I-0.2782 J-2.9268
G2 X68.6156 Y31.0578 Z-0.251 I-1.5412 J-2.8959
G2 X69.0807 Y30.6255 Z-0.2596 I-2.6063 J-3.2702
G3 X69.0841 Y30.6218 Z-0.2597 I1.166 J1.0773
G2 X69.5573 Y30.0231 Z-0.2701 I-3.485 J-3.2405
G3 X69.5579 Y30.0221 I1.3204 J0.8813
G2 X70.0083 Y29.0698 Z-0.2844 I-2.9785 J-1.9911
G2 X70.1581 Y28.024 Z-0.2988 I-3.467 J-1.0302
G3 X70.158 Y28.0158 Z-0.2989 I1.5875 J-0.0068
G2 X70.0913 Y27.2957 Z-0.3087 I-3.8847 J-0.0032
G2 X69.7426 Y26.3103 Z-0.323 I-3.4138 J0.6535
G2 X69.0901 Y25.4041 Z-0.3382 I-3.8159 J2.0597
G3 X69.0819 Y25.3953 Z-0.3383 I1.1581 J-1.0858
G2 X68.5451 Y24.9079 Z-0.3482 I-3.0309 J2.799
G2 X67.676 Y24.4516 Z-0.3615 I-1.8071 J2.3858
G2 X67.2042 Y24.3399 Z-0.3681 I-0.8943 J2.7261
G3 X67.2026 Y24.3397 I0.2338 J-1.5702
G2 X66.6878 Y24.3017 Z-0.3751 I-0.5095 J3.399
G3 X66.6854 Z-0.3752 I-0.0024 J-1.5875
G1 X58.5275 Z-0.4858
G3 X56.94 Y22.7142 Z-0.5196 I0.0 J-1.5875
G1 Y21.3984 Z-0.5375
G3 X57.1771 Y20.2525 Z-0.5535 I2.8377 J-0.0104
G3 X57.1849 Y20.2348 Z-0.5537 I1.4549 J0.6352
G3 X57.8043 Y19.3424 Z-0.5686 I2.7225 J1.2285
G3 X58.7015 Y18.7185 Z-0.5835 I2.1164 J2.0865
G3 X58.7208 Y18.71 Z-0.5837 I0.6512 J1.4478
G3 X59.8633 Y18.4748 Z-0.5997 I1.1328 J2.6105
G1 X69.0852 Z-0.7248
G1 Y17.2394 Z-0.7415
G1 X59.6393 Z-0.8696
G3 X59.6354 Z-0.8697 I0.0 J-1.5875
G2 X58.8546 Y17.3112 Z-0.8803 I-0.0102 J4.1732
G2 X57.7924 Y17.6911 Z-0.8957 I0.6792 J3.5738
G1 X57.7923
G1 X57.7925 Y17.691
G1 X57.7924 Y17.6911
G2 X57.3055 Y18.0052 Z-0.9036 I1.8871 J3.4595
G3 X57.3033 Y18.0068 I-0.9564 J-1.2671
G2 X56.8562 Y18.3904 Z-0.9116 I2.7607 J3.6708
G2 X56.3538 Y19.0032 Z-0.9224 I3.3332 J3.245
G2 X55.8657 Y20.0215 Z-0.9377 I3.0372 J2.0819
G2 X55.7038 Y21.1672 Z-0.9535 I3.8359 J1.1264
G3 X55.7039 Y21.1749 Z-0.9536 I-1.5875 J0.0077
G1 Y24.597 Z-1.0
G1 F300.0 X57.1564 Y25.4445
G3 F1500.0 X58.5275 Y24.6571 I1.3712 J0.8001
G1 X66.0416
G3 X66.0468 I0.0 J1.5875
G3 X66.5427 Y24.6961 I-0.011 J3.315
G3 X66.5486 Y24.697 I-0.2427 J1.5688
G3 X67.3926 Y24.9721 I-0.4422 J2.7883
G3 X67.4038 Y24.9779 I-0.7232 J1.4132
G3 X68.1314 Y25.528 I-1.2742 J2.4416
G3 X68.7474 Y26.5308 I-2.0574 J1.9544
G3 X68.7524 Y26.5449 I-1.4956 J0.5324
G3 X68.9227 Y27.5752 I-2.9385 J1.015
G3 X68.7527 Y28.608 I-3.0847 J0.0226
G3 X68.7477 Y28.622 I-1.5 J-0.5199
G3 X68.1253 Y29.6268 I-2.65 J-0.9464
G3 X67.1059 Y30.298 I-1.9734 J-1.8873
G3 X66.5479 Y30.4446 I-0.9968 J-2.6585
G3 X66.0379 Y30.4839 I-0.4952 J-3.0983
G1 X59.8635
G3 X58.7178 Y30.2469 I-0.0103 J-2.8379
G3 X58.7 Y30.239 I0.6352 J-1.4549
G3 X57.8144 Y29.6264 I1.2284 J-2.7224
G3 X57.1872 Y28.7387 I2.0418 J-2.108
G3 X57.1779 Y28.7179 I1.4438 J-0.6601
G3 X56.94 Y27.5724 I2.5721 J-1.1315
G1 Y26.2446
G3 X57.1564 Y25.4445 I1.5875 J0.0
G3 X58.5275 Y24.6571 Z-1.053 I1.3712 J0.8001
G1 X66.0416 Z-1.2935
G3 X66.0468 Z-1.2937 I0.0 J1.5875
G3 X66.5427 Y24.6961 Z-1.3096 I-0.011 J3.315
G3 X66.5486 Y24.697 Z-1.3098 I-0.2427 J1.5688
G3 X67.3926 Y24.9721 Z-1.3383 I-0.4422 J2.7883
G3 X67.4038 Y24.9779 Z-1.3387 I-0.7232 J1.4132
G3 X68.1314 Y25.528 Z-1.368 I-1.2742 J2.4416
G3 X68.7474 Y26.5308 Z-1.406 I-2.0574 J1.9544
G3 X68.7524 Y26.5449 Z-1.4065 I-1.4956 J0.5324
G3 X68.9227 Y27.5752 Z-1.44 I-2.9385 J1.015
G3 X68.7527 Y28.608 Z-1.4737 I-3.0847 J0.0226
G3 X68.7477 Y28.622 Z-1.4742 I-1.5 J-0.5199
G3 X68.1253 Y29.6268 Z-1.5123 I-2.65 J-0.9464
G3 X67.1059 Y30.298 Z-1.5517 I-1.9734 J-1.8873
G3 X66.5479 Y30.4446 Z-1.5702 I-0.9968 J-2.6585
G3 X66.0379 Y30.4839 Z-1.5866 I-0.4952 J-3.0983
G1 X59.8635 Z-1.7842
G3 X58.7178 Y30.2469 Z-1.8219 I-0.0103 J-2.8379
G3 X58.7 Y30.239 Z-1.8226 I0.6352 J-1.4549
G3 X57.8144 Y29.6264 Z-1.8572 I1.2284 J-2.7224
G3 X57.1872 Y28.7387 Z-1.8922 I2.0418 J-2.108
G3 X57.1779 Y28.7179 Z-1.8929 I1.4438 J-0.6601
G3 X56.94 Y27.5724 Z-1.9307 I2.5721 J-1.1315
G1 Y26.2446 Z-1.9732
G3 X57.1564 Y25.4445 Z-2.0 I1.5875 J0.0
G1 F300.0 X55.7039
G1 F1500.0 Y27.7971
G3 X55.7038 Y27.8046 I-1.5875 J0.0
G2 X55.774 Y28.5776 I4.08 J0.0192
G3 X55.7747 Y28.5811 I-1.5602 J0.2933
G2 X56.1477 Y29.627 I3.4466 J-0.6399
G2 X56.4576 Y30.1032 I3.3425 J-1.8363
G2 X56.8549 Y30.5561 I3.7346 J-2.8748
G3 X56.8593 Y30.5606 I-1.1242 J1.1209
G2 X57.4649 Y31.0687 I3.0352 J-3.0025
G3 X57.4683 Y31.0711 I-0.9034 J1.3054
G2 X58.4777 Y31.5585 I2.0331 J-2.9216
G2 X59.0366 Y31.6795 I1.0842 J-3.6555
G2 X59.6277 Y31.7194 I0.5817 J-4.2277
G3 X59.6312 I0.0035 J1.5875
G1 X66.6794
G2 X67.0369 Y31.702 I-0.017 J-4.0397
G2 X68.1241 Y31.3789 I-0.2782 J-2.9268
G2 X68.6156 Y31.0578 I-1.5412 J-2.8959
G2 X69.0807 Y30.6255 I-2.6063 J-3.2702
G3 X69.0841 Y30.6218 I1.166 J1.0773
G2 X69.5573 Y30.0231 I-3.485 J-3.2405
G3 X69.5579 Y30.0221 I1.3204 J0.8813
G2 X70.0083 Y29.0698 I-2.9785 J-1.9911
G2 X70.1581 Y28.024 I-3.467 J-1.0302
G3 X70.158 Y28.0158 I1.5875 J-0.0068
G2 X70.0913 Y27.2957 I-3.8847 J-0.0032
G2 X69.7426 Y26.3103 I-3.4138 J0.6535
G2 X69.0901 Y25.4041 I-3.8159 J2.0597
G3 X69.0819 Y25.3953 I1.1581 J-1.0858
G2 X68.5451 Y24.9079 I-3.0309 J2.799
G2 X67.676 Y24.4516 I-1.8071 J2.3858
G2 X67.2042 Y24.3399 I-0.8943 J2.7261
G3 X67.2026 Y24.3397 I0.2338 J-1.5702
G2 X66.6878 Y24.3017 I-0.5095 J3.399
G3 X66.6854 I-0.0024 J-1.5875
G1 X58.5275
G3 X56.94 Y22.7142 I0.0 J-1.5875
G1 Y21.3984
G3 X57.1771 Y20.2525 I2.8377 J-0.0104
G3 X57.1849 Y20.2348 I1.4549 J0.6352
G3 X57.8043 Y19.3424 I2.7225 J1.2285
G3 X58.7015 Y18.7185 I2.1164 J2.0865
G3 X58.7208 Y18.71 I0.6512 J1.4478
G3 X59.8633 Y18.4748 I1.1328 J2.6105
G1 X69.0852
G1 Y17.2394
G1 X59.6393
G3 X59.6354 I0.0 J-1.5875
G2 X58.8546 Y17.3112 I-0.0102 J4.1732
G2 X57.7924 Y17.6911 I0.6792 J3.5738
G1 X57.7923
G1 X57.7925 Y17.691
G1 X57.7924 Y17.6911
G2 X57.3055 Y18.0052 I1.8871 J3.4595
G3 X57.3033 Y18.0068 I-0.9564 J-1.2671
G2 X56.8562 Y18.3904 I2.7607 J3.6708
G2 X56.3538 Y19.0032 I3.3332 J3.245
G2 X55.8657 Y20.0215 I3.0372 J2.0819
G2 X55.7038 Y21.1672 I3.8359 J1.1264
G3 X55.7039 Y21.1749 I-1.5875 J0.0077
G1 Y25.4445
G1 Y27.7971 Z-2.0319
G3 X55.7038 Y27.8046 Z-2.032 I-1.5875 J0.0
G2 X55.774 Y28.5776 Z-2.0426 I4.08 J0.0192
G3 X55.7747 Y28.5811 I-1.5602 J0.2933
G2 X56.1477 Y29.627 Z-2.0577 I3.4466 J-0.6399
G2 X56.4576 Y30.1032 Z-2.0654 I3.3425 J-1.8363
G2 X56.8549 Y30.5561 Z-2.0736 I3.7346 J-2.8748
G3 X56.8593 Y30.5606 Z-2.0737 I-1.1242 J1.1209
G2 X57.4649 Y31.0687 Z-2.0844 I3.0352 J-3.0025
G3 X57.4683 Y31.0711 Z-2.0845 I-0.9034 J1.3054
G2 X58.4777 Y31.5585 Z-2.0998 I2.0331 J-2.9216
G2 X59.0366 Y31.6795 Z-2.1075 I1.0842 J-3.6555
G2 X59.6277 Y31.7194 Z-2.1156 I0.5817 J-4.2277
G3 X59.6312 I0.0035 J1.5875
G1 X66.6794 Z-2.2112
G2 X67.0369 Y31.702 Z-2.2161 I-0.017 J-4.0397
G2 X68.1241 Y31.3789 Z-2.2315 I-0.2782 J-2.9268
G2 X68.6156 Y31.0578 Z-2.2395 I-1.5412 J-2.8959
G2 X69.0807 Y30.6255 Z-2.2481 I-2.6063 J-3.2702
G3 X69.0841 Y30.6218 Z-2.2482 I1.166 J1.0773
G2 X69.5573 Y30.0231 Z-2.2586 I-3.485 J-3.2405
G3 X69.5579 Y30.0221 I1.3204 J0.8813
G2 X70.0083 Y29.0698 Z-2.2729 I-2.9785 J-1.9911
G2 X70.1581 Y28.024 Z-2.2873 I-3.467 J-1.0302
G3 X70.158 Y28.0158 Z-2.2874 I1.5875 J-0.0068
G2 X70.0913 Y27.2957 Z-2.2972 I-3.8847 J-0.0032
G2 X69.7426 Y26.3103 Z-2.3115 I-3.4138 J0.6535
G2 X69.0901 Y25.4041 Z-2.3267 I-3.8159 J2.0597
G3 X69.0819 Y25.3953 Z-2.3268 I1.1581 J-1.0858
G2 X68.5451 Y24.9079 Z-2.3367 I-3.0309 J2.799
G2 X67.676 Y24.4516 Z-2.35 I-1.8071 J2.3858
G2 X67.2042 Y24.3399 Z-2.3566 I-0.8943 J2.7261
G3 X67.2026 Y24.3397 I0.2338 J-1.5702
G2 X66.6878 Y24.3017 Z-2.3637 I-0.5095 J3.399
G3 X66.6854 I-0.0024 J-1.5875
G1 X58.5275 Z-2.4743
G3 X56.94 Y22.7142 Z-2.5082 I0.0 J-1.5875
G1 Y21.3984 Z-2.526
G3 X57.1771 Y20.2525 Z-2.542 I2.8377 J-0.0104
G3 X57.1849 Y20.2348 Z-2.5422 I1.4549 J0.6352
G3 X57.8043 Y19.3424 Z-2.5571 I2.7225 J1.2285
G3 X58.7015 Y18.7185 Z-2.572 I2.1164 J2.0865
G3 X58.7208 Y18.71 Z-2.5723 I0.6512 J1.4478
G3 X59.8633 Y18.4748 Z-2.5882 I1.1328 J2.6105
G1 X69.0852 Z-2.7133
G1 Y17.2394 Z-2.73
G1 X59.6393 Z-2.8581
G3 X59.6354 Z-2.8582 I0.0 J-1.5875
G2 X58.8546 Y17.3112 Z-2.8688 I-0.0102 J4.1732
G2 X57.7924 Y17.6911 Z-2.8842 I0.6792 J3.5738
G1 X57.7923
G1 X57.7925 Y17.691
G1 X57.7924 Y17.6911
G2 X57.3055 Y18.0052 Z-2.8921 I1.8871 J3.4595
G3 X57.3033 Y18.0068 I-0.9564 J-1.2671
G2 X56.8562 Y18.3904 Z-2.9001 I2.7607 J3.6708
G2 X56.3538 Y19.0032 Z-2.9109 I3.3332 J3.245
G2 X55.8657 Y20.0215 Z-2.9262 I3.0372 J2.0819
G2 X55.7038 Y21.1672 Z-2.942 I3.8359 J1.1264
G3 X55.7039 Y21.1749 Z-2.9421 I-1.5875 J0.0077
G1 Y25.4445 Z-3.0
G1 F300.0 X57.0001 Y25.8118
G3 F1500.0 X58.5275 Y24.6571 I1.5274 J0.4328
G1 X66.0416
G3 X66.0468 I0.0 J1.5875
G3 X66.5427 Y24.6961 I-0.011 J3.315
G3 X66.5486 Y24.697 I-0.2427 J1.5688
G3 X67.3926 Y24.9721 I-0.4422 J2.7883
G3 X67.4038 Y24.9779 I-0.7232 J1.4132
G3 X68.1314 Y25.528 I-1.2742 J2.4416
G3 X68.7474 Y26.5308 I-2.0574 J1.9544
G3 X68.7524 Y26.5449 I-1.4956 J0.5324
G3 X68.9227 Y27.5752 I-2.9385 J1.015
G3 X68.7527 Y28.608 I-3.0847 J0.0226
G3 X68.7477 Y28.622 I-1.5 J-0.5199
G3 X68.1253 Y29.6268 I-2.65 J-0.9464
G3 X67.1059 Y30.298 I-1.9734 J-1.8873
G3 X66.5479 Y30.4446 I-0.9968 J-2.6585
G3 X66.0379 Y30.4839 I-0.4952 J-3.0983
G1 X59.8635
G3 X58.7178 Y30.2469 I-0.0103 J-2.8379
G3 X58.7 Y30.239 I0.6352 J-1.4549
G3 X57.8144 Y29.6264 I1.2284 J-2.7224
G3 X57.1872 Y28.7387 I2.0418 J-2.108
G3 X57.1779 Y28.7179 I1.4438 J-0.6601
G3 X56.94 Y27.5724 I2.5721 J-1.1315
G1 Y26.2446
G3 X57.0001 Y25.8118 I1.5875 J0.0
G3 X58.5275 Y24.6571 Z-3.0658 I1.5274 J0.4328
G1 X66.0416 Z-3.3063
G3 X66.0468 Z-3.3065 I0.0 J1.5875
G3 X66.5427 Y24.6961 Z-3.3224 I-0.011 J3.315
G3 X66.5486 Y24.697 Z-3.3226 I-0.2427 J1.5688
G3 X67.3926 Y24.9721 Z-3.3511 I-0.4422 J2.7883
G3 X67.4038 Y24.9779 Z-3.3515 I-0.7232 J1.4132
G3 X68.1314 Y25.528 Z-3.3809 I-1.2742 J2.4416
G3 X68.7474 Y26.5308 Z-3.4188 I-2.0574 J1.9544
G3 X68.7524 Y26.5449 Z-3.4193 I-1.4956 J0.5324
G3 X68.9227 Y27.5752 Z-3.4529 I-2.9385 J1.015
G3 X68.7527 Y28.608 Z-3.4865 I-3.0847 J0.0226
G3 X68.7477 Y28.622 Z-3.487 I-1.5 J-0.5199
G3 X68.1253 Y29.6268 Z-3.5251 I-2.65 J-0.9464
G3 X67.1059 Y30.298 Z-3.5645 I-1.9734 J-1.8873
G3 X66.5479 Y30.4446 Z-3.583 I-0.9968 J-2.6585
G3 X66.0379 Y30.4839 Z-3.5994 I-0.4952 J-3.0983
G1 X59.8635 Z-3.797
G3 X58.7178 Y30.2469 Z-3.8347 I-0.0103 J-2.8379
G3 X58.7 Y30.239 Z-3.8354 I0.6352 J-1.4549
G3 X57.8144 Y29.6264 Z-3.87 I1.2284 J-2.7224
G3 X57.1872 Y28.7387 Z-3.905 I2.0418 J-2.108
G3 X57.1779 Y28.7179 Z-3.9057 I1.4438 J-0.6601
G3 X56.94 Y27.5724 Z-3.9435 I2.5721 J-1.1315
G1 Y26.2446 Z-3.986
G3 X57.0001 Y25.8118 Z-4.0 I1.5875 J0.0
G1 F300.0 X55.7039
G1 F1500.0 Y27.7971
G3 X55.7038 Y27.8046 I-1.5875 J0.0
G2 X55.774 Y28.5776 I4.08 J0.0192
G3 X55.7747 Y28.5811 I-1.5602 J0.2933
G2 X56.1477 Y29.627 I3.4466 J-0.6399
G2 X56.4576 Y30.1032 I3.3425 J-1.8363
G2 X56.8549 Y30.5561 I3.7346 J-2.8748
G3 X56.8593 Y30.5606 I-1.1242 J1.1209
G2 X57.4649 Y31.0687 I3.0352 J-3.0025
G3 X57.4683 Y31.0711 I-0.9034 J1.3054
G2 X58.4777 Y31.5585 I2.0331 J-2.9216
G2 X59.0366 Y31.6795 I1.0842 J-3.6555
G2 X59.6277 Y31.7194 I0.5817 J-4.2277
G3 X59.6312 I0.0035 J1.5875
G1 X66.6794
G2 X67.0369 Y31.702 I-0.017 J-4.0397
G2 X68.1241 Y31.3789 I-0.2782 J-2.9268
G2 X68.6156 Y31.0578 I-1.5412 J-2.8959
G2 X69.0807 Y30.6255 I-2.6063 J-3.2702
G3 X69.0841 Y30.6218 I1.166 J1.0773
G2 X69.5573 Y30.0231 I-3.485 J-3.2405
G3 X69.5579 Y30.0221 I1.3204 J0.8813
G2 X70.0083 Y29.0698 I-2.9785 J-1.9911
G2 X70.1581 Y28.024 I-3.467 J-1.0302
G3 X70.158 Y28.0158 I1.5875 J-0.0068
G2 X70.0913 Y27.2957 I-3.8847 J-0.0032
G2 X69.7426 Y26.3103 I-3.4138 J0.6535
G2 X69.0901 Y25.4041 I-3.8159 J2.0597
G3 X69.0819 Y25.3953 I1.1581 J-1.0858
G2 X68.5451 Y24.9079 I-3.0309 J2.799
G2 X67.676 Y24.4516 I-1.8071 J2.3858
G2 X67.2042 Y24.3399 I-0.8943 J2.7261
G3 X67.2026 Y24.3397 I0.2338 J-1.5702
G2 X66.6878 Y24.3017 I-0.5095 J3.399
G3 X66.6854 I-0.0024 J-1.5875
G1 X58.5275
G3 X56.94 Y22.7142 I0.0 J-1.5875
G1 Y21.3984
G3 X57.1771 Y20.2525 I2.8377 J-0.0104
G3 X57.1849 Y20.2348 I1.4549 J0.6352
G3 X57.8043 Y19.3424 I2.7225 J1.2285
G3 X58.7015 Y18.7185 I2.1164 J2.0865
G3 X58.7208 Y18.71 I0.6512 J1.4478
G3 X59.8633 Y18.4748 I1.1328 J2.6105
G1 X69.0852
G1 Y17.2394
G1 X59.6393
G3 X59.6354 I0.0 J-1.5875
G2 X58.8546 Y17.3112 I-0.0102 J4.1732
G2 X57.7924 Y17.6911 I0.6792 J3.5738
G1 X57.7923
G1 X57.7925 Y17.691
G1 X57.7924 Y17.6911
G2 X57.3055 Y18.0052 I1.8871 J3.4595
G3 X57.3033 Y18.0068 I-0.9564 J-1.2671
G2 X56.8562 Y18.3904 I2.7607 J3.6708
G2 X56.3538 Y19.0032 I3.3332 J3.245
G2 X55.8657 Y20.0215 I3.0372 J2.0819
G2 X55.7038 Y21.1672 I3.8359 J1.1264
G3 X55.7039 Y21.1749 I-1.5875 J0.0077
G1 Y25.8118
G1 Y27.7971 Z-4.0269
G3 X55.7038 Y27.8046 Z-4.027 I-1.5875 J0.0
G2 X55.774 Y28.5776 Z-4.0376 I4.08 J0.0192
G3 X55.7747 Y28.5811 I-1.5602 J0.2933
G2 X56.1477 Y29.627 Z-4.0527 I3.4466 J-0.6399
G2 X56.4576 Y30.1032 Z-4.0605 I3.3425 J-1.8363
G2 X56.8549 Y30.5561 Z-4.0686 I3.7346 J-2.8748
G3 X56.8593 Y30.5606 Z-4.0687 I-1.1242 J1.1209
G2 X57.4649 Y31.0687 Z-4.0795 I3.0352 J-3.0025
G3 X57.4683 Y31.0711 I-0.9034 J1.3054
G2 X58.4777 Y31.5585 Z-4.0948 I2.0331 J-2.9216
G2 X59.0366 Y31.6795 Z-4.1025 I1.0842 J-3.6555
G2 X59.6277 Y31.7194 Z-4.1106 I0.5817 J-4.2277
G3 X59.6312 I0.0035 J1.5875
G1 X66.6794 Z-4.2062
G2 X67.0369 Y31.702 Z-4.2111 I-0.017 J-4.0397
G2 X68.1241 Y31.3789 Z-4.2266 I-0.2782 J-2.9268
G2 X68.6156 Y31.0578 Z-4.2345 I-1.5412 J-2.8959
G2 X69.0807 Y30.6255 Z-4.2432 I-2.6063 J-3.2702
G3 X69.0841 Y30.6218 I1.166 J1.0773
G2 X69.5573 Y30.0231 Z-4.2536 I-3.485 J-3.2405
G3 X69.5579 Y30.0221 I1.3204 J0.8813
G2 X70.0083 Y29.0698 Z-4.2679 I-2.9785 J-1.9911
G2 X70.1581 Y28.024 Z-4.2823 I-3.467 J-1.0302
G3 X70.158 Y28.0158 Z-4.2824 I1.5875 J-0.0068
G2 X70.0913 Y27.2957 Z-4.2923 I-3.8847 J-0.0032
G2 X69.7426 Y26.3103 Z-4.3065 I-3.4138 J0.6535
G2 X69.0901 Y25.4041 Z-4.3217 I-3.8159 J2.0597
G3 X69.0819 Y25.3953 Z-4.3218 I1.1581 J-1.0858
G2 X68.5451 Y24.9079 Z-4.3317 I-3.0309 J2.799
G2 X67.676 Y24.4516 Z-4.3451 I-1.8071 J2.3858
G2 X67.2042 Y24.3399 Z-4.3516 I-0.8943 J2.7261
G3 X67.2026 Y24.3397 Z-4.3517 I0.2338 J-1.5702
G2 X66.6878 Y24.3017 Z-4.3587 I-0.5095 J3.399
G3 X66.6854 I-0.0024 J-1.5875
G1 X58.5275 Z-4.4693
G3 X56.94 Y22.7142 Z-4.5032 I0.0 J-1.5875
G1 Y21.3984 Z-4.521
G3 X57.1771 Y20.2525 Z-4.537 I2.8377 J-0.0104
G3 X57.1849 Y20.2348 Z-4.5373 I1.4549 J0.6352
G3 X57.8043 Y19.3424 Z-4.5521 I2.7225 J1.2285
G3 X58.7015 Y18.7185 Z-4.567 I2.1164 J2.0865
G3 X58.7208 Y18.71 Z-4.5673 I0.6512 J1.4478
G3 X59.8633 Y18.4748 Z-4.5832 I1.1328 J2.6105
G1 X69.0852 Z-4.7083
G1 Y17.2394 Z-4.725
G1 X59.6393 Z-4.8532
G3 X59.6354 I0.0 J-1.5875
G2 X58.8546 Y17.3112 Z-4.8639 I-0.0102 J4.1732
G2 X57.7924 Y17.6911 Z-4.8792 I0.6792 J3.5738
G1 X57.7923
G1 X57.7925 Y17.691
G1 X57.7924 Y17.6911
G2 X57.3055 Y18.0052 Z-4.8871 I1.8871 J3.4595
G3 X57.3033 Y18.0068 I-0.9564 J-1.2671
G2 X56.8562 Y18.3904 Z-4.8951 I2.7607 J3.6708
G2 X56.3538 Y19.0032 Z-4.9059 I3.3332 J3.245
G2 X55.8657 Y20.0215 Z-4.9213 I3.0372 J2.0819
G2 X55.7038 Y21.1672 Z-4.937 I3.8359 J1.1264
G3 X55.7039 Y21.1749 Z-4.9371 I-1.5875 J0.0077
G1 Y25.8118 Z-5.0
G1 F300.0 X56.9583 Y26.0041
G3 F1500.0 X58.5275 Y24.6571 I1.5692 J0.2405
G1 X66.0416
G3 X66.0468 I0.0 J1.5875
G3 X66.5427 Y24.6961 I-0.011 J3.315
G3 X66.5486 Y24.697 I-0.2427 J1.5688
G3 X67.3926 Y24.9721 I-0.4422 J2.7883
G3 X67.4038 Y24.9779 I-0.7232 J1.4132
G3 X68.1314 Y25.528 I-1.2742 J2.4416
G3 X68.7474 Y26.5308 I-2.0574 J1.9544
G3 X68.7524 Y26.5449 I-1.4956 J0.5324
G3 X68.9227 Y27.5752 I-2.9385 J1.015
G3 X68.7527 Y28.608 I-3.0847 J0.0226
G3 X68.7477 Y28.622 I-1.5 J-0.5199
G3 X68.1253 Y29.6268 I-2.65 J-0.9464
G3 X67.1059 Y30.298 I-1.9734 J-1.8873
G3 X66.5479 Y30.4446 I-0.9968 J-2.6585
G3 X66.0379 Y30.4839 I-0.4952 J-3.0983
G1 X59.8635
G3 X58.7178 Y30.2469 I-0.0103 J-2.8379
G3 X58.7 Y30.239 I0.6352 J-1.4549
G3 X57.8144 Y29.6264 I1.2284 J-2.7224
G3 X57.1872 Y28.7387 I2.0418 J-2.108
G3 X57.1779 Y28.7179 I1.4438 J-0.6601
G3 X56.94 Y27.5724 I2.5721 J-1.1315
G1 Y26.2446
G3 X56.9583 Y26.0041 I1.5875 J0.0
G3 X58.5275 Y24.6571 Z-5.0721 I1.5692 J0.2405
G1 X66.0416 Z-5.3126
G3 X66.0468 Z-5.3128 I0.0 J1.5875
G3 X66.5427 Y24.6961 Z-5.3287 I-0.011 J3.315
G3 X66.5486 Y24.697 Z-5.3289 I-0.2427 J1.5688
G3 X67.3926 Y24.9721 Z-5.3574 I-0.4422 J2.7883
G3 X67.4038 Y24.9779 Z-5.3578 I-0.7232 J1.4132
G3 X68.1314 Y25.528 Z-5.3872 I-1.2742 J2.4416
G3 X68.7474 Y26.5308 Z-5.4251 I-2.0574 J1.9544
G3 X68.7524 Y26.5449 Z-5.4256 I-1.4956 J0.5324
G3 X68.9227 Y27.5752 Z-5.4592 I-2.9385 J1.015
G3 X68.7527 Y28.608 Z-5.4928 I-3.0847 J0.0226
G3 X68.7477 Y28.622 Z-5.4933 I-1.5 J-0.5199
G3 X68.1253 Y29.6268 Z-5.5314 I-2.65 J-0.9464
G3 X67.1059 Y30.298 Z-5.5708 I-1.9734 J-1.8873
G3 X66.5479 Y30.4446 Z-5.5893 I-0.9968 J-2.6585
G3 X66.0379 Y30.4839 Z-5.6057 I-0.4952 J-3.0983
G1 X59.8635 Z-5.8033
G3 X58.7178 Y30.2469 Z-5.8411 I-0.0103 J-2.8379
G3 X58.7 Y30.239 Z-5.8417 I0.6352 J-1.4549
G3 X57.8144 Y29.6264 Z-5.8763 I1.2284 J-2.7224
G3 X57.1872 Y28.7387 Z-5.9113 I2.0418 J-2.108
G3 X57.1779 Y28.7179 Z-5.9121 I1.4438 J-0.6601
G3 X56.94 Y27.5724 Z-5.9498 I2.5721 J-1.1315
G1 Y26.2446 Z-5.9923
G3 X56.9583 Y26.0041 Z-6.0 I1.5875 J0.0
G3 X58.5275 Y24.6571 I1.5692 J0.2405
G1 X66.0416
G3 X66.0468 I0.0 J1.5875
G3 X66.5427 Y24.6961 I-0.011 J3.315
G3 X66.5486 Y24.697 I-0.2427 J1.5688
G3 X67.3926 Y24.9721 I-0.4422 J2.7883
G3 X67.4038 Y24.9779 I-0.7232 J1.4132
G3 X68.1314 Y25.528 I-1.2742 J2.4416
G3 X68.7474 Y26.5308 I-2.0574 J1.9544
G3 X68.7524 Y26.5449 I-1.4956 J0.5324
G3 X68.9227 Y27.5752 I-2.9385 J1.015
G3 X68.7527 Y28.608 I-3.0847 J0.0226
G3 X68.7477 Y28.622 I-1.5 J-0.5199
G3 X68.1253 Y29.6268 I-2.65 J-0.9464
G3 X67.1059 Y30.298 I-1.9734 J-1.8873
G3 X66.5479 Y30.4446 I-0.9968 J-2.6585
G3 X66.0379 Y30.4839 I-0.4952 J-3.0983
G1 X59.8635
G3 X58.7178 Y30.2469 I-0.0103 J-2.8379
G3 X58.7 Y30.239 I0.6352 J-1.4549
G3 X57.8144 Y29.6264 I1.2284 J-2.7224
G3 X57.1872 Y28.7387 I2.0418 J-2.108
G3 X57.1779 Y28.7179 I1.4438 J-0.6601
G3 X56.94 Y27.5724 I2.5721 J-1.1315
G1 Y26.2446
G3 X56.9583 Y26.0041 I1.5875 J0.0
G1 F300.0 X55.7039
G1 F1500.0 Y27.7971
G3 X55.7038 Y27.8046 I-1.5875 J0.0
G2 X55.774 Y28.5776 I4.08 J0.0192
G3 X55.7747 Y28.5811 I-1.5602 J0.2933
G2 X56.1477 Y29.627 I3.4466 J-0.6399
G2 X56.4576 Y30.1032 I3.3425 J-1.8363
G2 X56.8549 Y30.5561 I3.7346 J-2.8748
G3 X56.8593 Y30.5606 I-1.1242 J1.1209
G2 X57.4649 Y31.0687 I3.0352 J-3.0025
G3 X57.4683 Y31.0711 I-0.9034 J1.3054
G2 X58.4777 Y31.5585 I2.0331 J-2.9216
G2 X59.0366 Y31.6795 I1.0842 J-3.6555
G2 X59.6277 Y31.7194 I0.5817 J-4.2277
G3 X59.6312 I0.0035 J1.5875
G1 X66.6794
G2 X67.0369 Y31.702 I-0.017 J-4.0397
G2 X68.1241 Y31.3789 I-0.2782 J-2.9268
G2 X68.6156 Y31.0578 I-1.5412 J-2.8959
G2 X69.0807 Y30.6255 I-2.6063 J-3.2702
G3 X69.0841 Y30.6218 I1.166 J1.0773
G2 X69.5573 Y30.0231 I-3.485 J-3.2405
G3 X69.5579 Y30.0221 I1.3204 J0.8813
G2 X70.0083 Y29.0698 I-2.9785 J-1.9911
G2 X70.1581 Y28.024 I-3.467 J-1.0302
G3 X70.158 Y28.0158 I1.5875 J-0.0068
G2 X70.0913 Y27.2957 I-3.8847 J-0.0032
G2 X69.7426 Y26.3103 I-3.4138 J0.6535
G2 X69.0901 Y25.4041 I-3.8159 J2.0597
G3 X69.0819 Y25.3953 I1.1581 J-1.0858
G2 X68.5451 Y24.9079 I-3.0309 J2.799
G2 X67.676 Y24.4516 I-1.8071 J2.3858
G2 X67.2042 Y24.3399 I-0.8943 J2.7261
G3 X67.2026 Y24.3397 I0.2338 J-1.5702
G2 X66.6878 Y24.3017 I-0.5095 J3.399
G3 X66.6854 I-0.0024 J-1.5875
G1 X58.5275
G3 X56.94 Y22.7142 I0.0 J-1.5875
G1 Y21.3984
G3 X57.1771 Y20.2525 I2.8377 J-0.0104
G3 X57.1849 Y20.2348 I1.4549 J0.6352
G3 X57.8043 Y19.3424 I2.7225 J1.2285
G3 X58.7015 Y18.7185 I2.1164 J2.0865
G3 X58.7208 Y18.71 I0.6512 J1.4478
G3 X59.8633 Y18.4748 I1.1328 J2.6105
G1 X69.0852
G1 Y17.2394
G1 X59.6393
G3 X59.6354 I0.0 J-1.5875
G2 X58.8546 Y17.3112 I-0.0102 J4.1732
G2 X57.7924 Y17.6911 I0.6792 J3.5738
G1 X57.7923
G1 X57.7925 Y17.691
G1 X57.7924 Y17.6911
G2 X57.3055 Y18.0052 I1.8871 J3.4595
G3 X57.3033 Y18.0068 I-0.9564 J-1.2671
G2 X56.8562 Y18.3904 I2.7607 J3.6708
G2 X56.3538 Y19.0032 I3.3332 J3.245
G2 X55.8657 Y20.0215 I3.0372 J2.0819
G2 X55.7038 Y21.1672 I3.8359 J1.1264
G3 X55.7039 Y21.1749 I-1.5875 J0.0077
G1 Y26.0041
G0 Z3.0
G0 X73.3595
G1 F300.0 Z0.0
G1 F1500.0 Y31.7194 Z-0.0708
G1 X83.9173 Z-0.2016
G3 X83.9205 Z-0.2017 I0.0 J1.5875
G2 X84.6995 Y31.6479 Z-0.2114 I0.0085 J-4.1894
G2 X85.7443 Y31.2709 Z-0.2252 I-0.6494 J-3.4359
G3 X85.7451 Y31.2705 I0.7692 J1.3887
G2 X86.2186 Y30.9589 Z-0.2322 I-1.7894 J-3.2348
G3 X86.2222 Y30.9561 Z-0.2323 I0.9718 J1.2553
G2 X86.6659 Y30.5633 Z-0.2397 I-2.6349 J-3.4235
G3 X86.6844 Y30.5449 Z-0.24 I1.1313 J1.1137
G2 X87.1912 Y29.9446 Z-0.2497 I-2.9715 J-3.0232
G3 X87.1918 Y29.9437 I1.3026 J0.9074
G2 X87.6801 Y28.9379 Z-0.2636 I-2.9295 J-2.0436
G2 X87.7993 Y28.3905 Z-0.2706 I-3.4239 J-1.0321
G3 X87.8021 Y28.3707 Z-0.2708 I1.5729 J0.2152
G2 X87.8157 Y28.2587 Z-0.2722 I-1.9669 J-0.2945
G3 X87.8166 Y28.249 Z-0.2724 I1.5808 J0.1457
G2 X87.8269 Y28.1334 Z-0.2738 I-6.6205 J-0.6517
G1 X87.8298 Y28.0936 Z-0.2743
G2 X87.8395 Y27.7922 Z-0.278 I-5.8936 J-0.3407
G1 Y17.2394 Z-0.4088
G1 X86.604 Z-0.4241
G1 Y27.35 Z-0.5494
G3 X86.3697 Y28.5539 Z-0.5647 I-3.0891 J0.0234
G3 X86.3621 Y28.5719 Z-0.5649 I-1.467 J-0.6066
G3 X85.6857 Y29.5673 Z-0.5799 I-2.8922 J-1.2379
G3 X85.235 Y29.944 Z-0.5872 I-2.2763 J-2.2653
G3 X85.2309 Y29.9469 Z-0.5873 I-0.9025 J-1.306
G3 X83.4677 Y30.4839 Z-0.6105 I-1.7321 J-2.5236
G1 X76.1825 Z-0.7007
G3 X74.595 Y28.8964 Z-0.7316 I0.0 J-1.5875
G1 Y17.2394 Z-0.8761
G1 X73.3595 Z-0.8914
G1 Y26.0041 Z-1.0
G1 Y31.7194 Z-1.0708
G1 X83.9173 Z-1.2016
G3 X83.9205 Z-1.2017 I0.0 J1.5875
G2 X84.6995 Y31.6479 Z-1.2114 I0.0085 J-4.1894
G2 X85.7443 Y31.2709 Z-1.2252 I-0.6494 J-3.4359
G3 X85.7451 Y31.2705 I0.7692 J1.3887
G2 X86.2186 Y30.9589 Z-1.2322 I-1.7894 J-3.2348
G3 X86.2222 Y30.9561 Z-1.2323 I0.9718 J1.2553
G2 X86.6659 Y30.5633 Z-1.2397 I-2.6349 J-3.4235
G3 X86.6844 Y30.5449 Z-1.24 I1.1313 J1.1137
G2 X87.1912 Y29.9446 Z-1.2497 I-2.9715 J-3.0232
G3 X87.1918 Y29.9437 I1.3026 J0.9074
G2 X87.6801 Y28.9379 Z-1.2636 I-2.9295 J-2.0436
G2 X87.7993 Y28.3905 Z-1.2706 I-3.4239 J-1.0321
G3 X87.8021 Y28.3707 Z-1.2708 I1.5729 J0.2152
G2 X87.8157 Y28.2587 Z-1.2722 I-1.9669 J-0.2945
G3 X87.8166 Y28.249 Z-1.2724 I1.5808 J0.1457
G2 X87.8269 Y28.1334 Z-1.2738 I-6.6205 J-0.6517
G1 X87.8298 Y28.0936 Z-1.2743
G2 X87.8395 Y27.7922 Z-1.278 I-5.8936 J-0.3407
G1 Y17.2394 Z-1.4088
G1 X86.604 Z-1.4241
G1 Y27.35 Z-1.5494
G3 X86.3697 Y28.5539 Z-1.5647 I-3.0891 J0.0234
G3 X86.3621 Y28.5719 Z-1.5649 I-1.467 J-0.6066
G3 X85.6857 Y29.5673 Z-1.5799 I-2.8922 J-1.2379
G3 X85.235 Y29.944 Z-1.5872 I-2.2763 J-2.2653
G3 X85.2309 Y29.9469 Z-1.5873 I-0.9025 J-1.306
G3 X83.4677 Y30.4839 Z-1.6105 I-1.7321 J-2.5236
G1 X76.1825 Z-1.7007
G3 X74.595 Y28.8964 Z-1.7316 I0.0 J-1.5875
G1 Y17.2394 Z-1.8761
G1 X73.3595 Z-1.8914
G1 Y26.0041 Z-2.0
G1 Y31.7194 Z-2.0708
G1 X83.9173 Z-2.2016
G3 X83.9205 Z-2.2017 I0.0 J1.5875
G2 X84.6995 Y31.6479 Z-2.2114 I0.0085 J-4.1894
G2 X85.7443 Y31.2709 Z-2.2252 I-0.6494 J-3.4359
G3 X85.7451 Y31.2705 I0.7692 J1.3887
G2 X86.2186 Y30.9589 Z-2.2322 I-1.7894 J-3.2348
G3 X86.2222 Y30.9561 Z-2.2323 I0.9718 J1.2553
G2 X86.6659 Y30.5633 Z-2.2397 I-2.6349 J-3.4235
G3 X86.6844 Y30.5449 Z-2.24 I1.1313 J1.1137
G2 X87.1912 Y29.9446 Z-2.2497 I-2.9715 J-3.0232
G3 X87.1918 Y29.9437 I1.3026 J0.9074
G2 X87.6801 Y28.9379 Z-2.2636 I-2.9295 J-2.0436
G2 X87.7993 Y28.3905 Z-2.2706 I-3.4239 J-1.0321
G3 X87.8021 Y28.3707 Z-2.2708 I1.5729 J0.2152
G2 X87.8157 Y28.2587 Z-2.2722 I-1.9669 J-0.2945
G3 X87.8166 Y28.249 Z-2.2724 I1.5808 J0.1457
G2 X87.8269 Y28.1334 Z-2.2738 I-6.6205 J-0.6517
G1 X87.8298 Y28.0936 Z-2.2743
G2 X87.8395 Y27.7922 Z-2.278 I-5.8936 J-0.3407
G1 Y17.2394 Z-2.4088
G1 X86.604 Z-2.4241
G1 Y27.35 Z-2.5494
G3 X86.3697 Y28.5539 Z-2.5647 I-3.0891 J0.0234
G3 X86.3621 Y28.5719 Z-2.5649 I-1.467 J-0.6066
G3 X85.6857 Y29.5673 Z-2.5799 I-2.8922 J-1.2379
G3 X85.235 Y29.944 Z-2.5872 I-2.2763 J-2.2653
G3 X85.2309 Y29.9469 Z-2.5873 I-0.9025 J-1.306
G3 X83.4677 Y30.4839 Z-2.6105 I-1.7321 J-2.5236
G1 X76.1825 Z-2.7007
G3 X74.595 Y28.8964 Z-2.7316 I0.0 J-1.5875
G1 Y17.2394 Z-2.8761
G1 X73.3595 Z-2.8914
G1 Y26.0041 Z-3.0
G1 Y31.7194 Z-3.0708
G1 X83.9173 Z-3.2016
G3 X83.9205 Z-3.2017 I0.0 J1.5875
G2 X84.6995 Y31.6479 Z-3.2114 I0.0085 J-4.1894
G2 X85.7443 Y31.2709 Z-3.2252 I-0.6494 J-3.4359
G3 X85.7451 Y31.2705 I0.7692 J1.3887
G2 X86.2186 Y30.9589 Z-3.2322 I-1.7894 J-3.2348
G3 X86.2222 Y30.9561 Z-3.2323 I0.9718 J1.2553
G2 X86.6659 Y30.5633 Z-3.2397 I-2.6349 J-3.4235
G3 X86.6844 Y30.5449 Z-3.24 I1.1313 J1.1137
G2 X87.1912 Y29.9446 Z-3.2497 I-2.9715 J-3.0232
G3 X87.1918 Y29.9437 I1.3026 J0.9074
G2 X87.6801 Y28.9379 Z-3.2636 I-2.9295 J-2.0436
G2 X87.7993 Y28.3905 Z-3.2706 I-3.4239 J-1.0321
G3 X87.8021 Y28.3707 Z-3.2708 I1.5729 J0.2152
G2 X87.8157 Y28.2587 Z-3.2722 I-1.9669 J-0.2945
G3 X87.8166 Y28.249 Z-3.2724 I1.5808 J0.1457
G2 X87.8269 Y28.1334 Z-3.2738 I-6.6205 J-0.6517
G1 X87.8298 Y28.0936 Z-3.2743
G2 X87.8395 Y27.7922 Z-3.278 I-5.8936 J-0.3407
G1 Y17.2394 Z-3.4088
G1 X86.604 Z-3.4241
G1 Y27.35 Z-3.5494
G3 X86.3697 Y28.5539 Z-3.5647 I-3.0891 J0.0234
G3 X86.3621 Y28.5719 Z-3.5649 I-1.467 J-0.6066
G3 X85.6857 Y29.5673 Z-3.5799 I-2.8922 J-1.2379
G3 X85.235 Y29.944 Z-3.5872 I-2.2763 J-2.2653
G3 X85.2309 Y29.9469 Z-3.5873 I-0.9025 J-1.306
G3 X83.4677 Y30.4839 Z-3.6105 I-1.7321 J-2.5236
G1 X76.1825 Z-3.7007
G3 X74.595 Y28.8964 Z-3.7316 I0.0 J-1.5875
G1 Y17.2394 Z-3.8761
G1 X73.3595 Z-3.8914
G1 Y26.0041 Z-4.0
G1 Y31.7194 Z-4.0708
G1 X83.9173 Z-4.2016
G3 X83.9205 Z-4.2017 I0.0 J1.5875
G2 X84.6995 Y31.6479 Z-4.2114 I0.0085 J-4.1894
G2 X85.7443 Y31.2709 Z-4.2252 I-0.6494 J-3.4359
G3 X85.7451 Y31.2705 I0.7692 J1.3887
G2 X86.2186 Y30.9589 Z-4.2322 I-1.7894 J-3.2348
G3 X86.2222 Y30.9561 Z-4.2323 I0.9718 J1.2553
G2 X86.6659 Y30.5633 Z-4.2397 I-2.6349 J-3.4235
G3 X86.6844 Y30.5449 Z-4.24 I1.1313 J1.1137
G2 X87.1912 Y29.9446 Z-4.2497 I-2.9715 J-3.0232
G3 X87.1918 Y29.9437 I1.3026 J0.9074
G2 X87.6801 Y28.9379 Z-4.2636 I-2.9295 J-2.0436
G2 X87.7993 Y28.3905 Z-4.2706 I-3.4239 J-1.0321
G3 X87.8021 Y28.3707 Z-4.2708 I1.5729 J0.2152
G2 X87.8157 Y28.2587 Z-4.2722 I-1.9669 J-0.2945
G3 X87.8166 Y28.249 Z-4.2724 I1.5808 J0.1457
G2 X87.8269 Y28.1334 Z-4.2738 I-6.6205 J-0.6517
G1 X87.8298 Y28.0936 Z-4.2743
G2 X87.8395 Y27.7922 Z-4.278 I-5.8936 J-0.3407
G1 Y17.2394 Z-4.4088
G1 X86.604 Z-4.4241
G1 Y27.35 Z-4.5494
G3 X86.3697 Y28.5539 Z-4.5647 I-3.0891 J0.0234
G3 X86.3621 Y28.5719 Z-4.5649 I-1.467 J-0.6066
G3 X85.6857 Y29.5673 Z-4.5799 I-2.8922 J-1.2379
G3 X85.235 Y29.944 Z-4.5872 I-2.2763 J-2.2653
G3 X85.2309 Y29.9469 Z-4.5873 I-0.9025 J-1.306
G3 X83.4677 Y30.4839 Z-4.6105 I-1.7321 J-2.5236
G1 X76.1825 Z-4.7007
G3 X74.595 Y28.8964 Z-4.7316 I0.0 J-1.5875
G1 Y17.2394 Z-4.8761
G1 X73.3595 Z-4.8914
G1 Y26.0041 Z-5.0
G1 Y31.7194 Z-5.0708
G1 X83.9173 Z-5.2016
G3 X83.9205 Z-5.2017 I0.0 J1.5875
G2 X84.6995 Y31.6479 Z-5.2114 I0.0085 J-4.1894
G2 X85.7443 Y31.2709 Z-5.2252 I-0.6494 J-3.4359
G3 X85.7451 Y31.2705 I0.7692 J1.3887
G2 X86.2186 Y30.9589 Z-5.2322 I-1.7894 J-3.2348
G3 X86.2222 Y30.9561 Z-5.2323 I0.9718 J1.2553
G2 X86.6659 Y30.5633 Z-5.2397 I-2.6349 J-3.4235
G3 X86.6844 Y30.5449 Z-5.24 I1.1313 J1.1137
G2 X87.1912 Y29.9446 Z-5.2497 I-2.9715 J-3.0232
G3 X87.1918 Y29.9437 I1.3026 J0.9074
G2 X87.6801 Y28.9379 Z-5.2636 I-2.9295 J-2.0436
G2 X87.7993 Y28.3905 Z-5.2706 I-3.4239 J-1.0321
G3 X87.8021 Y28.3707 Z-5.2708 I1.5729 J0.2152
G2 X87.8157 Y28.2587 Z-5.2722 I-1.9669 J-0.2945
G3 X87.8166 Y28.249 Z-5.2724 I1.5808 J0.1457
G2 X87.8269 Y28.1334 Z-5.2738 I-6.6205 J-0.6517
G1 X87.8298 Y28.0936 Z-5.2743
G2 X87.8395 Y27.7922 Z-5.278 I-5.8936 J-0.3407
G1 Y17.2394 Z-5.4088
G1 X86.604 Z-5.4241
G1 Y27.35 Z-5.5494
G3 X86.3697 Y28.5539 Z-5.5647 I-3.0891 J0.0234
G3 X86.3621 Y28.5719 Z-5.5649 I-1.467 J-0.6066
G3 X85.6857 Y29.5673 Z-5.5799 I-2.8922 J-1.2379
G3 X85.235 Y29.944 Z-5.5872 I-2.2763 J-2.2653
G3 X85.2309 Y29.9469 Z-5.5873 I-0.9025 J-1.306
G3 X83.4677 Y30.4839 Z-5.6105 I-1.7321 J-2.5236
G1 X76.1825 Z-5.7007
G3 X74.595 Y28.8964 Z-5.7316 I0.0 J-1.5875
G1 Y17.2394 Z-5.8761
G1 X73.3595 Z-5.8914
G1 Y26.0041 Z-6.0
G1 Y31.7194
G1 X83.9173
G3 X83.9205 I0.0 J1.5875
G2 X84.6995 Y31.6479 I0.0085 J-4.1894
G2 X85.7443 Y31.2709 I-0.6494 J-3.4359
G3 X85.7451 Y31.2705 I0.7692 J1.3887
G2 X86.2186 Y30.9589 I-1.7894 J-3.2348
G3 X86.2222 Y30.9561 I0.9718 J1.2553
G2 X86.6659 Y30.5633 I-2.6349 J-3.4235
G3 X86.6844 Y30.5449 I1.1313 J1.1137
G2 X87.1912 Y29.9446 I-2.9715 J-3.0232
G3 X87.1918 Y29.9437 I1.3026 J0.9074
G2 X87.6801 Y28.9379 I-2.9295 J-2.0436
G2 X87.7993 Y28.3905 I-3.4239 J-1.0321
G3 X87.8021 Y28.3707 I1.5729 J0.2152
G2 X87.8157 Y28.2587 I-1.9669 J-0.2945
G3 X87.8166 Y28.249 I1.5808 J0.1457
G2 X87.8269 Y28.1334 I-6.6205 J-0.6517
G1 X87.8298 Y28.0936
G2 X87.8395 Y27.7922 I-5.8936 J-0.3407
G1 Y17.2394
G1 X86.604
G1 Y27.35
G3 X86.3697 Y28.5539 I-3.0891 J0.0234
G3 X86.3621 Y28.5719 I-1.467 J-0.6066
G3 X85.6857 Y29.5673 I-2.8922 J-1.2379
G3 X85.235 Y29.944 I-2.2763 J-2.2653
G3 X85.2309 Y29.9469 I-0.9025 J-1.306
G3 X83.4677 Y30.4839 I-1.7321 J-2.5236
G1 X76.1825
G3 X74.595 Y28.8964 I0.0 J-1.5875
G1 Y17.2394
G1 X73.3595
G1 Y26.0041
G0 Z3.0
G0 X91.0145 Y30.4839
G1 F300.0 Z0.0
G1 F1500.0 Y31.7194 Z-0.0237
G1 X103.2958 Z-0.2591
G1 Y30.4839 Z-0.2828
G1 X99.3604 Z-0.3583
G3 X97.7729 Y28.8964 Z-0.4061 I0.0 J-1.5875
G1 Y17.2394 Z-0.6296
G1 X96.5374 Z-0.6533
G1 Y28.8964 Z-0.8767
G3 X94.9499 Y30.4839 Z-0.9245 I-1.5875 J0.0
G1 X91.0145 Z-1.0
G1 Y31.7194 Z-1.0237
G1 X103.2958 Z-1.2591
G1 Y30.4839 Z-1.2828
G1 X99.3604 Z-1.3583
G3 X97.7729 Y28.8964 Z-1.4061 I0.0 J-1.5875
G1 Y17.2394 Z-1.6296
G1 X96.5374 Z-1.6533
G1 Y28.8964 Z-1.8767
G3 X94.9499 Y30.4839 Z-1.9245 I-1.5875 J0.0
G1 X91.0145 Z-2.0
G1 Y31.7194 Z-2.0237
G1 X103.2958 Z-2.2591
G1 Y30.4839 Z-2.2828
G1 X99.3604 Z-2.3583
G3 X97.7729 Y28.8964 Z-2.4061 I0.0 J-1.5875
G1 Y17.2394 Z-2.6296
G1 X96.5374 Z-2.6533
G1 Y28.8964 Z-2.8767
G3 X94.9499 Y30.4839 Z-2.9245 I-1.5875 J0.0
G1 X91.0145 Z-3.0
G1 Y31.7194 Z-3.0237
G1 X103.2958 Z-3.2591
G1 Y30.4839 Z-3.2828
G1 X99.3604 Z-3.3583
G3 X97.7729 Y28.8964 Z-3.4061 I0.0 J-1.5875
G1 Y17.2394 Z-3.6296
G1 X96.5374 Z-3.6533
G1 Y28.8964 Z-3.8767
G3 X94.9499 Y30.4839 Z-3.9245 I-1.5875 J0.0
G1 X91.0145 Z-4.0
G1 Y31.7194 Z-4.0237
G1 X103.2958 Z-4.2591
G1 Y30.4839 Z-4.2828
G1 X99.3604 Z-4.3583
G3 X97.7729 Y28.8964 Z-4.4061 I0.0 J-1.5875
G1 Y17.2394 Z-4.6296
G1 X96.5374 Z-4.6533
G1 Y28.8964 Z-4.8767
G3 X94.9499 Y30.4839 Z-4.9245 I-1.5875 J0.0
G1 X91.0145 Z-5.0
G1 Y31.7194 Z-5.0237
G1 X103.2958 Z-5.2591
G1 Y30.4839 Z-5.2828
G1 X99.3604 Z-5.3583
G3 X97.7729 Y28.8964 Z-5.4061 I0.0 J-1.5875
G1 Y17.2394 Z-5.6296
G1 X96.5374 Z-5.6533
G1 Y28.8964 Z-5.8767
G3 X94.9499 Y30.4839 Z-5.9245 I-1.5875 J0.0
G1 X91.0145 Z-6.0
G1 Y31.7194
G1 X103.2958
G1 Y30.4839
G1 X99.3604
G3 X97.7729 Y28.8964 I0.0 J-1.5875
G1 Y17.2394
G1 X96.5374
G1 Y28.8964
G3 X94.9499 Y30.4839 I-1.5875 J0.0
G1 X91.0145
G0 Z3.0
G0 X107.5701 Y30.4847
G1 F300.0 Z0.0
G1 F1500.0 Y31.7201 Z-0.0164
G1 X117.0285 Z-0.1417
G3 X117.0318 Z-0.1418 I0.0 J1.5875
G2 X117.8108 Y31.6486 Z-0.1521 I0.0086 J-4.1889
G2 X118.8556 Y31.2716 Z-0.1669 I-0.6493 J-3.4359
G3 X118.8564 Y31.2712 I0.7692 J1.3887
G2 X119.3299 Y30.9596 Z-0.1744 I-1.7896 J-3.2351
G3 X119.3334 Y30.9569 Z-0.1745 I0.9718 J1.2553
G2 X119.7772 Y30.5641 Z-0.1824 I-2.6354 J-3.4241
G3 X119.7957 Y30.5456 Z-0.1827 I1.1313 J1.1137
G2 X120.3025 Y29.9453 Z-0.1931 I-2.9711 J-3.0229
G3 X120.3031 Y29.9445 Z-0.1932 I1.3026 J0.9074
G2 X120.7914 Y28.9387 Z-0.208 I-2.9294 J-2.0435
G2 X120.9106 Y28.3913 Z-0.2155 I-3.4243 J-1.0322
G3 X120.9134 Y28.3714 Z-0.2157 I1.5728 J0.2152
G2 X120.9269 Y28.2595 Z-0.2172 I-1.9677 J-0.2946
G3 X120.9279 Y28.2497 Z-0.2174 I1.5808 J0.1457
G2 X120.9382 Y28.1341 Z-0.2189 I-6.6351 J-0.653
G1 X120.9411 Y28.0943 Z-0.2194
G2 X120.9508 Y27.7929 Z-0.2234 I-5.8984 J-0.3408
G1 Y17.2394 Z-0.3633
G1 X109.9663 Z-0.5088
G3 X109.9646 Z-0.5089 I0.0 J-1.5875
G2 X109.2749 Y17.3067 Z-0.518 I-0.0037 J3.5328
G2 X108.3623 Y17.6578 Z-0.5311 I0.5875 J2.8884
G3 X108.3611 Y17.6585 I-0.8079 J-1.3665
G2 X107.9435 Y17.9508 Z-0.5378 I1.6688 J2.828
G3 X107.9399 Y17.9538 Z-0.5379 I-1.0087 J-1.2259
G2 X107.5472 Y18.3227 Z-0.5451 I2.4903 J3.0448
G1 X107.5471 Y18.3228
G2 X107.0724 Y18.9246 Z-0.5552 I3.4953 J3.2448
G2 X106.6204 Y19.8882 Z-0.5694 I3.0622 J2.0243
G2 X106.4708 Y20.9483 Z-0.5836 I3.5718 J1.0446
G3 Y20.9595 Z-0.5838 I-1.5875 J0.0066
G2 X106.5374 Y21.6685 Z-0.5932 I3.6917 J0.0109
G2 X106.8883 Y22.652 Z-0.6071 I3.3925 J-0.656
G3 X106.8897 Y22.6546 I-1.3974 J0.7533
G2 X107.1801 Y23.1163 Z-0.6144 I3.4929 J-1.8747
G3 X107.1894 Y23.1292 Z-0.6146 I-1.2825 J0.9356
G2 X107.257 Y23.2193 Z-0.6161 I1.9447 J-1.389
G1 X107.339 Y23.3225 Z-0.6178
G2 X107.5452 Y23.5592 Z-0.622 I3.6536 J-2.9746
G3 X107.55 Y23.5644 Z-0.6221 I-1.1616 J1.0821
G2 X108.0865 Y24.0497 Z-0.6317 I2.959 J-2.7319
G2 X108.9612 Y24.5067 Z-0.6448 I1.827 J-2.4313
G2 X109.9564 Y24.6579 Z-0.6582 I0.9751 J-3.0679
G3 X109.9663 Y24.6578 Z-0.6583 I0.0099 J1.5875
G1 X118.1278 Z-0.7665
G3 X119.7153 Y26.2453 Z-0.7995 I0.0 J1.5875
G1 Y27.5727 Z-0.8171
G3 X119.4771 Y28.7194 Z-0.8328 I-2.8067 J0.0151
G3 X119.4695 Y28.7366 Z-0.833 I-1.4527 J-0.6401
G3 X118.8485 Y29.62 Z-0.8474 I-2.6589 J-1.2092
G3 X117.9701 Y30.2375 Z-0.8617 I-2.0986 J-2.0515
G3 X117.9493 Y30.2468 Z-0.862 I-0.6601 J-1.4438
G3 X116.8038 Y30.4847 Z-0.8776 I-1.1315 J-2.5721
G1 X107.5701 Z-1.0
G0 Z3.0
G0 X109.7107 Y24.1523
G1 F300.0 Z0.0
G3 F1500.0 X109.4839 Y24.0646 Z-0.0076 I0.9087 J-2.6883
G3 X109.4662 Y24.0568 Z-0.0083 I0.6352 J-1.4549
G3 X108.5806 Y23.4442 Z-0.0423 I1.2285 J-2.7225
G3 X107.9534 Y22.5565 Z-0.0767 I2.0418 J-2.108
G3 X107.9441 Y22.5357 Z-0.0774 I1.4438 J-0.6601
G3 X107.7062 Y21.3933 Z-0.1144 I2.5719 J-1.1315
G3 X107.9433 Y20.2525 Z-0.1513 I2.8377 J-0.0053
G3 X107.9512 Y20.2348 Z-0.1519 I1.4549 J0.6352
G3 X108.5705 Y19.3424 Z-0.1863 I2.7225 J1.2285
G3 X109.4677 Y18.7185 Z-0.2209 I2.1164 J2.0865
G3 X109.4871 Y18.71 Z-0.2215 I0.6512 J1.4478
G3 X110.6295 Y18.4748 Z-0.2585 I1.1328 J2.6107
G1 X118.1278 Z-0.4944
G3 X119.7153 Y20.0623 Z-0.5728 I0.0 J1.5875
G1 Y22.7142 Z-0.6562
G3 X118.1278 Y24.3017 Z-0.7347 I-1.5875 J0.0
G1 X110.6298 Z-0.9706
G3 X109.7107 Y24.1523 Z-1.0 I-0.0104 J-2.8377
G3 X109.4839 Y24.0646 Z-1.0076 I0.9087 J-2.6883
G3 X109.4662 Y24.0568 Z-1.0083 I0.6352 J-1.4549
G3 X108.5806 Y23.4442 Z-1.0423 I1.2285 J-2.7225
G3 X107.9534 Y22.5565 Z-1.0767 I2.0418 J-2.108
G3 X107.9441 Y22.5357 Z-1.0774 I1.4438 J-0.6601
G3 X107.7062 Y21.3933 Z-1.1144 I2.5719 J-1.1315
G3 X107.9433 Y20.2525 Z-1.1513 I2.8377 J-0.0053
G3 X107.9512 Y20.2348 Z-1.1519 I1.4549 J0.6352
G3 X108.5705 Y19.3424 Z-1.1863 I2.7225 J1.2285
G3 X109.4677 Y18.7185 Z-1.2209 I2.1164 J2.0865
G3 X109.4871 Y18.71 Z-1.2215 I0.6512 J1.4478
G3 X110.6295 Y18.4748 Z-1.2585 I1.1328 J2.6107
G1 X118.1278 Z-1.4944
G3 X119.7153 Y20.0623 Z-1.5728 I0.0 J1.5875
G1 Y22.7142 Z-1.6562
G3 X118.1278 Y24.3017 Z-1.7347 I-1.5875 J0.0
G1 X110.6298 Z-1.9706
G3 X109.7107 Y24.1523 Z-2.0 I-0.0104 J-2.8377
G1 F300.0 X109.6695 Y24.6468
G2 F1500.0 X109.9564 Y24.6579 I0.2668 J-3.2081
G3 X109.9663 Y24.6578 I0.0099 J1.5875
G1 X118.1278
G3 X119.7153 Y26.2453 I0.0 J1.5875
G1 Y27.5727
G3 X119.4771 Y28.7194 I-2.8067 J0.0151
G3 X119.4695 Y28.7366 I-1.4527 J-0.6401
G3 X118.8485 Y29.62 I-2.6589 J-1.2092
G3 X117.9701 Y30.2375 I-2.0986 J-2.0515
G3 X117.9493 Y30.2468 I-0.6601 J-1.4438
G3 X116.8038 Y30.4847 I-1.1315 J-2.5721
G1 X107.5701
G1 Y31.7201
G1 X117.0285
G3 X117.0318 I0.0 J1.5875
G2 X117.8108 Y31.6486 I0.0086 J-4.1889
G2 X118.8556 Y31.2716 I-0.6493 J-3.4359
G3 X118.8564 Y31.2712 I0.7692 J1.3887
G2 X119.3299 Y30.9596 I-1.7896 J-3.2351
G3 X119.3334 Y30.9569 I0.9718 J1.2553
G2 X119.7772 Y30.5641 I-2.6354 J-3.4241
G3 X119.7957 Y30.5456 I1.1313 J1.1137
G2 X120.3025 Y29.9453 I-2.9711 J-3.0229
G3 X120.3031 Y29.9445 I1.3026 J0.9074
G2 X120.7914 Y28.9387 I-2.9294 J-2.0435
G2 X120.9106 Y28.3913 I-3.4243 J-1.0322
G3 X120.9134 Y28.3714 I1.5728 J0.2152
G2 X120.9269 Y28.2595 I-1.9677 J-0.2946
G3 X120.9279 Y28.2497 I1.5808 J0.1457
G2 X120.9382 Y28.1341 I-6.6351 J-0.653
G1 X120.9411 Y28.0943
G2 X120.9508 Y27.7929 I-5.8984 J-0.3408
G1 Y17.2394
G1 X109.9663
G3 X109.9646 I0.0 J-1.5875
G2 X109.2749 Y17.3067 I-0.0037 J3.5328
G2 X108.3623 Y17.6578 I0.5875 J2.8884
G3 X108.3611 Y17.6585 I-0.8079 J-1.3665
G2 X107.9435 Y17.9508 I1.6688 J2.828
G3 X107.9399 Y17.9538 I-1.0087 J-1.2259
G2 X107.5472 Y18.3227 I2.4903 J3.0448
G1 X107.5471 Y18.3228
G2 X107.0724 Y18.9246 I3.4953 J3.2448
G2 X106.6204 Y19.8882 I3.0622 J2.0243
G2 X106.4708 Y20.9483 I3.5718 J1.0446
G3 Y20.9595 I-1.5875 J0.0066
G2 X106.5374 Y21.6685 I3.6917 J0.0109
G2 X106.8883 Y22.652 I3.3925 J-0.656
G3 X106.8897 Y22.6546 I-1.3974 J0.7533
G2 X107.1801 Y23.1163 I3.4929 J-1.8747
G3 X107.1894 Y23.1292 I-1.2825 J0.9356
G2 X107.257 Y23.2193 I1.9447 J-1.389
G1 X107.339 Y23.3225
G2 X107.5452 Y23.5592 I3.6536 J-2.9746
G3 X107.55 Y23.5644 I-1.1616 J1.0821
G2 X108.0865 Y24.0497 I2.959 J-2.7319
G2 X108.9612 Y24.5067 I1.827 J-2.4313
G2 X109.6695 Y24.6468 I0.9751 J-3.0679
G2 X109.9564 Y24.6579 Z-2.0038 I0.2668 J-3.2081
G3 X109.9663 Y24.6578 Z-2.0039 I0.0099 J1.5875
G1 X118.1278 Z-2.1121
G3 X119.7153 Y26.2453 Z-2.1451 I0.0 J1.5875
G1 Y27.5727 Z-2.1627
G3 X119.4771 Y28.7194 Z-2.1784 I-2.8067 J0.0151
G3 X119.4695 Y28.7366 Z-2.1786 I-1.4527 J-0.6401
G3 X118.8485 Y29.62 Z-2.193 I-2.6589 J-1.2092
G3 X117.9701 Y30.2375 Z-2.2073 I-2.0986 J-2.0515
G3 X117.9493 Y30.2468 Z-2.2076 I-0.6601 J-1.4438
G3 X116.8038 Y30.4847 Z-2.2232 I-1.1315 J-2.5721
G1 X107.5701 Z-2.3456
G1 Y31.7201 Z-2.362
G1 X117.0285 Z-2.4873
G3 X117.0318 I0.0 J1.5875
G2 X117.8108 Y31.6486 Z-2.4977 I0.0086 J-4.1889
G2 X118.8556 Y31.2716 Z-2.5125 I-0.6493 J-3.4359
G3 X118.8564 Y31.2712 I0.7692 J1.3887
G2 X119.3299 Y30.9596 Z-2.52 I-1.7896 J-3.2351
G3 X119.3334 Y30.9569 Z-2.5201 I0.9718 J1.2553
G2 X119.7772 Y30.5641 Z-2.528 I-2.6354 J-3.4241
G3 X119.7957 Y30.5456 Z-2.5283 I1.1313 J1.1137
G2 X120.3025 Y29.9453 Z-2.5387 I-2.9711 J-3.0229
G3 X120.3031 Y29.9445 I1.3026 J0.9074
G2 X120.7914 Y28.9387 Z-2.5536 I-2.9294 J-2.0435
G2 X120.9106 Y28.3913 Z-2.5611 I-3.4243 J-1.0322
G3 X120.9134 Y28.3714 Z-2.5613 I1.5728 J0.2152
G2 X120.9269 Y28.2595 Z-2.5628 I-1.9677 J-0.2946
G3 X120.9279 Y28.2497 Z-2.5629 I1.5808 J0.1457
G2 X120.9382 Y28.1341 Z-2.5645 I-6.6351 J-0.653
G1 X120.9411 Y28.0943 Z-2.565
G2 X120.9508 Y27.7929 Z-2.569 I-5.8984 J-0.3408
G1 Y17.2394 Z-2.7089
G1 X109.9663 Z-2.8544
G3 X109.9646 I0.0 J-1.5875
G2 X109.2749 Y17.3067 Z-2.8636 I-0.0037 J3.5328
G2 X108.3623 Y17.6578 Z-2.8767 I0.5875 J2.8884
G3 X108.3611 Y17.6585 I-0.8079 J-1.3665
G2 X107.9435 Y17.9508 Z-2.8834 I1.6688 J2.828
G3 X107.9399 Y17.9538 Z-2.8835 I-1.0087 J-1.2259
G2 X107.5472 Y18.3227 Z-2.8906 I2.4903 J3.0448
G1 X107.5471 Y18.3228
G2 X107.0724 Y18.9246 Z-2.9008 I3.4953 J3.2448
G2 X106.6204 Y19.8882 Z-2.915 I3.0622 J2.0243
G2 X106.4708 Y20.9483 Z-2.9292 I3.5718 J1.0446
G3 Y20.9595 Z-2.9294 I-1.5875 J0.0066
G2 X106.5374 Y21.6685 Z-2.9388 I3.6917 J0.0109
G2 X106.8883 Y22.652 Z-2.9527 I3.3925 J-0.656
G3 X106.8897 Y22.6546 I-1.3974 J0.7533
G2 X107.1801 Y23.1163 Z-2.96 I3.4929 J-1.8747
G3 X107.1894 Y23.1292 Z-2.9602 I-1.2825 J0.9356
G2 X107.257 Y23.2193 Z-2.9617 I1.9447 J-1.389
G1 X107.339 Y23.3225 Z-2.9634
G2 X107.5452 Y23.5592 Z-2.9676 I3.6536 J-2.9746
G3 X107.55 Y23.5644 Z-2.9677 I-1.1616 J1.0821
G2 X108.0865 Y24.0497 Z-2.9773 I2.959 J-2.7319
G2 X108.9612 Y24.5067 Z-2.9904 I1.827 J-2.4313
G2 X109.6695 Y24.6468 Z-3.0 I0.9751 J-3.0679
G1 F300.0 X109.8079 Y24.1832
G3 F1500.0 X109.4839 Y24.0646 I0.8115 J-2.7192
G3 X109.4662 Y24.0568 I0.6352 J-1.4549
G3 X108.5806 Y23.4442 I1.2285 J-2.7225
G3 X107.9534 Y22.5565 I2.0418 J-2.108
G3 X107.9441 Y22.5357 I1.4438 J-0.6601
G3 X107.7062 Y21.3933 I2.5719 J-1.1315
G3 X107.9433 Y20.2525 I2.8377 J-0.0053
G3 X107.9512 Y20.2348 I1.4549 J0.6352
G3 X108.5705 Y19.3424 I2.7225 J1.2285
G3 X109.4677 Y18.7185 I2.1164 J2.0865
G3 X109.4871 Y18.71 I0.6512 J1.4478
G3 X110.6295 Y18.4748 I1.1328 J2.6107
G1 X118.1278
G3 X119.7153 Y20.0623 I0.0 J1.5875
G1 Y22.7142
G3 X118.1278 Y24.3017 I-1.5875 J0.0
G1 X110.6298
G3 X109.8079 Y24.1832 I-0.0104 J-2.8377
G3 X109.4839 Y24.0646 Z-3.0109 I0.8115 J-2.7192
G3 X109.4662 Y24.0568 Z-3.0115 I0.6352 J-1.4549
G3 X108.5806 Y23.4442 Z-3.0455 I1.2285 J-2.7225
G3 X107.9534 Y22.5565 Z-3.0799 I2.0418 J-2.108
G3 X107.9441 Y22.5357 Z-3.0806 I1.4438 J-0.6601
G3 X107.7062 Y21.3933 Z-3.1176 I2.5719 J-1.1315
G3 X107.9433 Y20.2525 Z-3.1545 I2.8377 J-0.0053
G3 X107.9512 Y20.2348 Z-3.1551 I1.4549 J0.6352
G3 X108.5705 Y19.3424 Z-3.1895 I2.7225 J1.2285
G3 X109.4677 Y18.7185 Z-3.2241 I2.1164 J2.0865
G3 X109.4871 Y18.71 Z-3.2247 I0.6512 J1.4478
G3 X110.6295 Y18.4748 Z-3.2617 I1.1328 J2.6107
G1 X118.1278 Z-3.4976
G3 X119.7153 Y20.0623 Z-3.576 I0.0 J1.5875
G1 Y22.7142 Z-3.6595
G3 X118.1278 Y24.3017 Z-3.7379 I-1.5875 J0.0
G1 X110.6298 Z-3.9738
G3 X109.8079 Y24.1832 Z-4.0 I-0.0104 J-2.8377
G1 F300.0 X109.7859 Y24.6544
G2 F1500.0 X109.9564 Y24.6579 I0.1505 J-3.2156
G3 X109.9663 Y24.6578 I0.0099 J1.5875
G1 X118.1278
G3 X119.7153 Y26.2453 I0.0 J1.5875
G1 Y27.5727
G3 X119.4771 Y28.7194 I-2.8067 J0.0151
G3 X119.4695 Y28.7366 I-1.4527 J-0.6401
G3 X118.8485 Y29.62 I-2.6589 J-1.2092
G3 X117.9701 Y30.2375 I-2.0986 J-2.0515
G3 X117.9493 Y30.2468 I-0.6601 J-1.4438
G3 X116.8038 Y30.4847 I-1.1315 J-2.5721
G1 X107.5701
G1 Y31.7201
G1 X117.0285
G3 X117.0318 I0.0 J1.5875
G2 X117.8108 Y31.6486 I0.0086 J-4.1889
G2 X118.8556 Y31.2716 I-0.6493 J-3.4359
G3 X118.8564 Y31.2712 I0.7692 J1.3887
G2 X119.3299 Y30.9596 I-1.7896 J-3.2351
G3 X119.3334 Y30.9569 I0.9718 J1.2553
G2 X119.7772 Y30.5641 I-2.6354 J-3.4241
G3 X119.7957 Y30.5456 I1.1313 J1.1137
G2 X120.3025 Y29.9453 I-2.9711 J-3.0229
G3 X120.3031 Y29.9445 I1.3026 J0.9074
G2 X120.7914 Y28.9387 I-2.9294 J-2.0435
G2 X120.9106 Y28.3913 I-3.4243 J-1.0322
G3 X120.9134 Y28.3714 I1.5728 J0.2152
G2 X120.9269 Y28.2595 I-1.9677 J-0.2946
G3 X120.9279 Y28.2497 I1.5808 J0.1457
G2 X120.9382 Y28.1341 I-6.6351 J-0.653
G1 X120.9411 Y28.0943
G2 X120.9508 Y27.7929 I-5.8984 J-0.3408
G1 Y17.2394
G1 X109.9663
G3 X109.9646 I0.0 J-1.5875
G2 X109.2749 Y17.3067 I-0.0037 J3.5328
G2 X108.3623 Y17.6578 I0.5875 J2.8884
G3 X108.3611 Y17.6585 I-0.8079 J-1.3665
G2 X107.9435 Y17.9508 I1.6688 J2.828
G3 X107.9399 Y17.9538 I-1.0087 J-1.2259
G2 X107.5472 Y18.3227 I2.4903 J3.0448
G1 X107.5471 Y18.3228
G2 X107.0724 Y18.9246 I3.4953 J3.2448
G2 X106.6204 Y19.8882 I3.0622 J2.0243
G2 X106.4708 Y20.9483 I3.5718 J1.0446
G3 Y20.9595 I-1.5875 J0.0066
G2 X106.5374 Y21.6685 I3.6917 J0.0109
G2 X106.8883 Y22.652 I3.3925 J-0.656
G3 X106.8897 Y22.6546 I-1.3974 J0.7533
G2 X107.1801 Y23.1163 I3.4929 J-1.8747
G3 X107.1894 Y23.1292 I-1.2825 J0.9356
G2 X107.257 Y23.2193 I1.9447 J-1.389
G1 X107.339 Y23.3225
G2 X107.5452 Y23.5592 I3.6536 J-2.9746
G3 X107.55 Y23.5644 I-1.1616 J1.0821
G2 X108.0865 Y24.0497 I2.959 J-2.7319
G2 X108.9612 Y24.5067 I1.827 J-2.4313
G2 X109.7859 Y24.6544 I0.9751 J-3.0679
G2 X109.9564 Y24.6579 Z-4.0023 I0.1505 J-3.2156
G3 X109.9663 Y24.6578 Z-4.0024 I0.0099 J1.5875
G1 X118.1278 Z-4.1105
G3 X119.7153 Y26.2453 Z-4.1436 I0.0 J1.5875
G1 Y27.5727 Z-4.1612
G3 X119.4771 Y28.7194 Z-4.1768 I-2.8067 J0.0151
G3 X119.4695 Y28.7366 Z-4.1771 I-1.4527 J-0.6401
G3 X118.8485 Y29.62 Z-4.1915 I-2.6589 J-1.2092
G3 X117.9701 Y30.2375 Z-4.2058 I-2.0986 J-2.0515
G3 X117.9493 Y30.2468 Z-4.2061 I-0.6601 J-1.4438
G3 X116.8038 Y30.4847 Z-4.2217 I-1.1315 J-2.5721
G1 X107.5701 Z-4.344
G1 Y31.7201 Z-4.3604
G1 X117.0285 Z-4.4858
G3 X117.0318 I0.0 J1.5875
G2 X117.8108 Y31.6486 Z-4.4962 I0.0086 J-4.1889
G2 X118.8556 Y31.2716 Z-4.511 I-0.6493 J-3.4359
G3 X118.8564 Y31.2712 I0.7692 J1.3887
G2 X119.3299 Y30.9596 Z-4.5185 I-1.7896 J-3.2351
G3 X119.3334 Y30.9569 Z-4.5186 I0.9718 J1.2553
G2 X119.7772 Y30.5641 Z-4.5264 I-2.6354 J-3.4241
G3 X119.7957 Y30.5456 Z-4.5268 I1.1313 J1.1137
G2 X120.3025 Y29.9453 Z-4.5372 I-2.9711 J-3.0229
G3 X120.3031 Y29.9445 I1.3026 J0.9074
G2 X120.7914 Y28.9387 Z-4.5521 I-2.9294 J-2.0435
G2 X120.9106 Y28.3913 Z-4.5595 I-3.4243 J-1.0322
G3 X120.9134 Y28.3714 Z-4.5598 I1.5728 J0.2152
G2 X120.9269 Y28.2595 Z-4.5613 I-1.9677 J-0.2946
G3 X120.9279 Y28.2497 Z-4.5614 I1.5808 J0.1457
G2 X120.9382 Y28.1341 Z-4.5629 I-6.6351 J-0.653
G1 X120.9411 Y28.0943 Z-4.5635
G2 X120.9508 Y27.7929 Z-4.5675 I-5.8984 J-0.3408
G1 Y17.2394 Z-4.7073
G1 X109.9663 Z-4.8529
G3 X109.9646 I0.0 J-1.5875
G2 X109.2749 Y17.3067 Z-4.8621 I-0.0037 J3.5328
G2 X108.3623 Y17.6578 Z-4.8751 I0.5875 J2.8884
G3 X108.3611 Y17.6585 I-0.8079 J-1.3665
G2 X107.9435 Y17.9508 Z-4.8819 I1.6688 J2.828
G3 X107.9399 Y17.9538 Z-4.882 I-1.0087 J-1.2259
G2 X107.5472 Y18.3227 Z-4.8891 I2.4903 J3.0448
G1 X107.5471 Y18.3228
G2 X107.0724 Y18.9246 Z-4.8993 I3.4953 J3.2448
G2 X106.6204 Y19.8882 Z-4.9134 I3.0622 J2.0243
G2 X106.4708 Y20.9483 Z-4.9277 I3.5718 J1.0446
G3 Y20.9595 Z-4.9278 I-1.5875 J0.0066
G2 X106.5374 Y21.6685 Z-4.9373 I3.6917 J0.0109
G2 X106.8883 Y22.652 Z-4.9512 I3.3925 J-0.656
G3 X106.8897 Y22.6546 I-1.3974 J0.7533
G2 X107.1801 Y23.1163 Z-4.9584 I3.4929 J-1.8747
G3 X107.1894 Y23.1292 Z-4.9586 I-1.2825 J0.9356
G2 X107.257 Y23.2193 Z-4.9601 I1.9447 J-1.389
G1 X107.339 Y23.3225 Z-4.9619
G2 X107.5452 Y23.5592 Z-4.966 I3.6536 J-2.9746
G3 X107.55 Y23.5644 Z-4.9661 I-1.1616 J1.0821
G2 X108.0865 Y24.0497 Z-4.9757 I2.959 J-2.7319
G2 X108.9612 Y24.5067 Z-4.9889 I1.827 J-2.4313
G2 X109.7859 Y24.6544 Z-5.0 I0.9751 J-3.0679
G1 F300.0 X109.9021 Y24.2095
G3 F1500.0 X109.4839 Y24.0646 I0.7173 J-2.7456
G3 X109.4662 Y24.0568 I0.6352 J-1.4549
G3 X108.5806 Y23.4442 I1.2285 J-2.7225
G3 X107.9534 Y22.5565 I2.0418 J-2.108
G3 X107.9441 Y22.5357 I1.4438 J-0.6601
G3 X107.7062 Y21.3933 I2.5719 J-1.1315
G3 X107.9433 Y20.2525 I2.8377 J-0.0053
G3 X107.9512 Y20.2348 I1.4549 J0.6352
G3 X108.5705 Y19.3424 I2.7225 J1.2285
G3 X109.4677 Y18.7185 I2.1164 J2.0865
G3 X109.4871 Y18.71 I0.6512 J1.4478
G3 X110.6295 Y18.4748 I1.1328 J2.6107
G1 X118.1278
G3 X119.7153 Y20.0623 I0.0 J1.5875
G1 Y22.7142
G3 X118.1278 Y24.3017 I-1.5875 J0.0
G1 X110.6298
G3 X109.9021 Y24.2095 I-0.0104 J-2.8377
G3 X109.4839 Y24.0646 Z-5.0139 I0.7173 J-2.7456
G3 X109.4662 Y24.0568 Z-5.0145 I0.6352 J-1.4549
G3 X108.5806 Y23.4442 Z-5.0486 I1.2285 J-2.7225
G3 X107.9534 Y22.5565 Z-5.083 I2.0418 J-2.108
G3 X107.9441 Y22.5357 Z-5.0837 I1.4438 J-0.6601
G3 X107.7062 Y21.3933 Z-5.1207 I2.5719 J-1.1315
G3 X107.9433 Y20.2525 Z-5.1576 I2.8377 J-0.0053
G3 X107.9512 Y20.2348 Z-5.1582 I1.4549 J0.6352
G3 X108.5705 Y19.3424 Z-5.1926 I2.7225 J1.2285
G3 X109.4677 Y18.7185 Z-5.2272 I2.1164 J2.0865
G3 X109.4871 Y18.71 Z-5.2278 I0.6512 J1.4478
G3 X110.6295 Y18.4748 Z-5.2648 I1.1328 J2.6107
G1 X118.1278 Z-5.5007
G3 X119.7153 Y20.0623 Z-5.5791 I0.0 J1.5875
G1 Y22.7142 Z-5.6625
G3 X118.1278 Y24.3017 Z-5.741 I-1.5875 J0.0
G1 X110.6298 Z-5.9769
G3 X109.9021 Y24.2095 Z-6.0 I-0.0104 J-2.8377
G3 X109.4839 Y24.0646 I0.7173 J-2.7456
G3 X109.4662 Y24.0568 I0.6352 J-1.4549
G3 X108.5806 Y23.4442 I1.2285 J-2.7225
G3 X107.9534 Y22.5565 I2.0418 J-2.108
G3 X107.9441 Y22.5357 I1.4438 J-0.6601
G3 X107.7062 Y21.3933 I2.5719 J-1.1315
G3 X107.9433 Y20.2525 I2.8377 J-0.0053
G3 X107.9512 Y20.2348 I1.4549 J0.6352
G3 X108.5705 Y19.3424 I2.7225 J1.2285
G3 X109.4677 Y18.7185 I2.1164 J2.0865
G3 X109.4871 Y18.71 I0.6512 J1.4478
G3 X110.6295 Y18.4748 I1.1328 J2.6107
G1 X118.1278
G3 X119.7153 Y20.0623 I0.0 J1.5875
G1 Y22.7142
G3 X118.1278 Y24.3017 I-1.5875 J0.0
G1 X110.6298
G3 X109.9021 Y24.2095 I-0.0104 J-2.8377
G1 F300.0 X109.8966 Y24.6577
G2 F1500.0 X109.9564 Y24.6579 I0.0398 J-3.2189
G3 X109.9663 Y24.6578 I0.0099 J1.5875
G1 X118.1278
G3 X119.7153 Y26.2453 I0.0 J1.5875
G1 Y27.5727
G3 X119.4771 Y28.7194 I-2.8067 J0.0151
G3 X119.4695 Y28.7366 I-1.4527 J-0.6401
G3 X118.8485 Y29.62 I-2.6589 J-1.2092
G3 X117.9701 Y30.2375 I-2.0986 J-2.0515
G3 X117.9493 Y30.2468 I-0.6601 J-1.4438
G3 X116.8038 Y30.4847 I-1.1315 J-2.5721
G1 X107.5701
G1 Y31.7201
G1 X117.0285
G3 X117.0318 I0.0 J1.5875
G2 X117.8108 Y31.6486 I0.0086 J-4.1889
G2 X118.8556 Y31.2716 I-0.6493 J-3.4359
G3 X118.8564 Y31.2712 I0.7692 J1.3887
G2 X119.3299 Y30.9596 I-1.7896 J-3.2351
G3 X119.3334 Y30.9569 I0.9718 J1.2553
G2 X119.7772 Y30.5641 I-2.6354 J-3.4241
G3 X119.7957 Y30.5456 I1.1313 J1.1137
G2 X120.3025 Y29.9453 I-2.9711 J-3.0229
G3 X120.3031 Y29.9445 I1.3026 J0.9074
G2 X120.7914 Y28.9387 I-2.9294 J-2.0435
G2 X120.9106 Y28.3913 I-3.4243 J-1.0322
G3 X120.9134 Y28.3714 I1.5728 J0.2152
G2 X120.9269 Y28.2595 I-1.9677 J-0.2946
G3 X120.9279 Y28.2497 I1.5808 J0.1457
G2 X120.9382 Y28.1341 I-6.6351 J-0.653
G1 X120.9411 Y28.0943
G2 X120.9508 Y27.7929 I-5.8984 J-0.3408
G1 Y17.2394
G1 X109.9663
G3 X109.9646 I0.0 J-1.5875
G2 X109.2749 Y17.3067 I-0.0037 J3.5328
G2 X108.3623 Y17.6578 I0.5875 J2.8884
G3 X108.3611 Y17.6585 I-0.8079 J-1.3665
G2 X107.9435 Y17.9508 I1.6688 J2.828
G3 X107.9399 Y17.9538 I-1.0087 J-1.2259
G2 X107.5472 Y18.3227 I2.4903 J3.0448
G1 X107.5471 Y18.3228
G2 X107.0724 Y18.9246 I3.4953 J3.2448
G2 X106.6204 Y19.8882 I3.0622 J2.0243
G2 X106.4708 Y20.9483 I3.5718 J1.0446
G3 Y20.9595 I-1.5875 J0.0066
G2 X106.5374 Y21.6685 I3.6917 J0.0109
G2 X106.8883 Y22.652 I3.3925 J-0.656
G3 X106.8897 Y22.6546 I-1.3974 J0.7533
G2 X107.1801 Y23.1163 I3.4929 J-1.8747
G3 X107.1894 Y23.1292 I-1.2825 J0.9356
G2 X107.257 Y23.2193 I1.9447 J-1.389
G1 X107.339 Y23.3225
G2 X107.5452 Y23.5592 I3.6536 J-2.9746
G3 X107.55 Y23.5644 I-1.1616 J1.0821
G2 X108.0865 Y24.0497 I2.959 J-2.7319
G2 X108.9612 Y24.5067 I1.827 J-2.4313
G2 X109.8966 Y24.6577 I0.9751 J-3.0679
G0 Z3.0
G0 X124.125
G1 F300.0 Z0.0
G1 F1500.0 Y31.7194 Z-0.1246
G1 X135.1228 Z-0.3186
G3 X135.1264 I0.0 J1.5875
G2 X135.813 Y31.6564 Z-0.3308 I0.0086 J-3.6828
G2 X136.735 Y31.3269 Z-0.3482 I-0.5794 J-3.0762
G2 X137.1623 Y31.0505 Z-0.3571 I-1.6948 J-3.0881
G2 X137.5644 Y30.7025 Z-0.3665 I-2.4489 J-3.2363
G3 X137.5768 Y30.6904 Z-0.3668 I1.1152 J1.1298
G2 X138.03 Y30.1656 Z-0.3791 I-2.6679 J-2.7622
G3 X138.0319 Y30.1631 I1.2902 J0.9249
G2 X138.4627 Y29.3058 Z-0.3961 I-2.4711 J-1.7788
G2 X138.6057 Y28.3347 Z-0.4135 I-3.1167 J-0.9551
G3 Y28.3266 Z-0.4137 I1.5875 J-0.0078
G2 X138.5839 Y27.9026 Z-0.4212 I-4.1277 J-0.0008
G3 X138.5837 Y27.8997 I1.5791 J-0.1628
G2 X138.4416 Y27.2524 Z-0.4329 I-2.8707 J0.2907
G2 X137.9878 Y26.4929 Z-0.4486 I-2.0479 J0.7084
G2 X137.6333 Y26.1726 Z-0.4571 I-1.9881 J1.844
G1 X137.5715 Y26.1272 Z-0.4584
G2 X137.181 Y25.885 Z-0.4665 I-2.0907 J2.9359
G3 X137.1788 Y23.0867 Z-0.527 I0.7489 J-1.3998
G2 X137.5328 Y22.8708 Z-0.5343 I-1.7918 J-3.3367
G3 X137.5341 Y22.8699 I0.8994 J1.3081
G2 X138.0173 Y22.4448 Z-0.5457 I-1.5204 J-2.2157
G2 X138.4567 Y21.6742 Z-0.5614 I-1.6403 J-1.4457
G3 X138.4576 Y21.6715 Z-0.5615 I1.5099 J0.4901
G2 X138.5682 Y21.1932 Z-0.5702 I-2.6468 J-0.8643
G3 X138.5683 Y21.1929 I1.5722 J0.2201
G2 X138.6057 Y20.6478 Z-0.5798 I-3.8296 J-0.5368
G3 Y20.6364 Z-0.58 I1.5875 J-0.0034
G2 X138.5422 Y19.9757 Z-0.5917 I-3.2959 J-0.0165
G3 X138.5421 Y19.9752 Z-0.5918 I1.5569 J-0.3103
G2 X138.2067 Y19.0759 Z-0.6088 I-2.9439 J0.5858
G2 X137.9244 Y18.6567 Z-0.6177 I-3.1303 J1.8031
G1 X137.9018 Y18.6281 Z-0.6183
G2 X137.7501 Y18.4497 Z-0.6225 I-3.1824 J2.552
G1 X137.6567 Y18.3497 Z-0.6249
G1 X137.5565 Y18.2484 Z-0.6274
G2 X137.0232 Y17.8084 Z-0.6396 I-2.6929 J2.7206
G3 X137.0203 Y17.8064 Z-0.6397 I0.8956 J-1.3107
G2 X136.1315 Y17.38 Z-0.6571 I-1.814 J2.6421
G2 X135.6453 Y17.2747 Z-0.6659 I-0.9484 J3.2015
G2 X135.1231 Y17.2394 Z-0.6751 I-0.5214 J3.8379
G3 X135.1228 I-0.0003 J-1.5875
G1 X124.125 Z-0.8691
G1 Y24.6577 Z-1.0
G1 F300.0 X125.5648 Y25.4668
G3 F1500.0 X126.9487 Y24.6571 I1.3839 J0.7778
G1 X134.4583
G3 X135.6051 Y24.8953 I0.0151 J2.8066
G3 X135.6222 Y24.903 I-0.6401 J1.4527
G3 X136.5175 Y25.5363 I-1.2093 J2.659
G3 X136.8418 Y25.9215 I-2.1983 J2.1798
G3 X137.3703 Y27.5775 I-2.2958 J1.645
G3 X137.132 Y28.7188 I-2.8065 J0.0096
G3 X137.1244 Y28.7359 I-1.4527 J-0.6401
G3 X136.5034 Y29.6192 I-2.659 J-1.2093
G3 X135.6251 Y30.2367 I-2.0986 J-2.0515
G3 X135.6043 Y30.2461 I-0.6601 J-1.4438
G3 X134.4587 Y30.4839 I-1.1315 J-2.572
G1 X126.9487
G3 X125.3612 Y28.8964 I0.0 J-1.5875
G1 Y26.2446
G3 X125.5648 Y25.4668 I1.5875 J0.0
G1 F300.0 X126.2356 Y24.1325
G3 F1500.0 X125.3612 Y22.7142 I0.7131 J-1.4183
G1 Y20.0623
G3 X126.9487 Y18.4748 I1.5875 J0.0
G1 X134.4583
G3 X135.6051 Y18.7131 I0.0151 J2.8065
G3 X135.6222 Y18.7207 I-0.6401 J1.4527
G3 X136.5231 Y19.3599 I-1.2093 J2.659
G3 X136.8344 Y19.7287 I-2.3724 J2.3182
G3 X136.8405 Y19.7372 I-1.2844 J0.933
G3 X137.3703 Y21.3939 I-2.3022 J1.6492
G3 X137.1321 Y22.5365 I-2.8067 J0.011
G3 X137.1244 Y22.5536 I-1.4527 J-0.6401
G3 X136.5034 Y23.437 I-2.6589 J-1.2092
G3 X135.6251 Y24.0545 I-2.0986 J-2.0515
G3 X135.6043 Y24.0638 I-0.6601 J-1.4438
G3 X134.4587 Y24.3017 I-1.1315 J-2.572
G1 X126.9487
G3 X126.2356 Y24.1325 I0.0 J-1.5875
G3 X125.3612 Y22.7142 Z-1.0552 I0.7131 J-1.4183
G1 Y20.0623 Z-1.1386
G3 X126.9487 Y18.4748 Z-1.217 I1.5875 J0.0
G1 X134.4583 Z-1.4532
G3 X135.6051 Y18.7131 Z-1.4903 I0.0151 J2.8065
G3 X135.6222 Y18.7207 Z-1.4909 I-0.6401 J1.4527
G3 X136.5231 Y19.3599 Z-1.5259 I-1.2093 J2.659
G3 X136.8344 Y19.7287 Z-1.5411 I-2.3724 J2.3182
G3 X136.8405 Y19.7372 Z-1.5414 I-1.2844 J0.933
G3 X137.3703 Y21.3939 Z-1.597 I-2.3022 J1.6492
G3 X137.1321 Y22.5365 Z-1.634 I-2.8067 J0.011
G3 X137.1244 Y22.5536 Z-1.6346 I-1.4527 J-0.6401
G3 X136.5034 Y23.437 Z-1.6688 I-2.6589 J-1.2092
G3 X135.6251 Y24.0545 Z-1.7027 I-2.0986 J-2.0515
G3 X135.6043 Y24.0638 Z-1.7034 I-0.6601 J-1.4438
G3 X134.4587 Y24.3017 Z-1.7405 I-1.1315 J-2.572
G1 X126.9487 Z-1.9767
G3 X126.2356 Y24.1325 Z-2.0 I0.0 J-1.5875
G1 F300.0 X126.4409 Y24.7405
G3 F1500.0 X126.9487 Y24.6571 I0.5078 J1.5041
G1 X134.4583
G3 X135.6051 Y24.8953 I0.0151 J2.8066
G3 X135.6222 Y24.903 I-0.6401 J1.4527
G3 X136.5175 Y25.5363 I-1.2093 J2.659
G3 X136.8418 Y25.9215 I-2.1983 J2.1798
G3 X137.3703 Y27.5775 I-2.2958 J1.645
G3 X137.132 Y28.7188 I-2.8065 J0.0096
G3 X137.1244 Y28.7359 I-1.4527 J-0.6401
G3 X136.5034 Y29.6192 I-2.659 J-1.2093
G3 X135.6251 Y30.2367 I-2.0986 J-2.0515
G3 X135.6043 Y30.2461 I-0.6601 J-1.4438
G3 X134.4587 Y30.4839 I-1.1315 J-2.572
G1 X126.9487
G3 X125.3612 Y28.8964 I0.0 J-1.5875
G1 Y26.2446
G3 X126.4409 Y24.7405 I1.5875 J0.0
G0 Z3.0
G0 X124.125
G1 F300.0 Z-1.0
G1 F1500.0 Y31.7194 Z-1.1231
G1 X135.1228 Z-1.3171
G3 X135.1264 Z-1.3172 I0.0 J1.5875
G2 X135.813 Y31.6564 Z-1.3294 I0.0086 J-3.6828
G2 X136.735 Y31.3269 Z-1.3467 I-0.5794 J-3.0762
G2 X137.1623 Y31.0505 Z-1.3557 I-1.6948 J-3.0881
G2 X137.5644 Y30.7025 Z-1.3651 I-2.4489 J-3.2363
G3 X137.5768 Y30.6904 Z-1.3654 I1.1152 J1.1298
G2 X138.03 Y30.1656 Z-1.3776 I-2.6679 J-2.7622
G3 X138.0319 Y30.1631 Z-1.3777 I1.2902 J0.9249
G2 X138.4627 Y29.3058 Z-1.3947 I-2.4711 J-1.7788
G2 X138.6057 Y28.3347 Z-1.4121 I-3.1167 J-0.9551
G3 Y28.3266 Z-1.4122 I1.5875 J-0.0078
G2 X138.5839 Y27.9026 Z-1.4197 I-4.1277 J-0.0008
G3 X138.5837 Y27.8997 I1.5791 J-0.1628
G2 X138.4416 Y27.2524 Z-1.4315 I-2.8707 J0.2907
G2 X137.9878 Y26.4929 Z-1.4472 I-2.0479 J0.7084
G2 X137.6333 Y26.1726 Z-1.4556 I-1.9881 J1.844
G1 X137.5715 Y26.1272 Z-1.457
G2 X137.181 Y25.885 Z-1.4651 I-2.0907 J2.9359
G3 X137.1788 Y23.0867 Z-1.5255 I0.7489 J-1.3998
G2 X137.5328 Y22.8708 Z-1.5328 I-1.7918 J-3.3367
G3 X137.5341 Y22.8699 I0.8994 J1.3081
G2 X138.0173 Y22.4448 Z-1.5442 I-1.5204 J-2.2157
G2 X138.4567 Y21.6742 Z-1.56 I-1.6403 J-1.4457
G3 X138.4576 Y21.6715 I1.5099 J0.4901
G2 X138.5682 Y21.1932 Z-1.5687 I-2.6468 J-0.8643
G3 X138.5683 Y21.1929 I1.5722 J0.2201
G2 X138.6057 Y20.6478 Z-1.5784 I-3.8296 J-0.5368
G3 Y20.6364 Z-1.5786 I1.5875 J-0.0034
G2 X138.5422 Y19.9757 Z-1.5903 I-3.2959 J-0.0165
G3 X138.5421 Y19.9752 I1.5569 J-0.3103
G2 X138.2067 Y19.0759 Z-1.6073 I-2.9439 J0.5858
G2 X137.9244 Y18.6567 Z-1.6162 I-3.1303 J1.8031
G1 X137.9018 Y18.6281 Z-1.6169
G2 X137.7501 Y18.4497 Z-1.621 I-3.1824 J2.552
G1 X137.6567 Y18.3497 Z-1.6234
G1 X137.5565 Y18.2484 Z-1.6259
G2 X137.0232 Y17.8084 Z-1.6381 I-2.6929 J2.7206
G3 X137.0203 Y17.8064 Z-1.6382 I0.8956 J-1.3107
G2 X136.1315 Y17.38 Z-1.6557 I-1.814 J2.6421
G2 X135.6453 Y17.2747 Z-1.6644 I-0.9484 J3.2015
G2 X135.1231 Y17.2394 Z-1.6737 I-0.5214 J3.8379
G3 X135.1228 I-0.0003 J-1.5875
G1 X124.125 Z-1.8677
G1 Y24.7405 Z-2.0
G1 Y31.7194 Z-2.1231
G1 X135.1228 Z-2.3171
G3 X135.1264 Z-2.3172 I0.0 J1.5875
G2 X135.813 Y31.6564 Z-2.3294 I0.0086 J-3.6828
G2 X136.735 Y31.3269 Z-2.3467 I-0.5794 J-3.0762
G2 X137.1623 Y31.0505 Z-2.3557 I-1.6948 J-3.0881
G2 X137.5644 Y30.7025 Z-2.3651 I-2.4489 J-3.2363
G3 X137.5768 Y30.6904 Z-2.3654 I1.1152 J1.1298
G2 X138.03 Y30.1656 Z-2.3776 I-2.6679 J-2.7622
G3 X138.0319 Y30.1631 Z-2.3777 I1.2902 J0.9249
G2 X138.4627 Y29.3058 Z-2.3947 I-2.4711 J-1.7788
G2 X138.6057 Y28.3347 Z-2.4121 I-3.1167 J-0.9551
G3 Y28.3266 Z-2.4122 I1.5875 J-0.0078
G2 X138.5839 Y27.9026 Z-2.4197 I-4.1277 J-0.0008
G3 X138.5837 Y27.8997 I1.5791 J-0.1628
G2 X138.4416 Y27.2524 Z-2.4315 I-2.8707 J0.2907
G2 X137.9878 Y26.4929 Z-2.4472 I-2.0479 J0.7084
G2 X137.6333 Y26.1726 Z-2.4556 I-1.9881 J1.844
G1 X137.5715 Y26.1272 Z-2.457
G2 X137.181 Y25.885 Z-2.4651 I-2.0907 J2.9359
G3 X137.1788 Y23.0867 Z-2.5255 I0.7489 J-1.3998
G2 X137.5328 Y22.8708 Z-2.5328 I-1.7918 J-3.3367
G3 X137.5341 Y22.8699 I0.8994 J1.3081
G2 X138.0173 Y22.4448 Z-2.5442 I-1.5204 J-2.2157
G2 X138.4567 Y21.6742 Z-2.56 I-1.6403 J-1.4457
G3 X138.4576 Y21.6715 I1.5099 J0.4901
G2 X138.5682 Y21.1932 Z-2.5687 I-2.6468 J-0.8643
G3 X138.5683 Y21.1929 I1.5722 J0.2201
G2 X138.6057 Y20.6478 Z-2.5784 I-3.8296 J-0.5368
G3 Y20.6364 Z-2.5786 I1.5875 J-0.0034
G2 X138.5422 Y19.9757 Z-2.5903 I-3.2959 J-0.0165
G3 X138.5421 Y19.9752 I1.5569 J-0.3103
G2 X138.2067 Y19.0759 Z-2.6073 I-2.9439 J0.5858
G2 X137.9244 Y18.6567 Z-2.6162 I-3.1303 J1.8031
G1 X137.9018 Y18.6281 Z-2.6169
G2 X137.7501 Y18.4497 Z-2.621 I-3.1824 J2.552
G1 X137.6567 Y18.3497 Z-2.6234
G1 X137.5565 Y18.2484 Z-2.6259
G2 X137.0232 Y17.8084 Z-2.6381 I-2.6929 J2.7206
G3 X137.0203 Y17.8064 Z-2.6382 I0.8956 J-1.3107
G2 X136.1315 Y17.38 Z-2.6557 I-1.814 J2.6421
G2 X135.6453 Y17.2747 Z-2.6644 I-0.9484 J3.2015
G2 X135.1231 Y17.2394 Z-2.6737 I-0.5214 J3.8379
G3 X135.1228 I-0.0003 J-1.5875
G1 X124.125 Z-2.8677
G1 Y24.7405 Z-3.0
G1 F300.0 X125.5476 Y25.4982
G3 F1500.0 X126.9487 Y24.6571 I1.4011 J0.7463
G1 X134.4583
G3 X135.6051 Y24.8953 I0.0151 J2.8066
G3 X135.6222 Y24.903 I-0.6401 J1.4527
G3 X136.5175 Y25.5363 I-1.2093 J2.659
G3 X136.8418 Y25.9215 I-2.1983 J2.1798
G3 X137.3703 Y27.5775 I-2.2958 J1.645
G3 X137.132 Y28.7188 I-2.8065 J0.0096
G3 X137.1244 Y28.7359 I-1.4527 J-0.6401
G3 X136.5034 Y29.6192 I-2.659 J-1.2093
G3 X135.6251 Y30.2367 I-2.0986 J-2.0515
G3 X135.6043 Y30.2461 I-0.6601 J-1.4438
G3 X134.4587 Y30.4839 I-1.1315 J-2.572
G1 X126.9487
G3 X125.3612 Y28.8964 I0.0 J-1.5875
G1 Y26.2446
G3 X125.5476 Y25.4982 I1.5875 J0.0
G1 F300.0 X126.235 Y24.1322
G3 F1500.0 X125.3612 Y22.7142 I0.7137 J-1.418
G1 Y20.0623
G3 X126.9487 Y18.4748 I1.5875 J0.0
G1 X134.4583
G3 X135.6051 Y18.7131 I0.0151 J2.8065
G3 X135.6222 Y18.7207 I-0.6401 J1.4527
G3 X136.5231 Y19.3599 I-1.2093 J2.659
G3 X136.8344 Y19.7287 I-2.3724 J2.3182
G3 X136.8405 Y19.7372 I-1.2844 J0.933
G3 X137.3703 Y21.3939 I-2.3022 J1.6492
G3 X137.1321 Y22.5365 I-2.8067 J0.011
G3 X137.1244 Y22.5536 I-1.4527 J-0.6401
G3 X136.5034 Y23.437 I-2.6589 J-1.2092
G3 X135.6251 Y24.0545 I-2.0986 J-2.0515
G3 X135.6043 Y24.0638 I-0.6601 J-1.4438
G3 X134.4587 Y24.3017 I-1.1315 J-2.572
G1 X126.9487
G3 X126.235 Y24.1322 I0.0 J-1.5875
G3 X125.3612 Y22.7142 Z-3.0552 I0.7137 J-1.418
G1 Y20.0623 Z-3.1386
G3 X126.9487 Y18.4748 Z-3.217 I1.5875 J0.0
G1 X134.4583 Z-3.4532
G3 X135.6051 Y18.7131 Z-3.4903 I0.0151 J2.8065
G3 X135.6222 Y18.7207 Z-3.4909 I-0.6401 J1.4527
G3 X136.5231 Y19.3599 Z-3.5259 I-1.2093 J2.659
G3 X136.8344 Y19.7287 Z-3.5411 I-2.3724 J2.3182
G3 X136.8405 Y19.7372 Z-3.5414 I-1.2844 J0.933
G3 X137.3703 Y21.3939 Z-3.597 I-2.3022 J1.6492
G3 X137.1321 Y22.5365 Z-3.634 I-2.8067 J0.011
G3 X137.1244 Y22.5536 Z-3.6346 I-1.4527 J-0.6401
G3 X136.5034 Y23.437 Z-3.6687 I-2.6589 J-1.2092
G3 X135.6251 Y24.0545 Z-3.7027 I-2.0986 J-2.0515
G3 X135.6043 Y24.0638 Z-3.7034 I-0.6601 J-1.4438
G3 X134.4587 Y24.3017 Z-3.7405 I-1.1315 J-2.572
G1 X126.9487 Z-3.9767
G3 X126.235 Y24.1322 Z-4.0 I0.0 J-1.5875
G1 F300.0 X126.4406 Y24.7406
G3 F1500.0 X126.9487 Y24.6571 I0.5081 J1.504
G1 X134.4583
G3 X135.6051 Y24.8953 I0.0151 J2.8066
G3 X135.6222 Y24.903 I-0.6401 J1.4527
G3 X136.5175 Y25.5363 I-1.2093 J2.659
G3 X136.8418 Y25.9215 I-2.1983 J2.1798
G3 X137.3703 Y27.5775 I-2.2958 J1.645
G3 X137.132 Y28.7188 I-2.8065 J0.0096
G3 X137.1244 Y28.7359 I-1.4527 J-0.6401
G3 X136.5034 Y29.6192 I-2.659 J-1.2093
G3 X135.6251 Y30.2367 I-2.0986 J-2.0515
G3 X135.6043 Y30.2461 I-0.6601 J-1.4438
G3 X134.4587 Y30.4839 I-1.1315 J-2.572
G1 X126.9487
G3 X125.3612 Y28.8964 I0.0 J-1.5875
G1 Y26.2446
G3 X126.4406 Y24.7406 I1.5875 J0.0
G0 Z3.0
G0 X124.125
G1 F300.0 Z-3.0
G1 F1500.0 Y31.7194 Z-3.1231
G1 X135.1228 Z-3.3171
G3 X135.1264 Z-3.3172 I0.0 J1.5875
G2 X135.813 Y31.6564 Z-3.3294 I0.0086 J-3.6828
G2 X136.735 Y31.3269 Z-3.3467 I-0.5794 J-3.0762
G2 X137.1623 Y31.0505 Z-3.3557 I-1.6948 J-3.0881
G2 X137.5644 Y30.7025 Z-3.3651 I-2.4489 J-3.2363
G3 X137.5768 Y30.6904 Z-3.3654 I1.1152 J1.1298
G2 X138.03 Y30.1656 Z-3.3776 I-2.6679 J-2.7622
G3 X138.0319 Y30.1631 Z-3.3777 I1.2902 J0.9249
G2 X138.4627 Y29.3058 Z-3.3947 I-2.4711 J-1.7788
G2 X138.6057 Y28.3347 Z-3.4121 I-3.1167 J-0.9551
G3 Y28.3266 Z-3.4122 I1.5875 J-0.0078
G2 X138.5839 Y27.9026 Z-3.4197 I-4.1277 J-0.0008
G3 X138.5837 Y27.8997 I1.5791 J-0.1628
G2 X138.4416 Y27.2524 Z-3.4315 I-2.8707 J0.2907
G2 X137.9878 Y26.4929 Z-3.4472 I-2.0479 J0.7084
G2 X137.6333 Y26.1726 Z-3.4556 I-1.9881 J1.844
G1 X137.5715 Y26.1272 Z-3.457
G2 X137.181 Y25.885 Z-3.4651 I-2.0907 J2.9359
G3 X137.1788 Y23.0867 Z-3.5255 I0.7489 J-1.3998
G2 X137.5328 Y22.8708 Z-3.5328 I-1.7918 J-3.3367
G3 X137.5341 Y22.8699 I0.8994 J1.3081
G2 X138.0173 Y22.4448 Z-3.5442 I-1.5204 J-2.2157
G2 X138.4567 Y21.6742 Z-3.56 I-1.6403 J-1.4457
G3 X138.4576 Y21.6715 I1.5099 J0.4901
G2 X138.5682 Y21.1932 Z-3.5687 I-2.6468 J-0.8643
G3 X138.5683 Y21.1929 I1.5722 J0.2201
G2 X138.6057 Y20.6478 Z-3.5783 I-3.8296 J-0.5368
G3 Y20.6364 Z-3.5786 I1.5875 J-0.0034
G2 X138.5422 Y19.9757 Z-3.5903 I-3.2959 J-0.0165
G3 X138.5421 Y19.9752 I1.5569 J-0.3103
G2 X138.2067 Y19.0759 Z-3.6073 I-2.9439 J0.5858
G2 X137.9244 Y18.6567 Z-3.6162 I-3.1303 J1.8031
G1 X137.9018 Y18.6281 Z-3.6169
G2 X137.7501 Y18.4497 Z-3.621 I-3.1824 J2.552
G1 X137.6567 Y18.3497 Z-3.6234
G1 X137.5565 Y18.2484 Z-3.6259
G2 X137.0232 Y17.8084 Z-3.6381 I-2.6929 J2.7206
G3 X137.0203 Y17.8064 Z-3.6382 I0.8956 J-1.3107
G2 X136.1315 Y17.38 Z-3.6556 I-1.814 J2.6421
G2 X135.6453 Y17.2747 Z-3.6644 I-0.9484 J3.2015
G2 X135.1231 Y17.2394 Z-3.6737 I-0.5214 J3.8379
G3 X135.1228 I-0.0003 J-1.5875
G1 X124.125 Z-3.8677
G1 Y24.7406 Z-4.0
G1 Y31.7194 Z-4.1231
G1 X135.1228 Z-4.3171
G3 X135.1264 Z-4.3172 I0.0 J1.5875
G2 X135.813 Y31.6564 Z-4.3294 I0.0086 J-3.6828
G2 X136.735 Y31.3269 Z-4.3467 I-0.5794 J-3.0762
G2 X137.1623 Y31.0505 Z-4.3557 I-1.6948 J-3.0881
G2 X137.5644 Y30.7025 Z-4.3651 I-2.4489 J-3.2363
G3 X137.5768 Y30.6904 Z-4.3654 I1.1152 J1.1298
G2 X138.03 Y30.1656 Z-4.3776 I-2.6679 J-2.7622
G3 X138.0319 Y30.1631 Z-4.3777 I1.2902 J0.9249
G2 X138.4627 Y29.3058 Z-4.3947 I-2.4711 J-1.7788
G2 X138.6057 Y28.3347 Z-4.4121 I-3.1167 J-0.9551
G3 Y28.3266 Z-4.4122 I1.5875 J-0.0078
G2 X138.5839 Y27.9026 Z-4.4197 I-4.1277 J-0.0008
G3 X138.5837 Y27.8997 I1.5791 J-0.1628
G2 X138.4416 Y27.2524 Z-4.4315 I-2.8707 J0.2907
G2 X137.9878 Y26.4929 Z-4.4472 I-2.0479 J0.7084
G2 X137.6333 Y26.1726 Z-4.4556 I-1.9881 J1.844
G1 X137.5715 Y26.1272 Z-4.457
G2 X137.181 Y25.885 Z-4.4651 I-2.0907 J2.9359
G3 X137.1788 Y23.0867 Z-4.5255 I0.7489 J-1.3998
G2 X137.5328 Y22.8708 Z-4.5328 I-1.7918 J-3.3367
G3 X137.5341 Y22.8699 I0.8994 J1.3081
G2 X138.0173 Y22.4448 Z-4.5442 I-1.5204 J-2.2157
G2 X138.4567 Y21.6742 Z-4.56 I-1.6403 J-1.4457
G3 X138.4576 Y21.6715 I1.5099 J0.4901
G2 X138.5682 Y21.1932 Z-4.5687 I-2.6468 J-0.8643
G3 X138.5683 Y21.1929 I1.5722 J0.2201
G2 X138.6057 Y20.6478 Z-4.5783 I-3.8296 J-0.5368
G3 Y20.6364 Z-4.5786 I1.5875 J-0.0034
G2 X138.5422 Y19.9757 Z-4.5903 I-3.2959 J-0.0165
G3 X138.5421 Y19.9752 I1.5569 J-0.3103
G2 X138.2067 Y19.0759 Z-4.6073 I-2.9439 J0.5858
G2 X137.9244 Y18.6567 Z-4.6162 I-3.1303 J1.8031
G1 X137.9018 Y18.6281 Z-4.6169
G2 X137.7501 Y18.4497 Z-4.621 I-3.1824 J2.552
G1 X137.6567 Y18.3497 Z-4.6234
G1 X137.5565 Y18.2484 Z-4.6259
G2 X137.0232 Y17.8084 Z-4.6381 I-2.6929 J2.7206
G3 X137.0203 Y17.8064 Z-4.6382 I0.8956 J-1.3107
G2 X136.1315 Y17.38 Z-4.6556 I-1.814 J2.6421
G2 X135.6453 Y17.2747 Z-4.6644 I-0.9484 J3.2015
G2 X135.1231 Y17.2394 Z-4.6737 I-0.5214 J3.8379
G3 X135.1228 I-0.0003 J-1.5875
G1 X124.125 Z-4.8677
G1 Y24.7406 Z-5.0
G1 F300.0 X125.5475 Y25.4983
G3 F1500.0 X126.9487 Y24.6571 I1.4011 J0.7463
G1 X134.4583
G3 X135.6051 Y24.8953 I0.0151 J2.8066
G3 X135.6222 Y24.903 I-0.6401 J1.4527
G3 X136.5175 Y25.5363 I-1.2093 J2.659
G3 X136.8418 Y25.9215 I-2.1983 J2.1798
G3 X137.3703 Y27.5775 I-2.2958 J1.645
G3 X137.132 Y28.7188 I-2.8065 J0.0096
G3 X137.1244 Y28.7359 I-1.4527 J-0.6401
G3 X136.5034 Y29.6192 I-2.659 J-1.2093
G3 X135.6251 Y30.2367 I-2.0986 J-2.0515
G3 X135.6043 Y30.2461 I-0.6601 J-1.4438
G3 X134.4587 Y30.4839 I-1.1315 J-2.572
G1 X126.9487
G3 X125.3612 Y28.8964 I0.0 J-1.5875
G1 Y26.2446
G3 X125.5475 Y25.4983 I1.5875 J0.0
G1 F300.0 X126.235 Y24.1322
G3 F1500.0 X125.3612 Y22.7142 I0.7137 J-1.418
G1 Y20.0623
G3 X126.9487 Y18.4748 I1.5875 J0.0
G1 X134.4583
G3 X135.6051 Y18.7131 I0.0151 J2.8065
G3 X135.6222 Y18.7207 I-0.6401 J1.4527
G3 X136.5231 Y19.3599 I-1.2093 J2.659
G3 X136.8344 Y19.7287 I-2.3724 J2.3182
G3 X136.8405 Y19.7372 I-1.2844 J0.933
G3 X137.3703 Y21.3939 I-2.3022 J1.6492
G3 X137.1321 Y22.5365 I-2.8067 J0.011
G3 X137.1244 Y22.5536 I-1.4527 J-0.6401
G3 X136.5034 Y23.437 I-2.6589 J-1.2092
G3 X135.6251 Y24.0545 I-2.0986 J-2.0515
G3 X135.6043 Y24.0638 I-0.6601 J-1.4438
G3 X134.4587 Y24.3017 I-1.1315 J-2.572
G1 X126.9487
G3 X126.235 Y24.1322 I0.0 J-1.5875
G3 X125.3612 Y22.7142 Z-5.0552 I0.7137 J-1.418
G1 Y20.0623 Z-5.1386
G3 X126.9487 Y18.4748 Z-5.217 I1.5875 J0.0
G1 X134.4583 Z-5.4532
G3 X135.6051 Y18.7131 Z-5.4903 I0.0151 J2.8065
G3 X135.6222 Y18.7207 Z-5.4909 I-0.6401 J1.4527
G3 X136.5231 Y19.3599 Z-5.5259 I-1.2093 J2.659
G3 X136.8344 Y19.7287 Z-5.5411 I-2.3724 J2.3182
G3 X136.8405 Y19.7372 Z-5.5414 I-1.2844 J0.933
G3 X137.3703 Y21.3939 Z-5.597 I-2.3022 J1.6492
G3 X137.1321 Y22.5365 Z-5.634 I-2.8067 J0.011
G3 X137.1244 Y22.5536 Z-5.6346 I-1.4527 J-0.6401
G3 X136.5034 Y23.437 Z-5.6687 I-2.6589 J-1.2092
G3 X135.6251 Y24.0545 Z-5.7027 I-2.0986 J-2.0515
G3 X135.6043 Y24.0638 Z-5.7034 I-0.6601 J-1.4438
G3 X134.4587 Y24.3017 Z-5.7405 I-1.1315 J-2.572
G1 X126.9487 Z-5.9767
G3 X126.235 Y24.1322 Z-6.0 I0.0 J-1.5875
G3 X125.3612 Y22.7142 I0.7137 J-1.418
G1 Y20.0623
G3 X126.9487 Y18.4748 I1.5875 J0.0
G1 X134.4583
G3 X135.6051 Y18.7131 I0.0151 J2.8065
G3 X135.6222 Y18.7207 I-0.6401 J1.4527
G3 X136.5231 Y19.3599 I-1.2093 J2.659
G3 X136.8344 Y19.7287 I-2.3724 J2.3182
G3 X136.8405 Y19.7372 I-1.2844 J0.933
G3 X137.3703 Y21.3939 I-2.3022 J1.6492
G3 X137.1321 Y22.5365 I-2.8067 J0.011
G3 X137.1244 Y22.5536 I-1.4527 J-0.6401
G3 X136.5034 Y23.437 I-2.6589 J-1.2092
G3 X135.6251 Y24.0545 I-2.0986 J-2.0515
G3 X135.6043 Y24.0638 I-0.6601 J-1.4438
G3 X134.4587 Y24.3017 I-1.1315 J-2.572
G1 X126.9487
G3 X126.235 Y24.1322 I0.0 J-1.5875
G1 F300.0 X126.4406 Y24.7406
G3 F1500.0 X126.9487 Y24.6571 I0.5081 J1.504
G1 X134.4583
G3 X135.6051 Y24.8953 I0.0151 J2.8066
G3 X135.6222 Y24.903 I-0.6401 J1.4527
G3 X136.5175 Y25.5363 I-1.2093 J2.659
G3 X136.8418 Y25.9215 I-2.1983 J2.1798
G3 X137.3703 Y27.5775 I-2.2958 J1.645
G3 X137.132 Y28.7188 I-2.8065 J0.0096
G3 X137.1244 Y28.7359 I-1.4527 J-0.6401
G3 X136.5034 Y29.6192 I-2.659 J-1.2093
G3 X135.6251 Y30.2367 I-2.0986 J-2.0515
G3 X135.6043 Y30.2461 I-0.6601 J-1.4438
G3 X134.4587 Y30.4839 I-1.1315 J-2.572
G1 X126.9487
G3 X125.3612 Y28.8964 I0.0 J-1.5875
G1 Y26.2446
G3 X126.4406 Y24.7406 I1.5875 J0.0
G0 Z3.0
G0 X124.125
G1 F300.0 Z-5.0
G1 F1500.0 Y31.7194 Z-5.1231
G1 X135.1228 Z-5.3171
G3 X135.1264 Z-5.3172 I0.0 J1.5875
G2 X135.813 Y31.6564 Z-5.3294 I0.0086 J-3.6828
G2 X136.735 Y31.3269 Z-5.3467 I-0.5794 J-3.0762
G2 X137.1623 Y31.0505 Z-5.3557 I-1.6948 J-3.0881
G2 X137.5644 Y30.7025 Z-5.3651 I-2.4489 J-3.2363
G3 X137.5768 Y30.6904 Z-5.3654 I1.1152 J1.1298
G2 X138.03 Y30.1656 Z-5.3776 I-2.6679 J-2.7622
G3 X138.0319 Y30.1631 Z-5.3777 I1.2902 J0.9249
G2 X138.4627 Y29.3058 Z-5.3947 I-2.4711 J-1.7788
G2 X138.6057 Y28.3347 Z-5.4121 I-3.1167 J-0.9551
G3 Y28.3266 Z-5.4122 I1.5875 J-0.0078
G2 X138.5839 Y27.9026 Z-5.4197 I-4.1277 J-0.0008
G3 X138.5837 Y27.8997 I1.5791 J-0.1628
G2 X138.4416 Y27.2524 Z-5.4315 I-2.8707 J0.2907
G2 X137.9878 Y26.4929 Z-5.4472 I-2.0479 J0.7084
G2 X137.6333 Y26.1726 Z-5.4556 I-1.9881 J1.844
G1 X137.5715 Y26.1272 Z-5.457
G2 X137.181 Y25.885 Z-5.4651 I-2.0907 J2.9359
G3 X137.1788 Y23.0867 Z-5.5255 I0.7489 J-1.3998
G2 X137.5328 Y22.8708 Z-5.5328 I-1.7918 J-3.3367
G3 X137.5341 Y22.8699 I0.8994 J1.3081
G2 X138.0173 Y22.4448 Z-5.5442 I-1.5204 J-2.2157
G2 X138.4567 Y21.6742 Z-5.56 I-1.6403 J-1.4457
G3 X138.4576 Y21.6715 I1.5099 J0.4901
G2 X138.5682 Y21.1932 Z-5.5687 I-2.6468 J-0.8643
G3 X138.5683 Y21.1929 I1.5722 J0.2201
G2 X138.6057 Y20.6478 Z-5.5783 I-3.8296 J-0.5368
G3 Y20.6364 Z-5.5786 I1.5875 J-0.0034
G2 X138.5422 Y19.9757 Z-5.5903 I-3.2959 J-0.0165
G3 X138.5421 Y19.9752 I1.5569 J-0.3103
G2 X138.2067 Y19.0759 Z-5.6073 I-2.9439 J0.5858
G2 X137.9244 Y18.6567 Z-5.6162 I-3.1303 J1.8031
G1 X137.9018 Y18.6281 Z-5.6169
G2 X137.7501 Y18.4497 Z-5.621 I-3.1824 J2.552
G1 X137.6567 Y18.3497 Z-5.6234
G1 X137.5565 Y18.2484 Z-5.6259
G2 X137.0232 Y17.8084 Z-5.6381 I-2.6929 J2.7206
G3 X137.0203 Y17.8064 Z-5.6382 I0.8956 J-1.3107
G2 X136.1315 Y17.38 Z-5.6556 I-1.814 J2.6421
G2 X135.6453 Y17.2747 Z-5.6644 I-0.9484 J3.2015
G2 X135.1231 Y17.2394 Z-5.6737 I-0.5214 J3.8379
G3 X135.1228 I-0.0003 J-1.5875
G1 X124.125 Z-5.8677
G1 Y24.7406 Z-6.0
G1 Y31.7194
G1 X135.1228
G3 X135.1264 I0.0 J1.5875
G2 X135.813 Y31.6564 I0.0086 J-3.6828
G2 X136.735 Y31.3269 I-0.5794 J-3.0762
G2 X137.1623 Y31.0505 I-1.6948 J-3.0881
G2 X137.5644 Y30.7025 I-2.4489 J-3.2363
G3 X137.5768 Y30.6904 I1.1152 J1.1298
G2 X138.03 Y30.1656 I-2.6679 J-2.7622
G3 X138.0319 Y30.1631 I1.2902 J0.9249
G2 X138.4627 Y29.3058 I-2.4711 J-1.7788
G2 X138.6057 Y28.3347 I-3.1167 J-0.9551
G3 Y28.3266 I1.5875 J-0.0078
G2 X138.5839 Y27.9026 I-4.1277 J-0.0008
G3 X138.5837 Y27.8997 I1.5791 J-0.1628
G2 X138.4416 Y27.2524 I-2.8707 J0.2907
G2 X137.9878 Y26.4929 I-2.0479 J0.7084
G2 X137.6333 Y26.1726 I-1.9881 J1.844
G1 X137.5715 Y26.1272
G2 X137.181 Y25.885 I-2.0907 J2.9359
G3 X137.1788 Y23.0867 I0.7489 J-1.3998
G2 X137.5328 Y22.8708 I-1.7918 J-3.3367
G3 X137.5341 Y22.8699 I0.8994 J1.3081
G2 X138.0173 Y22.4448 I-1.5204 J-2.2157
G2 X138.4567 Y21.6742 I-1.6403 J-1.4457
G3 X138.4576 Y21.6715 I1.5099 J0.4901
G2 X138.5682 Y21.1932 I-2.6468 J-0.8643
G3 X138.5683 Y21.1929 I1.5722 J0.2201
G2 X138.6057 Y20.6478 I-3.8296 J-0.5368
G3 Y20.6364 I1.5875 J-0.0034
G2 X138.5422 Y19.9757 I-3.2959 J-0.0165
G3 X138.5421 Y19.9752 I1.5569 J-0.3103
G2 X138.2067 Y19.0759 I-2.9439 J0.5858
G2 X137.9244 Y18.6567 I-3.1303 J1.8031
G1 X137.9018 Y18.6281
G2 X137.7501 Y18.4497 I-3.1824 J2.552
G1 X137.6567 Y18.3497
G1 X137.5565 Y18.2484
G2 X137.0232 Y17.8084 I-2.6929 J2.7206
G3 X137.0203 Y17.8064 I0.8956 J-1.3107
G2 X136.1315 Y17.38 I-1.814 J2.6421
G2 X135.6453 Y17.2747 I-0.9484 J3.2015
G2 X135.1231 Y17.2394 I-0.5214 J3.8379
G3 X135.1228 I-0.0003 J-1.5875
G1 X124.125
G1 Y24.7406
G0 Z3.0
G0 X141.7807
G1 F300.0 Z0.0
G1 F1500.0 Y31.7194 Z-0.1379
G1 X143.0161 Z-0.1623
G1 Y20.0623 Z-0.3926
G3 X144.6036 Y18.4748 Z-0.4419 I1.5875 J0.0
G1 X152.9495 Z-0.6067
G1 Y17.2394 Z-0.6311
G1 X141.7807 Z-0.8518
G1 Y24.7406 Z-1.0
G1 Y31.7194 Z-1.1379
G1 X143.0161 Z-1.1623
G1 Y20.0623 Z-1.3926
G3 X144.6036 Y18.4748 Z-1.4419 I1.5875 J0.0
G1 X152.9495 Z-1.6067
G1 Y17.2394 Z-1.6311
G1 X141.7807 Z-1.8518
G1 Y24.7406 Z-2.0
G1 Y31.7194 Z-2.1379
G1 X143.0161 Z-2.1623
G1 Y20.0623 Z-2.3926
G3 X144.6036 Y18.4748 Z-2.4419 I1.5875 J0.0
G1 X152.9495 Z-2.6067
G1 Y17.2394 Z-2.6311
G1 X141.7807 Z-2.8518
G1 Y24.7406 Z-3.0
G1 Y31.7194 Z-3.1379
G1 X143.0161 Z-3.1623
G1 Y20.0623 Z-3.3926
G3 X144.6036 Y18.4748 Z-3.4419 I1.5875 J0.0
G1 X152.9495 Z-3.6067
G1 Y17.2394 Z-3.6311
G1 X141.7807 Z-3.8518
G1 Y24.7406 Z-4.0
G1 Y31.7194 Z-4.1379
G1 X143.0161 Z-4.1623
G1 Y20.0623 Z-4.3926
G3 X144.6036 Y18.4748 Z-4.4419 I1.5875 J0.0
G1 X152.9495 Z-4.6067
G1 Y17.2394 Z-4.6311
G1 X141.7807 Z-4.8518
G1 Y24.7406 Z-5.0
G1 Y31.7194 Z-5.1379
G1 X143.0161 Z-5.1623
G1 Y20.0623 Z-5.3926
G3 X144.6036 Y18.4748 Z-5.4419 I1.5875 J0.0
G1 X152.9495 Z-5.6067
G1 Y17.2394 Z-5.6311
G1 X141.7807 Z-5.8518
G1 Y24.7406 Z-6.0
G1 Y31.7194
G1 X143.0161
G1 Y20.0623
G3 X144.6036 Y18.4748 I1.5875 J0.0
G1 X152.9495
G1 Y17.2394
G1 X141.7807
G1 Y24.7406
G0 Z3.0
G0 X156.1245
G1 F300.0 Z0.0
G1 F1500.0 Y27.7971 Z-0.0415
G3 Y27.8046 Z-0.0416 I-1.5875 J0.0
G2 X156.1947 Y28.5776 Z-0.0521 I4.08 J0.0192
G3 X156.1953 Y28.5811 I-1.5602 J0.2933
G2 X156.5684 Y29.627 Z-0.0673 I3.4467 J-0.6399
G2 X156.8783 Y30.1032 Z-0.075 I3.3428 J-1.8364
G2 X157.2755 Y30.5561 Z-0.0832 I3.7349 J-2.8751
G3 X157.28 Y30.5606 I-1.1242 J1.1209
G2 X157.8856 Y31.0687 Z-0.094 I3.0353 J-3.0025
G3 X157.8889 Y31.0711 I-0.9034 J1.3054
G2 X158.8983 Y31.5585 Z-0.1093 I2.0331 J-2.9216
G2 X159.4573 Y31.6795 Z-0.1171 I1.0842 J-3.6555
G2 X160.0484 Y31.7194 Z-0.1251 I0.5817 J-4.2278
G3 X160.0519 Z-0.1252 I0.0035 J1.5875
G1 X167.1001 Z-0.2208
G2 X167.4575 Y31.702 Z-0.2256 I-0.0169 J-4.0381
G2 X168.5448 Y31.3789 Z-0.2411 I-0.2781 J-2.9267
G2 X169.0363 Y31.0578 Z-0.2491 I-1.5412 J-2.896
G2 X169.5014 Y30.6255 Z-0.2577 I-2.6066 J-3.2705
G3 X169.5073 Y30.6191 Z-0.2578 I1.166 J1.0773
G2 X169.9753 Y30.0267 Z-0.2681 I-3.3349 J-3.1153
G3 X169.9776 Y30.0232 I1.3229 J0.8776
G2 X170.4291 Y29.0685 Z-0.2825 I-3.0076 J-2.0067
G2 X170.5787 Y28.0246 Z-0.2968 I-3.449 J-1.0269
G3 Y28.0158 Z-0.297 I1.5875 J-0.0075
G2 X170.512 Y27.2957 Z-0.3068 I-3.8847 J-0.0032
G2 X170.1633 Y26.3103 Z-0.321 I-3.4138 J0.6535
G2 X169.5107 Y25.404 Z-0.3362 I-3.8161 J2.0598
G3 X169.5026 Y25.3953 Z-0.3364 I1.1581 J-1.0858
G2 X168.9658 Y24.9079 Z-0.3462 I-3.0308 J2.7989
G2 X168.0967 Y24.4516 Z-0.3596 I-1.8071 J2.3858
G2 X167.6248 Y24.3399 Z-0.3662 I-0.8944 J2.7261
G3 X167.6233 Y24.3397 I0.2338 J-1.5702
G2 X167.1085 Y24.3017 Z-0.3732 I-0.5095 J3.3991
G3 X167.1061 I-0.0024 J-1.5875
G1 X158.9474 Z-0.4839
G3 X157.3599 Y22.7142 Z-0.5177 I0.0 J-1.5875
G1 Y21.3984 Z-0.5356
G3 X157.597 Y20.2525 Z-0.5515 I2.8377 J-0.0104
G3 X157.6049 Y20.2348 Z-0.5518 I1.4549 J0.6352
G3 X158.2242 Y19.3424 Z-0.5666 I2.7225 J1.2285
G3 X159.1215 Y18.7185 Z-0.5815 I2.1164 J2.0865
G3 X159.1408 Y18.71 Z-0.5818 I0.6512 J1.4478
G3 X160.2832 Y18.4748 Z-0.5977 I1.1328 J2.6106
G1 X169.5052 Z-0.7228
G1 Y17.2394 Z-0.7396
G1 X160.06 Z-0.8677
G3 X160.0561 I0.0 J-1.5875
G2 X159.2753 Y17.3112 Z-0.8784 I-0.0103 J4.1727
G2 X158.2131 Y17.6911 Z-0.8937 I0.6792 J3.5736
G1 X158.213
G1 X158.2132 Y17.691
G1 X158.2131 Y17.6911 Z-0.8938
G2 X157.7262 Y18.0052 Z-0.9016 I1.887 J3.4593
G3 X157.724 Y18.0068 Z-0.9017 I-0.9564 J-1.2671
G2 X157.2769 Y18.3904 Z-0.9096 I2.7607 J3.6707
G2 X156.7745 Y19.0032 Z-0.9204 I3.3332 J3.245
G2 X156.2864 Y20.0215 Z-0.9358 I3.0372 J2.0819
G2 X156.1245 Y21.1672 Z-0.9515 I3.8359 J1.1264
G3 Y21.1749 Z-0.9516 I-1.5875 J0.0077
G1 Y24.7406 Z-1.0
G1 F300.0 X157.547 Y25.4983
G3 F1500.0 X158.9482 Y24.6571 I1.4011 J0.7463
G1 X166.463
G3 X166.4682 I0.0 J1.5875
G3 X166.9641 Y24.6961 I-0.011 J3.315
G3 X166.97 Y24.697 I-0.2427 J1.5688
G3 X167.814 Y24.9721 I-0.4422 J2.7883
G3 X167.8252 Y24.9779 I-0.7232 J1.4132
G3 X168.5521 Y25.5273 I-1.2742 J2.4416
G3 X169.1699 Y26.5349 I-2.0472 J1.9483
G3 X169.1752 Y26.5503 I-1.497 J0.5284
G3 X169.3433 Y27.5736 I-2.9654 J1.0126
G3 X169.1733 Y28.608 I-3.0847 J0.0242
G3 X169.1684 Y28.622 I-1.5 J-0.5199
G3 X168.546 Y29.6268 I-2.6499 J-0.9464
G3 X167.5265 Y30.298 I-1.9734 J-1.8874
G3 X166.9685 Y30.4446 I-0.9968 J-2.6585
G3 X166.4586 Y30.4839 I-0.4952 J-3.098
G1 X160.2842
G3 X159.1384 Y30.2469 I-0.0104 J-2.8377
G3 X159.1207 Y30.239 I0.6352 J-1.4549
G3 X158.235 Y29.6264 I1.2284 J-2.7223
G3 X157.6079 Y28.7387 I2.0418 J-2.108
G3 X157.5985 Y28.7179 I1.4438 J-0.6601
G3 X157.3607 Y27.5724 I2.5721 J-1.1315
G1 Y26.2446
G3 X157.547 Y25.4983 I1.5875 J0.0
G3 X158.9482 Y24.6571 Z-1.0549 I1.4011 J0.7463
G1 X166.463 Z-1.2955
G3 X166.4682 Z-1.2956 I0.0 J1.5875
G3 X166.9641 Y24.6961 Z-1.3116 I-0.011 J3.315
G3 X166.97 Y24.697 Z-1.3118 I-0.2427 J1.5688
G3 X167.814 Y24.9721 Z-1.3403 I-0.4422 J2.7883
G3 X167.8252 Y24.9779 Z-1.3407 I-0.7232 J1.4132
G3 X168.5521 Y25.5273 Z-1.37 I-1.2742 J2.4416
G3 X169.1699 Y26.5349 Z-1.4081 I-2.0472 J1.9483
G3 X169.1752 Y26.5503 Z-1.4086 I-1.497 J0.5284
G3 X169.3433 Y27.5736 Z-1.442 I-2.9654 J1.0126
G3 X169.1733 Y28.608 Z-1.4757 I-3.0847 J0.0242
G3 X169.1684 Y28.622 Z-1.4762 I-1.5 J-0.5199
G3 X168.546 Y29.6268 Z-1.5143 I-2.6499 J-0.9464
G3 X167.5265 Y30.298 Z-1.5537 I-1.9734 J-1.8874
G3 X166.9685 Y30.4446 Z-1.5722 I-0.9968 J-2.6585
G3 X166.4586 Y30.4839 Z-1.5886 I-0.4952 J-3.098
G1 X160.2842 Z-1.7862
G3 X159.1384 Y30.2469 Z-1.8239 I-0.0104 J-2.8377
G3 X159.1207 Y30.239 Z-1.8245 I0.6352 J-1.4549
G3 X158.235 Y29.6264 Z-1.8592 I1.2284 J-2.7223
G3 X157.6079 Y28.7387 Z-1.8942 I2.0418 J-2.108
G3 X157.5985 Y28.7179 Z-1.8949 I1.4438 J-0.6601
G3 X157.3607 Y27.5724 Z-1.9326 I2.5721 J-1.1315
G1 Y26.2446 Z-1.9751
G3 X157.547 Y25.4983 Z-2.0 I1.5875 J0.0
G1 F300.0 X156.1245
G1 F1500.0 Y27.7971
G3 Y27.8046 I-1.5875 J0.0
G2 X156.1947 Y28.5776 I4.08 J0.0192
G3 X156.1953 Y28.5811 I-1.5602 J0.2933
G2 X156.5684 Y29.627 I3.4467 J-0.6399
G2 X156.8783 Y30.1032 I3.3428 J-1.8364
G2 X157.2755 Y30.5561 I3.7349 J-2.8751
G3 X157.28 Y30.5606 I-1.1242 J1.1209
G2 X157.8856 Y31.0687 I3.0353 J-3.0025
G3 X157.8889 Y31.0711 I-0.9034 J1.3054
G2 X158.8983 Y31.5585 I2.0331 J-2.9216
G2 X159.4573 Y31.6795 I1.0842 J-3.6555
G2 X160.0484 Y31.7194 I0.5817 J-4.2278
G3 X160.0519 I0.0035 J1.5875
G1 X167.1001
G2 X167.4575 Y31.702 I-0.0169 J-4.0381
G2 X168.5448 Y31.3789 I-0.2781 J-2.9267
G2 X169.0363 Y31.0578 I-1.5412 J-2.896
G2 X169.5014 Y30.6255 I-2.6066 J-3.2705
G3 X169.5073 Y30.6191 I1.166 J1.0773
G2 X169.9753 Y30.0267 I-3.3349 J-3.1153
G3 X169.9776 Y30.0232 I1.3229 J0.8776
G2 X170.4291 Y29.0685 I-3.0076 J-2.0067
G2 X170.5787 Y28.0246 I-3.449 J-1.0269
G3 Y28.0158 I1.5875 J-0.0075
G2 X170.512 Y27.2957 I-3.8847 J-0.0032
G2 X170.1633 Y26.3103 I-3.4138 J0.6535
G2 X169.5107 Y25.404 I-3.8161 J2.0598
G3 X169.5026 Y25.3953 I1.1581 J-1.0858
G2 X168.9658 Y24.9079 I-3.0308 J2.7989
G2 X168.0967 Y24.4516 I-1.8071 J2.3858
G2 X167.6248 Y24.3399 I-0.8944 J2.7261
G3 X167.6233 Y24.3397 I0.2338 J-1.5702
G2 X167.1085 Y24.3017 I-0.5095 J3.3991
G3 X167.1061 I-0.0024 J-1.5875
G1 X158.9474
G3 X157.3599 Y22.7142 I0.0 J-1.5875
G1 Y21.3984
G3 X157.597 Y20.2525 I2.8377 J-0.0104
G3 X157.6049 Y20.2348 I1.4549 J0.6352
G3 X158.2242 Y19.3424 I2.7225 J1.2285
G3 X159.1215 Y18.7185 I2.1164 J2.0865
G3 X159.1408 Y18.71 I0.6512 J1.4478
G3 X160.2832 Y18.4748 I1.1328 J2.6106
G1 X169.5052
G1 Y17.2394
G1 X160.06
G3 X160.0561 I0.0 J-1.5875
G2 X159.2753 Y17.3112 I-0.0103 J4.1727
G2 X158.2131 Y17.6911 I0.6792 J3.5736
G1 X158.213
G1 X158.2132 Y17.691
G1 X158.2131 Y17.6911
G2 X157.7262 Y18.0052 I1.887 J3.4593
G3 X157.724 Y18.0068 I-0.9564 J-1.2671
G2 X157.2769 Y18.3904 I2.7607 J3.6707
G2 X156.7745 Y19.0032 I3.3332 J3.245
G2 X156.2864 Y20.0215 I3.0372 J2.0819
G2 X156.1245 Y21.1672 I3.8359 J1.1264
G3 Y21.1749 I-1.5875 J0.0077
G1 Y25.4983
G1 Y27.7971 Z-2.0312
G3 Y27.8046 Z-2.0313 I-1.5875 J0.0
G2 X156.1947 Y28.5776 Z-2.0418 I4.08 J0.0192
G3 X156.1953 Y28.5811 Z-2.0419 I-1.5602 J0.2933
G2 X156.5684 Y29.627 Z-2.057 I3.4467 J-0.6399
G2 X156.8783 Y30.1032 Z-2.0647 I3.3428 J-1.8364
G2 X157.2755 Y30.5561 Z-2.0729 I3.7349 J-2.8751
G3 X157.28 Y30.5606 Z-2.073 I-1.1242 J1.1209
G2 X157.8856 Y31.0687 Z-2.0837 I3.0353 J-3.0025
G3 X157.8889 Y31.0711 Z-2.0838 I-0.9034 J1.3054
G2 X158.8983 Y31.5585 Z-2.099 I2.0331 J-2.9216
G2 X159.4573 Y31.6795 Z-2.1068 I1.0842 J-3.6555
G2 X160.0484 Y31.7194 Z-2.1148 I0.5817 J-4.2278
G3 X160.0519 Z-2.1149 I0.0035 J1.5875
G1 X167.1001 Z-2.2105
G2 X167.4575 Y31.702 Z-2.2153 I-0.0169 J-4.0381
G2 X168.5448 Y31.3789 Z-2.2308 I-0.2781 J-2.9267
G2 X169.0363 Y31.0578 Z-2.2388 I-1.5412 J-2.896
G2 X169.5014 Y30.6255 Z-2.2474 I-2.6066 J-3.2705
G3 X169.5073 Y30.6191 Z-2.2475 I1.166 J1.0773
G2 X169.9753 Y30.0267 Z-2.2578 I-3.3349 J-3.1153
G3 X169.9776 Y30.0232 I1.3229 J0.8776
G2 X170.4291 Y29.0685 Z-2.2722 I-3.0076 J-2.0067
G2 X170.5787 Y28.0246 Z-2.2866 I-3.449 J-1.0269
G3 Y28.0158 Z-2.2867 I1.5875 J-0.0075
G2 X170.512 Y27.2957 Z-2.2965 I-3.8847 J-0.0032
G2 X170.1633 Y26.3103 Z-2.3107 I-3.4138 J0.6535
G2 X169.5107 Y25.404 Z-2.3259 I-3.8161 J2.0598
G3 X169.5026 Y25.3953 Z-2.3261 I1.1581 J-1.0858
G2 X168.9658 Y24.9079 Z-2.3359 I-3.0308 J2.7989
G2 X168.0967 Y24.4516 Z-2.3493 I-1.8071 J2.3858
G2 X167.6248 Y24.3399 Z-2.3559 I-0.8944 J2.7261
G3 X167.6233 Y24.3397 I0.2338 J-1.5702
G2 X167.1085 Y24.3017 Z-2.3629 I-0.5095 J3.3991
G3 X167.1061 Z-2.363 I-0.0024 J-1.5875
G1 X158.9474 Z-2.4736
G3 X157.3599 Y22.7142 Z-2.5074 I0.0 J-1.5875
G1 Y21.3984 Z-2.5253
G3 X157.597 Y20.2525 Z-2.5413 I2.8377 J-0.0104
G3 X157.6049 Y20.2348 Z-2.5415 I1.4549 J0.6352
G3 X158.2242 Y19.3424 Z-2.5563 I2.7225 J1.2285
G3 X159.1215 Y18.7185 Z-2.5712 I2.1164 J2.0865
G3 X159.1408 Y18.71 Z-2.5715 I0.6512 J1.4478
G3 X160.2832 Y18.4748 Z-2.5875 I1.1328 J2.6106
G1 X169.5052 Z-2.7125
G1 Y17.2394 Z-2.7293
G1 X160.06 Z-2.8574
G3 X160.0561 Z-2.8575 I0.0 J-1.5875
G2 X159.2753 Y17.3112 Z-2.8681 I-0.0103 J4.1727
G2 X158.2131 Y17.6911 Z-2.8835 I0.6792 J3.5736
G1 X158.213
G1 X158.2132 Y17.691
G1 X158.2131 Y17.6911
G2 X157.7262 Y18.0052 Z-2.8913 I1.887 J3.4593
G3 X157.724 Y18.0068 Z-2.8914 I-0.9564 J-1.2671
G2 X157.2769 Y18.3904 Z-2.8994 I2.7607 J3.6707
G2 X156.7745 Y19.0032 Z-2.9101 I3.3332 J3.245
G2 X156.2864 Y20.0215 Z-2.9255 I3.0372 J2.0819
G2 X156.1245 Y21.1672 Z-2.9413 I3.8359 J1.1264
G3 Y21.1749 Z-2.9414 I-1.5875 J0.0077
G1 Y25.4983 Z-3.0
G1 F300.0 X157.4134 Y25.8389
G3 F1500.0 X158.9482 Y24.6571 I1.5348 J0.4056
G1 X166.463
G3 X166.4682 I0.0 J1.5875
G3 X166.9641 Y24.6961 I-0.011 J3.315
G3 X166.97 Y24.697 I-0.2427 J1.5688
G3 X167.814 Y24.9721 I-0.4422 J2.7883
G3 X167.8252 Y24.9779 I-0.7232 J1.4132
G3 X168.5521 Y25.5273 I-1.2742 J2.4416
G3 X169.1699 Y26.5349 I-2.0472 J1.9483
G3 X169.1752 Y26.5503 I-1.497 J0.5284
G3 X169.3433 Y27.5736 I-2.9654 J1.0126
G3 X169.1733 Y28.608 I-3.0847 J0.0242
G3 X169.1684 Y28.622 I-1.5 J-0.5199
G3 X168.546 Y29.6268 I-2.6499 J-0.9464
G3 X167.5265 Y30.298 I-1.9734 J-1.8874
G3 X166.9685 Y30.4446 I-0.9968 J-2.6585
G3 X166.4586 Y30.4839 I-0.4952 J-3.098
G1 X160.2842
G3 X159.1384 Y30.2469 I-0.0104 J-2.8377
G3 X159.1207 Y30.239 I0.6352 J-1.4549
G3 X158.235 Y29.6264 I1.2284 J-2.7223
G3 X157.6079 Y28.7387 I2.0418 J-2.108
G3 X157.5985 Y28.7179 I1.4438 J-0.6601
G3 X157.3607 Y27.5724 I2.5721 J-1.1315
G1 Y26.2446
G3 X157.4134 Y25.8389 I1.5875 J0.0
G3 X158.9482 Y24.6571 Z-3.0667 I1.5348 J0.4056
G1 X166.463 Z-3.3072
G3 X166.4682 Z-3.3074 I0.0 J1.5875
G3 X166.9641 Y24.6961 Z-3.3233 I-0.011 J3.315
G3 X166.97 Y24.697 Z-3.3235 I-0.2427 J1.5688
G3 X167.814 Y24.9721 Z-3.352 I-0.4422 J2.7883
G3 X167.8252 Y24.9779 Z-3.3524 I-0.7232 J1.4132
G3 X168.5521 Y25.5273 Z-3.3817 I-1.2742 J2.4416
G3 X169.1699 Y26.5349 Z-3.4198 I-2.0472 J1.9483
G3 X169.1752 Y26.5503 Z-3.4204 I-1.497 J0.5284
G3 X169.3433 Y27.5736 Z-3.4537 I-2.9654 J1.0126
G3 X169.1733 Y28.608 Z-3.4874 I-3.0847 J0.0242
G3 X169.1684 Y28.622 Z-3.4879 I-1.5 J-0.5199
G3 X168.546 Y29.6268 Z-3.526 I-2.6499 J-0.9464
G3 X167.5265 Y30.298 Z-3.5654 I-1.9734 J-1.8874
G3 X166.9685 Y30.4446 Z-3.5839 I-0.9968 J-2.6585
G3 X166.4586 Y30.4839 Z-3.6003 I-0.4952 J-3.098
G1 X160.2842 Z-3.7979
G3 X159.1384 Y30.2469 Z-3.8357 I-0.0104 J-2.8377
G3 X159.1207 Y30.239 Z-3.8363 I0.6352 J-1.4549
G3 X158.235 Y29.6264 Z-3.8709 I1.2284 J-2.7223
G3 X157.6079 Y28.7387 Z-3.9059 I2.0418 J-2.108
G3 X157.5985 Y28.7179 Z-3.9067 I1.4438 J-0.6601
G3 X157.3607 Y27.5724 Z-3.9444 I2.5721 J-1.1315
G1 Y26.2446 Z-3.9869
G3 X157.4134 Y25.8389 Z-4.0 I1.5875 J0.0
G1 F300.0 X156.1245
G1 F1500.0 Y27.7971
G3 Y27.8046 I-1.5875 J0.0
G2 X156.1947 Y28.5776 I4.08 J0.0192
G3 X156.1953 Y28.5811 I-1.5602 J0.2933
G2 X156.5684 Y29.627 I3.4467 J-0.6399
G2 X156.8783 Y30.1032 I3.3428 J-1.8364
G2 X157.2755 Y30.5561 I3.7349 J-2.8751
G3 X157.28 Y30.5606 I-1.1242 J1.1209
G2 X157.8856 Y31.0687 I3.0353 J-3.0025
G3 X157.8889 Y31.0711 I-0.9034 J1.3054
G2 X158.8983 Y31.5585 I2.0331 J-2.9216
G2 X159.4573 Y31.6795 I1.0842 J-3.6555
G2 X160.0484 Y31.7194 I0.5817 J-4.2278
G3 X160.0519 I0.0035 J1.5875
G1 X167.1001
G2 X167.4575 Y31.702 I-0.0169 J-4.0381
G2 X168.5448 Y31.3789 I-0.2781 J-2.9267
G2 X169.0363 Y31.0578 I-1.5412 J-2.896
G2 X169.5014 Y30.6255 I-2.6066 J-3.2705
G3 X169.5073 Y30.6191 I1.166 J1.0773
G2 X169.9753 Y30.0267 I-3.3349 J-3.1153
G3 X169.9776 Y30.0232 I1.3229 J0.8776
G2 X170.4291 Y29.0685 I-3.0076 J-2.0067
G2 X170.5787 Y28.0246 I-3.449 J-1.0269
G3 Y28.0158 I1.5875 J-0.0075
G2 X170.512 Y27.2957 I-3.8847 J-0.0032
G2 X170.1633 Y26.3103 I-3.4138 J0.6535
G2 X169.5107 Y25.404 I-3.8161 J2.0598
G3 X169.5026 Y25.3953 I1.1581 J-1.0858
G2 X168.9658 Y24.9079 I-3.0308 J2.7989
G2 X168.0967 Y24.4516 I-1.8071 J2.3858
G2 X167.6248 Y24.3399 I-0.8944 J2.7261
G3 X167.6233 Y24.3397 I0.2338 J-1.5702
G2 X167.1085 Y24.3017 I-0.5095 J3.3991
G3 X167.1061 I-0.0024 J-1.5875
G1 X158.9474
G3 X157.3599 Y22.7142 I0.0 J-1.5875
G1 Y21.3984
G3 X157.597 Y20.2525 I2.8377 J-0.0104
G3 X157.6049 Y20.2348 I1.4549 J0.6352
G3 X158.2242 Y19.3424 I2.7225 J1.2285
G3 X159.1215 Y18.7185 I2.1164 J2.0865
G3 X159.1408 Y18.71 I0.6512 J1.4478
G3 X160.2832 Y18.4748 I1.1328 J2.6106
G1 X169.5052
G1 Y17.2394
G1 X160.06
G3 X160.0561 I0.0 J-1.5875
G2 X159.2753 Y17.3112 I-0.0103 J4.1727
G2 X158.2131 Y17.6911 I0.6792 J3.5736
G1 X158.213
G1 X158.2132 Y17.691
G1 X158.2131 Y17.6911
G2 X157.7262 Y18.0052 I1.887 J3.4593
G3 X157.724 Y18.0068 I-0.9564 J-1.2671
G2 X157.2769 Y18.3904 I2.7607 J3.6707
G2 X156.7745 Y19.0032 I3.3332 J3.245
G2 X156.2864 Y20.0215 I3.0372 J2.0819
G2 X156.1245 Y21.1672 I3.8359 J1.1264
G3 Y21.1749 I-1.5875 J0.0077
G1 Y25.8389
G1 Y27.7971 Z-4.0266
G3 Y27.8046 Z-4.0267 I-1.5875 J0.0
G2 X156.1947 Y28.5776 Z-4.0372 I4.08 J0.0192
G3 X156.1953 Y28.5811 Z-4.0373 I-1.5602 J0.2933
G2 X156.5684 Y29.627 Z-4.0524 I3.4467 J-0.6399
G2 X156.8783 Y30.1032 Z-4.0601 I3.3428 J-1.8364
G2 X157.2755 Y30.5561 Z-4.0683 I3.7349 J-2.8751
G3 X157.28 Y30.5606 Z-4.0684 I-1.1242 J1.1209
G2 X157.8856 Y31.0687 Z-4.0791 I3.0353 J-3.0025
