(Generated by PartKam Version 0.05)

G21 G90 G40

(pocket 1)
G0 Z5
T0 M6
G17
M3
G0 X40.30203045685279 Y40.38553299492386
G1 Z-0.25 F200
G3 X40.21319796954315 Y40.472081218274106 I-2.5 J-2.5 F1500
G3 X40.088832487309645 Y40.4746192893401 I-0.12436548223350254 J-3.535532994923858
G3 X39.96700507614213 Y40.472081218274106 I0 J-3.5380710659898478
G3 X39.878172588832484 Y40.38578680203046 I2.4111675126903553 J-2.5862944162436547
G3 X39.79187817258883 Y40.296954314720814 I2.5 J-2.5
G3 X39.78934010152284 Y40.17258883248731 I3.535532994923858 J-0.12436548223350254
G3 X39.79187817258883 Y40.0507614213198 I3.5380710659898478 J0
G3 X39.878172588832484 Y39.96192893401015 I2.5862944162436547 J2.4111675126903553
G3 X39.96700507614213 Y39.8756345177665 I2.5 J2.5
G3 X40.088832487309645 Y39.87309644670051 I0.12436548223350254 J3.535532994923858
G3 X40.21319796954315 Y39.8756345177665 I0 J3.5380710659898478
G3 X40.30203045685279 Y39.96192893401015 I-2.4111675126903553 J2.5862944162436547
G3 X40.388324873096444 Y40.0507614213198 I-2.5 J2.5
G3 X40.390862944162436 Y40.17258883248731 I-3.535532994923858 J0.12436548223350254
G3 X40.388324873096444 Y40.296954314720814 I-3.5380710659898478 J0
G3 X40.30203045685279 Y40.38578680203046 I-2.5862944162436547 J-2.4111675126903553
G1 X40.86776649746193 Y40.951269035532995 F1500
G3 X40.535532994923855 Y41.251269035533 I-3.065989847715736 J-3.065989847715736 F1500
G3 X40.088832487309645 Y41.2741116751269 I-0.4467005076142132 J-4.314720812182741
G3 X39.64467005076142 Y41.251269035533 I0 J-4.33756345177665
G3 X39.31218274111675 Y40.95177664974619 I2.736040609137056 J-3.3654822335025383
G3 X39.01269035532995 Y40.61928934010152 I3.065989847715736 J-3.065989847715736
G3 X38.98984771573604 Y40.17258883248731 I4.314720812182741 J-0.4467005076142132
G3 X39.01269035532995 Y39.72842639593908 I4.33756345177665 J0
G3 X39.31218274111675 Y39.39593908629442 I3.3654822335025383 J2.736040609137056
G3 X39.64467005076142 Y39.09644670050761 I3.065989847715736 J3.065989847715736
G3 X40.088832487309645 Y39.0736040609137 I0.4467005076142132 J4.314720812182741
G3 X40.535532994923855 Y39.09644670050761 I0 J4.33756345177665
G3 X40.868020304568525 Y39.39593908629442 I-2.736040609137056 J3.3654822335025383
G3 X41.16751269035533 Y39.72842639593908 I-3.065989847715736 J3.065989847715736
G3 X41.19035532994924 Y40.17258883248731 I-4.314720812182741 J0.4467005076142132
G3 X41.16751269035533 Y40.61928934010152 I-4.33756345177665 J0
G3 X40.868020304568525 Y40.95177664974619 I-3.3654822335025383 J-2.736040609137056
G1 X41.43350253807107 Y41.51675126903553 F1500
G3 X40.85279187817258 Y42.01522842639594 I-3.631979695431472 J-3.631979695431472 F1500
G3 X40.088832487309645 Y42.07360406091371 I-0.7639593908629441 J-5.081218274111675
G3 X39.32741116751269 Y42.01522842639594 I0 J-5.1370558375634525
G3 X38.746192893401016 Y41.51776649746193 I3.0532994923857872 J-4.131979695431472
G3 X38.246192893401016 Y40.93654822335026 I3.631979695431472 J-3.631979695431472
G3 X38.190355329949234 Y40.17258883248731 I5.081218274111675 J-0.7639593908629441
G3 X38.246192893401016 Y39.411167512690355 I5.1370558375634525 J0
G3 X38.746192893401016 Y38.82994923857868 I4.131979695431472 J3.0532994923857872
G3 X39.32741116751269 Y38.329949238578685 I3.631979695431472 J3.631979695431472
G3 X40.088832487309645 Y38.2741116751269 I0.7639593908629441 J5.081218274111675
G3 X40.85279187817258 Y38.329949238578685 I0 J5.1370558375634525
G3 X41.434010152284266 Y38.82994923857868 I-3.0532994923857872 J4.131979695431472
G3 X41.93401015228426 Y39.411167512690355 I-3.631979695431472 J3.631979695431472
G3 X41.98984771573605 Y40.17258883248731 I-5.081218274111675 J0.7639593908629441
G3 X41.93401015228426 Y40.93654822335026 I-5.1370558375634525 J0
G3 X41.434010152284266 Y41.51776649746193 I-4.131979695431472 J-3.0532994923857872
G1 X41.999238578680206 Y42.08248730964467 F1500
G3 X41.16751269035533 Y42.7741116751269 I-4.197969543147208 J-4.197969543147208 F1500
G3 X40.088832487309645 Y42.873096446700515 I-1.0786802030456852 J-5.837563451776649
G3 X39.01269035532995 Y42.7741116751269 I0 J-5.936548223350254
G3 X38.18020304568528 Y42.08375634517766 I3.3654822335025383 J-4.8908629441624365
G3 X37.48730964467005 Y41.251269035533 I4.197969543147208 J-4.197969543147208
G3 X37.390862944162436 Y40.17258883248731 I5.837563451776649 J-1.0786802030456852
G3 X37.48730964467005 Y39.09644670050761 I5.936548223350254 J0
G3 X38.18020304568528 Y38.263959390862944 I4.8908629441624365 J3.3654822335025383
G3 X39.01269035532995 Y37.57106598984771 I4.197969543147208 J4.197969543147208
G3 X40.088832487309645 Y37.4746192893401 I1.0786802030456852 J5.837563451776649
G3 X41.16751269035533 Y37.57106598984771 I0 J5.936548223350254
G3 X42 Y38.263959390862944 I-3.3654822335025383 J4.8908629441624365
G3 X42.690355329949234 Y39.09644670050761 I-4.197969543147208 J4.197969543147208
G3 X42.78934010152284 Y40.17258883248731 I-5.837563451776649 J1.0786802030456852
G3 X42.690355329949234 Y41.251269035533 I-5.936548223350254 J0
G3 X42 Y42.08375634517766 I-4.8908629441624365 J-3.3654822335025383
G1 X42.56472081218274 Y42.64822335025381 F1500
G3 X41.588832487309645 Y43.45685279187818 I-4.763959390862944 J-4.763959390862944 F1500
G3 X41.474619289340104 Y43.51776649746193 I-0.35279187817258884 J-0.5203045685279188
G3 X41.352791878172596 Y43.55329949238579 I-0.24111675126903553 J-0.5812182741116751
G3 X40.088832487309645 Y43.67258883248731 I-1.2614213197969542 J-6.616751269035533
G3 X38.827411167512686 Y43.55329949238579 I0 J-6.736040609137056
G3 X38.70558375634518 Y43.51776649746193 I0.11675126903553298 J-0.616751269035533
G3 X38.59137055837564 Y43.45685279187818 I0.24111675126903553 J-0.5812182741116751
G3 X37.61421319796954 Y42.64720812182741 I3.786802030456853 J-5.571065989847716
G3 X36.807106598984774 Y41.67005076142132 I4.763959390862944 J-4.763959390862944
G3 X36.746192893401016 Y41.558375634517766 I0.5203045685279188 J-0.35279187817258884
G3 X36.70812182741117 Y41.43654822335026 I0.5812182741116751 J-0.24111675126903553
G3 X36.588832487309645 Y40.17258883248731 I6.616751269035533 J-1.2614213197969542
G3 X36.70812182741117 Y38.911167512690355 I6.736040609137056 J0
G3 X36.746192893401016 Y38.789340101522846 I0.616751269035533 J0.11675126903553298
G3 X36.807106598984774 Y38.6751269035533 I0.5812182741116751 J0.24111675126903553
G3 X37.61421319796954 Y37.69796954314721 I5.571065989847716 J3.786802030456853
G3 X38.59137055837564 Y36.890862944162436 I4.763959390862944 J4.763959390862944
G3 X38.70558375634518 Y36.82994923857868 I0.35279187817258884 J0.5203045685279188
G3 X38.827411167512686 Y36.79187817258884 I0.24111675126903553 J0.5812182741116751
G3 X40.088832487309645 Y36.67258883248731 I1.2614213197969542 J6.616751269035533
G3 X41.352791878172596 Y36.79187817258884 I0 J6.736040609137056
G3 X41.474619289340104 Y36.82994923857868 I-0.11675126903553298 J0.616751269035533
G3 X41.588832487309645 Y36.890862944162436 I-0.24111675126903553 J0.5812182741116751
G3 X42.56598984771574 Y37.69796954314721 I-3.786802030456853 J5.571065989847716
G3 X43.37309644670051 Y38.6751269035533 I-4.763959390862944 J4.763959390862944
G3 X43.434010152284266 Y38.789340101522846 I-0.5203045685279188 J0.35279187817258884
G3 X43.46954314720812 Y38.911167512690355 I-0.5812182741116751 J0.24111675126903553
G3 X43.588832487309645 Y40.17258883248731 I-6.616751269035533 J1.2614213197969542
G3 X43.46954314720812 Y41.43654822335026 I-6.736040609137056 J0
G3 X43.434010152284266 Y41.558375634517766 I-0.616751269035533 J-0.11675126903553298
G3 X43.37309644670051 Y41.67005076142132 I-0.5812182741116751 J-0.24111675126903553
G3 X42.56598984771574 Y42.64720812182741 I-5.571065989847716 J-3.786802030456853
G1 X43.13045685279188 Y43.21395939086295 F1500
G3 X42.038071065989854 Y44.119289340101524 I-5.32994923857868 J-5.32994923857868 F1500
G3 X41.78172588832488 Y44.256345177664976 I-0.8020304568527918 J-1.182741116751269
G3 X41.502538071065985 Y44.340101522842644 I-0.5456852791878173 J-1.3197969543147208
G3 X40.088832487309645 Y44.474619289340104 I-1.4111675126903553 J-7.403553299492386
G3 X38.67766497461929 Y44.340101522842644 I0 J-7.538071065989848
G3 X38.398477157360404 Y44.256345177664976 I0.26649746192893403 J-1.4035532994923858
G3 X38.14213197969543 Y44.119289340101524 I0.5456852791878173 J-1.3197969543147208
G3 X37.04822335025381 Y43.213197969543145 I4.2360406091370555 J-6.2335025380710665
G3 X36.14467005076142 Y42.121827411167516 I5.32994923857868 J-5.32994923857868
G3 X36.00761421319797 Y41.86548223350254 I1.182741116751269 J-0.8020304568527918
G3 X35.923857868020306 Y41.58629441624366 I1.3197969543147208 J-0.5456852791878173
G3 X35.78934010152284 Y40.17258883248731 I7.403553299492386 J-1.4111675126903553
G3 X35.923857868020306 Y38.76142131979695 I7.538071065989848 J0
G3 X36.00761421319797 Y38.48223350253807 I1.4035532994923858 J0.26649746192893403
G3 X36.14467005076142 Y38.2258883248731 I1.3197969543147208 J0.5456852791878173
G3 X37.04822335025381 Y37.13197969543147 I6.2335025380710665 J4.2360406091370555
G3 X38.14213197969543 Y36.22842639593909 I5.32994923857868 J5.32994923857868
G3 X38.398477157360404 Y36.09137055837564 I0.8020304568527918 J1.182741116751269
G3 X38.67766497461929 Y36.00761421319797 I0.5456852791878173 J1.3197969543147208
G3 X40.088832487309645 Y35.87309644670051 I1.4111675126903553 J7.403553299492386
G3 X41.502538071065985 Y36.00761421319797 I0 J7.538071065989848
G3 X41.78172588832488 Y36.09137055837564 I-0.26649746192893403 J1.4035532994923858
G3 X42.038071065989854 Y36.22842639593909 I-0.5456852791878173 J1.3197969543147208
G3 X43.129441624365484 Y37.13197969543147 I-4.2360406091370555 J6.2335025380710665
G3 X44.03553299492386 Y38.2258883248731 I-5.32994923857868 J5.32994923857868
G3 X44.172588832487314 Y38.48223350253807 I-1.182741116751269 J0.8020304568527918
G3 X44.256345177664976 Y38.76142131979695 I-1.3197969543147208 J0.5456852791878173
G3 X44.390862944162436 Y40.17258883248731 I-7.403553299492386 J1.4111675126903553
G3 X44.256345177664976 Y41.58629441624366 I-7.538071065989848 J0
G3 X44.172588832487314 Y41.86548223350254 I-1.4035532994923858 J-0.26649746192893403
G3 X44.03553299492386 Y42.121827411167516 I-1.3197969543147208 J-0.5456852791878173
G3 X43.129441624365484 Y43.213197969543145 I-6.2335025380710665 J-4.2360406091370555
G1 X43.69619289340101 Y43.77969543147208 F1500
G3 X42.48730964467005 Y44.77918781725889 I-5.895939086294416 J-5.895939086294416 F1500
G3 X42.08629441624366 Y44.99492385786802 I-1.2538071065989849 J-1.8426395939086293
G3 X41.65228426395939 Y45.1269035532995 I-0.8527918781725887 J-2.0583756345177666
G3 X40.088832487309645 Y45.2741116751269 I-1.5609137055837563 J-8.190355329949238
G3 X38.52791878172589 Y45.1269035532995 I0 J-8.33756345177665
G3 X38.09137055837563 Y44.99492385786802 I0.41878172588832485 J-2.190355329949239
G3 X37.69289340101523 Y44.77918781725889 I0.8527918781725887 J-2.0583756345177666
G3 X36.484771573604064 Y43.77918781725889 I4.685279187817259 J-6.895939086294415
G3 X35.484771573604064 Y42.57106598984771 I5.895939086294416 J-5.895939086294416
G3 X35.26903553299492 Y42.17005076142132 I1.8426395939086293 J-1.2538071065989849
G3 X35.13705583756345 Y41.73604060913705 I2.0583756345177666 J-0.8527918781725887
G3 X34.98984771573604 Y40.17258883248731 I8.190355329949238 J-1.5609137055837563
G3 X35.13705583756345 Y38.611675126903556 I8.33756345177665 J0
G3 X35.26903553299492 Y38.1751269035533 I2.190355329949239 J0.41878172588832485
G3 X35.484771573604064 Y37.776649746192895 I2.0583756345177666 J0.8527918781725887
G3 X36.484771573604064 Y36.565989847715734 I6.895939086294415 J4.685279187817259
G3 X37.69289340101523 Y35.56598984771574 I5.895939086294416 J5.895939086294416
G3 X38.09137055837563 Y35.3502538071066 I1.2538071065989849 J1.8426395939086293
G3 X38.52791878172589 Y35.22081218274111 I0.8527918781725887 J2.0583756345177666
G3 X40.088832487309645 Y35.07360406091371 I1.5609137055837563 J8.190355329949238
G3 X41.65228426395939 Y35.22081218274111 I0 J8.33756345177665
G3 X42.08629441624366 Y35.3502538071066 I-0.41878172588832485 J2.190355329949239
G3 X42.48730964467005 Y35.56598984771574 I-0.8527918781725887 J2.0583756345177666
G3 X43.69543147208121 Y36.565989847715734 I-4.685279187817259 J6.895939086294415
G3 X44.69543147208122 Y37.776649746192895 I-5.895939086294416 J5.895939086294416
G3 X44.911167512690355 Y38.1751269035533 I-1.8426395939086293 J1.2538071065989849
G3 X45.04314720812182 Y38.611675126903556 I-2.0583756345177666 J0.8527918781725887
G3 X45.190355329949234 Y40.17258883248731 I-8.190355329949238 J1.5609137055837563
G3 X45.04314720812182 Y41.73604060913705 I-8.33756345177665 J0
G3 X44.911167512690355 Y42.17005076142132 I-2.190355329949239 J-0.41878172588832485
G3 X44.69543147208122 Y42.57106598984771 I-2.0583756345177666 J-0.8527918781725887
G3 X43.69543147208121 Y43.77918781725889 I-6.895939086294415 J-4.685279187817259
G1 X44.26192893401015 Y44.34517766497462 F1500
G3 X42.93654822335025 Y45.441624365482234 I-6.461928934010153 J-6.461928934010153 F1500
G3 X42.39340101522843 Y45.733502538071065 I-1.7030456852791878 J-2.5050761421319794
G3 X41.80203045685279 Y45.911167512690355 I-1.1598984771573604 J-2.799492385786802
G3 X40.088832487309645 Y46.0736040609137 I-1.7131979695431472 J-8.974619289340101
G3 X38.37817258883249 Y45.911167512690355 I0 J-9.137055837563452
G3 X37.786802030456855 Y45.733502538071065 I0.5685279187817259 J-2.9746192893401013
G3 X37.243654822335024 Y45.441624365482234 I1.1598984771573604 J-2.799492385786802
G3 X35.91878172588832 Y44.345177664974614 I5.1370558375634525 J-7.555837563451777
G3 X34.82233502538071 Y43.02030456852792 I6.461928934010153 J-6.461928934010153
G3 X34.52791878172589 Y42.477157360406096 I2.5050761421319794 J-1.7030456852791878
G3 X34.35279187817259 Y41.88578680203045 I2.799492385786802 J-1.1598984771573604
G3 X34.19035532994924 Y40.17258883248731 I8.974619289340101 J-1.7131979695431472
G3 X34.35279187817259 Y38.46192893401015 I9.137055837563452 J0
G3 X34.52791878172589 Y37.870558375634516 I2.9746192893401013 J0.5685279187817259
G3 X34.82233502538071 Y37.32741116751269 I2.799492385786802 J1.1598984771573604
G3 X35.91878172588832 Y36.002538071065985 I7.555837563451777 J5.1370558375634525
G3 X37.243654822335024 Y34.90609137055837 I6.461928934010153 J6.461928934010153
G3 X37.786802030456855 Y34.61167512690355 I1.7030456852791878 J2.5050761421319794
G3 X38.37817258883249 Y34.43401015228426 I1.1598984771573604 J2.799492385786802
G3 X40.088832487309645 Y34.2741116751269 I1.7131979695431472 J8.974619289340101
G3 X41.80203045685279 Y34.43401015228426 I0 J9.137055837563452
G3 X42.39340101522843 Y34.61167512690355 I-0.5685279187817259 J2.9746192893401013
G3 X42.93654822335025 Y34.90609137055837 I-1.1598984771573604 J2.799492385786802
G3 X44.26142131979695 Y36.002538071065985 I-5.1370558375634525 J7.555837563451777
G3 X45.35786802030457 Y37.32741116751269 I-6.461928934010153 J6.461928934010153
G3 X45.652284263959395 Y37.870558375634516 I-2.5050761421319794 J1.7030456852791878
G3 X45.827411167512686 Y38.46192893401015 I-2.799492385786802 J1.1598984771573604
G3 X45.98984771573604 Y40.17258883248731 I-8.974619289340101 J1.7131979695431472
G3 X45.827411167512686 Y41.88578680203045 I-9.137055837563452 J0
G3 X45.652284263959395 Y42.477157360406096 I-2.9746192893401013 J-0.5685279187817259
G3 X45.35786802030457 Y43.02030456852792 I-2.799492385786802 J-1.1598984771573604
G3 X44.26142131979695 Y44.345177664974614 I-7.555837563451777 J-5.1370558375634525
G1 X44.82766497461929 Y44.91091370558376 F1500
G3 X43.38578680203046 Y46.10406091370558 I-7.025380710659899 J-7.025380710659899 F1500
G3 X42.7005076142132 Y46.474619289340104 I-2.152284263959391 J-3.1675126903553297
G3 X41.95177664974619 Y46.6979695431472 I-1.4644670050761421 J-3.5380710659898478
G3 X40.088832487309645 Y46.87309644670051 I-1.8629441624365481 J-9.761421319796955
G3 X38.22842639593909 Y46.6979695431472 I0 J-9.936548223350254
G3 X37.47969543147208 Y46.474619289340104 I0.7182741116751269 J-3.761421319796954
G3 X36.79441624365482 Y46.10406091370558 I1.4644670050761421 J-3.5380710659898478
G3 X35.35279187817259 Y44.911167512690355 I5.586294416243654 J-8.218274111675127
G3 X34.15989847715736 Y43.46954314720812 I7.025380710659899 J-7.025380710659899
G3 X33.789340101522846 Y42.78426395939086 I3.1675126903553297 J-2.152284263959391
G3 X33.565989847715734 Y42.035532994923855 I3.5380710659898478 J-1.4644670050761421
G3 X33.390862944162436 Y40.17258883248731 I9.761421319796955 J-1.8629441624365481
G3 X33.565989847715734 Y38.31218274111675 I9.936548223350254 J0
G3 X33.789340101522846 Y37.56345177664975 I3.761421319796954 J0.7182741116751269
G3 X34.15989847715736 Y36.8756345177665 I3.5380710659898478 J1.4644670050761421
G3 X35.35279187817259 Y35.43654822335026 I8.218274111675127 J5.586294416243654
G3 X36.79441624365482 Y34.243654822335024 I7.025380710659899 J7.025380710659899
G3 X37.47969543147208 Y33.87309644670051 I2.152284263959391 J3.1675126903553297
G3 X38.22842639593909 Y33.6497461928934 I1.4644670050761421 J3.5380710659898478
G3 X40.088832487309645 Y33.474619289340104 I1.8629441624365481 J9.761421319796955
G3 X41.95177664974619 Y33.6497461928934 I0 J9.936548223350254
G3 X42.7005076142132 Y33.87309644670051 I-0.7182741116751269 J3.761421319796954
G3 X43.38578680203046 Y34.243654822335024 I-1.4644670050761421 J3.5380710659898478
G3 X44.82741116751269 Y35.43654822335026 I-5.586294416243654 J8.218274111675127
G3 X46.02030456852792 Y36.8756345177665 I-7.025380710659899 J7.025380710659899
G3 X46.39086294416244 Y37.56345177664975 I-3.1675126903553297 J2.152284263959391
G3 X46.61421319796954 Y38.31218274111675 I-3.5380710659898478 J1.4644670050761421
G3 X46.78934010152284 Y40.17258883248731 I-9.761421319796955 J1.8629441624365481
G3 X46.61421319796954 Y42.035532994923855 I-9.936548223350254 J0
G3 X46.39086294416244 Y42.78426395939086 I-3.761421319796954 J-0.7182741116751269
G3 X46.02030456852792 Y43.46954314720812 I-3.5380710659898478 J-1.4644670050761421
G3 X44.82741116751269 Y44.911167512690355 I-8.218274111675127 J-5.586294416243654
G1 X45.393147208121825 Y45.47664974619289 F1500
G3 X43.83502538071066 Y46.763959390862944 I-7.591370558375634 J-7.591370558375634 F1500
G3 X43.00507614213198 Y47.213197969543145 I-2.6015228426395938 J-3.8274111675126905
G3 X42.101522842639596 Y47.482233502538065 I-1.7715736040609138 J-4.276649746192893
G3 X40.088832487309645 Y47.67258883248731 I-2.012690355329949 J-10.548223350253807
G3 X38.078680203045685 Y47.482233502538065 I0 J-10.736040609137056
G3 X37.1751269035533 Y47.213197969543145 I0.868020304568528 J-4.5456852791878175
G3 X36.34263959390863 Y46.763959390862944 I1.7715736040609138 J-4.276649746192893
G3 X34.786802030456855 Y45.47715736040609 I6.035532994923858 J-8.880710659898478
G3 X33.49746192893401 Y43.91878172588832 I7.591370558375634 J-7.591370558375634
G3 X33.0507614213198 Y43.088832487309645 I3.8274111675126905 J-2.6015228426395938
G3 X32.77918781725888 Y42.18527918781726 I4.276649746192893 J-1.7715736040609138
G3 X32.588832487309645 Y40.17258883248731 I10.548223350253807 J-2.012690355329949
G3 X32.77918781725888 Y38.162436548223354 I10.736040609137056 J0
G3 X33.0507614213198 Y37.256345177664976 I4.5456852791878175 J0.868020304568528
G3 X33.49746192893401 Y36.42639593908629 I4.276649746192893 J1.7715736040609138
G3 X34.786802030456855 Y34.870558375634516 I8.880710659898478 J6.035532994923858
G3 X36.34263959390863 Y33.58121827411168 I7.591370558375634 J7.591370558375634
G3 X37.1751269035533 Y33.13451776649746 I2.6015228426395938 J3.8274111675126905
G3 X38.078680203045685 Y32.86294416243655 I1.7715736040609138 J4.276649746192893
G3 X40.088832487309645 Y32.67258883248731 I2.012690355329949 J10.548223350253807
G3 X42.101522842639596 Y32.86294416243655 I0 J10.736040609137056
G3 X43.00507614213198 Y33.13451776649746 I-0.868020304568528 J4.5456852791878175
G3 X43.83502538071066 Y33.58121827411168 I-1.7715736040609138 J4.276649746192893
G3 X45.39340101522843 Y34.870558375634516 I-6.035532994923858 J8.880710659898478
G3 X46.68020304568528 Y36.42639593908629 I-7.591370558375634 J7.591370558375634
G3 X47.129441624365484 Y37.256345177664976 I-3.8274111675126905 J2.6015228426395938
G3 X47.401015228426395 Y38.162436548223354 I-4.276649746192893 J1.7715736040609138
G3 X47.588832487309645 Y40.17258883248731 I-10.548223350253807 J2.012690355329949
G3 X47.401015228426395 Y42.18527918781726 I-10.736040609137056 J0
G3 X47.129441624365484 Y43.088832487309645 I-4.5456852791878175 J-0.868020304568528
G3 X46.68020304568528 Y43.91878172588832 I-4.276649746192893 J-1.7715736040609138
G3 X45.39340101522843 Y45.47715736040609 I-8.880710659898478 J-6.035532994923858
G1 X45.95888324873096 Y46.04238578680203 F1500
G3 X44.286802030456855 Y47.42639593908629 I-8.157360406091371 J-8.157360406091371 F1500
G3 X43.31218274111676 Y47.95177664974619 I-3.050761421319797 J-4.48984771573604
G3 X42.25126903553299 Y48.26903553299492 I-2.0786802030456855 J-5.0152284263959395
G3 X40.088832487309645 Y48.4746192893401 I-2.1624365482233503 J-11.33248730964467
G3 X37.92893401015228 Y48.26903553299492 I0 J-11.538071065989847
G3 X36.868020304568525 Y47.95177664974619 I1.017766497461929 J-5.33248730964467
G3 X35.89340101522843 Y47.42639593908629 I2.0786802030456855 J-5.0152284263959395
G3 X34.22081218274111 Y46.04314720812183 I6.484771573604061 J-9.543147208121827
G3 X32.83756345177665 Y44.370558375634516 I8.157360406091371 J-8.157360406091371
G3 X32.31218274111675 Y43.39593908629442 I4.48984771573604 J-3.050761421319797
G3 X31.994923857868017 Y42.335025380710654 I5.0152284263959395 J-2.0786802030456855
G3 X31.789340101522843 Y40.17258883248731 I11.33248730964467 J-2.1624365482233503
G3 X31.994923857868017 Y38.01269035532995 I11.538071065989847 J0
G3 X32.31218274111675 Y36.95177664974619 I5.33248730964467 J1.017766497461929
G3 X32.83756345177665 Y35.977157360406096 I5.0152284263959395 J2.0786802030456855
G3 X34.22081218274111 Y34.30456852791878 I9.543147208121827 J6.484771573604061
G3 X35.89340101522843 Y32.921319796954315 I8.157360406091371 J8.157360406091371
G3 X36.868020304568525 Y32.39593908629442 I3.050761421319797 J4.48984771573604
G3 X37.92893401015228 Y32.078680203045685 I2.0786802030456855 J5.0152284263959395
G3 X40.088832487309645 Y31.873096446700508 I2.1624365482233503 J11.33248730964467
G3 X42.25126903553299 Y32.078680203045685 I0 J11.538071065989847
G3 X43.31218274111676 Y32.39593908629442 I-1.017766497461929 J5.33248730964467
G3 X44.286802030456855 Y32.921319796954315 I-2.0786802030456855 J5.0152284263959395
G3 X45.95939086294416 Y34.30456852791878 I-6.484771573604061 J9.543147208121827
G3 X47.34263959390863 Y35.977157360406096 I-8.157360406091371 J8.157360406091371
G3 X47.86802030456853 Y36.95177664974619 I-4.48984771573604 J3.050761421319797
G3 X48.18527918781726 Y38.01269035532995 I-5.0152284263959395 J2.0786802030456855
G3 X48.390862944162436 Y40.17258883248731 I-11.33248730964467 J2.1624365482233503
G3 X48.18527918781726 Y42.335025380710654 I-11.538071065989847 J0
G3 X47.86802030456853 Y43.39593908629442 I-5.33248730964467 J-1.017766497461929
G3 X47.34263959390863 Y44.370558375634516 I-5.0152284263959395 J-2.0786802030456855
G3 X45.95939086294416 Y46.04314720812183 I-9.543147208121827 J-6.484771573604061
G1 X46.5246192893401 Y46.60812182741117 F1500
G3 X44.73604060913706 Y48.088832487309645 I-8.723350253807107 J-8.723350253807107 F1500
G3 X43.619289340101524 Y48.69035532994924 I-3.5 J-5.152284263959391
G3 X42.401015228426395 Y49.055837563451774 I-2.383248730964467 J-5.753807106598985
G3 X40.088832487309645 Y49.2741116751269 I-2.312182741116751 J-12.119289340101522
G3 X37.77918781725888 Y49.055837563451774 I0 J-12.33756345177665
G3 X36.56091370558376 Y48.69035532994924 I1.16751269035533 J-6.119289340101522
G3 X35.444162436548226 Y48.088832487309645 I2.383248730964467 J-5.753807106598985
G3 X33.654822335025386 Y46.609137055837564 I6.934010152284263 J-10.20304568527919
G3 X32.1751269035533 Y44.819796954314725 I8.723350253807107 J-8.723350253807107
G3 X31.571065989847718 Y43.700507614213194 I5.152284263959391 J-3.5
G3 X31.20812182741117 Y42.48477157360406 I5.753807106598985 J-2.383248730964467
G3 X30.98984771573604 Y40.17258883248731 I12.119289340101522 J-2.312182741116751
G3 X31.20812182741117 Y37.86294416243655 I12.33756345177665 J0
G3 X31.571065989847718 Y36.64467005076142 I6.119289340101522 J1.16751269035533
G3 X32.1751269035533 Y35.52791878172589 I5.753807106598985 J2.383248730964467
G3 X33.654822335025386 Y33.73857868020305 I10.20304568527919 J6.934010152284263
G3 X35.444162436548226 Y32.25888324873096 I8.723350253807107 J8.723350253807107
G3 X36.56091370558376 Y31.65482233502538 I3.5 J5.152284263959391
G3 X37.77918781725888 Y31.29187817258883 I2.383248730964467 J5.753807106598985
G3 X40.088832487309645 Y31.073604060913706 I2.312182741116751 J12.119289340101522
G3 X42.401015228426395 Y31.29187817258883 I0 J12.33756345177665
G3 X43.619289340101524 Y31.65482233502538 I-1.16751269035533 J6.119289340101522
G3 X44.73604060913706 Y32.25888324873096 I-2.383248730964467 J5.753807106598985
G3 X46.5253807106599 Y33.73857868020305 I-6.934010152284263 J10.20304568527919
G3 X48.00507614213198 Y35.52791878172589 I-8.723350253807107 J8.723350253807107
G3 X48.60659898477158 Y36.64467005076142 I-5.152284263959391 J3.5
G3 X48.97208121827411 Y37.86294416243655 I-5.753807106598985 J2.383248730964467
G3 X49.19035532994924 Y40.17258883248731 I-12.119289340101522 J2.312182741116751
G3 X48.97208121827411 Y42.48477157360406 I-12.33756345177665 J0
G3 X48.60659898477158 Y43.700507614213194 I-6.119289340101522 J-1.16751269035533
G3 X48.00507614213198 Y44.819796954314725 I-5.753807106598985 J-2.383248730964467
G3 X46.5253807106599 Y46.609137055837564 I-10.20304568527919 J-6.934010152284263
G1 X47.09035532994924 Y47.1736040609137 F1500
G3 X45.18527918781726 Y48.748730964467 I-9.289340101522843 J-9.289340101522843 F1500
G3 X43.923857868020306 Y49.42893401015229 I-3.951776649746193 J-5.812182741116752
G3 X42.5507614213198 Y49.84010152284264 I-2.6903553299492384 J-6.49492385786802
G3 X40.088832487309645 Y50.07360406091371 I-2.4619289340101522 J-12.903553299492385
G3 X37.629441624365484 Y49.84010152284264 I0 J-13.137055837563452
G3 X36.256345177664976 Y49.42893401015229 I1.3172588832487309 J-6.903553299492385
G3 X34.994923857868024 Y48.748730964467 I2.6903553299492384 J-6.49492385786802
G3 X33.088832487309645 Y47.172588832487314 I7.383248730964467 J-10.86548223350254
G3 X31.512690355329948 Y45.26903553299492 I9.289340101522843 J-9.289340101522843
G3 X30.83248730964467 Y44.00761421319797 I5.812182741116752 J-3.951776649746193
G3 X30.423857868020306 Y42.63451776649746 I6.49492385786802 J-2.6903553299492384
G3 X30.190355329949238 Y40.17258883248731 I12.903553299492385 J-2.4619289340101522
G3 X30.423857868020306 Y37.71065989847716 I13.137055837563452 J0
G3 X30.83248730964467 Y36.34010152284264 I6.903553299492385 J1.3172588832487309
G3 X31.512690355329948 Y35.078680203045685 I6.49492385786802 J2.6903553299492384
G3 X33.088832487309645 Y33.17258883248731 I10.86548223350254 J7.383248730964467
G3 X34.994923857868024 Y31.596446700507613 I9.289340101522843 J9.289340101522843
G3 X36.256345177664976 Y30.91624365482233 I3.951776649746193 J5.812182741116752
G3 X37.629441624365484 Y30.505076142131983 I2.6903553299492384 J6.49492385786802
G3 X40.088832487309645 Y30.274111675126903 I2.4619289340101522 J12.903553299492385
G3 X42.5507614213198 Y30.505076142131983 I0 J13.137055837563452
G3 X43.923857868020306 Y30.91624365482233 I-1.3172588832487309 J6.903553299492385
G3 X45.18527918781726 Y31.596446700507613 I-2.6903553299492384 J6.49492385786802
G3 X47.09137055837563 Y33.17258883248731 I-7.383248730964467 J10.86548223350254
G3 X48.66751269035533 Y35.078680203045685 I-9.289340101522843 J9.289340101522843
G3 X49.347715736040605 Y36.34010152284264 I-5.812182741116752 J3.951776649746193
G3 X49.756345177664976 Y37.71065989847716 I-6.49492385786802 J2.6903553299492384
G3 X49.98984771573604 Y40.17258883248731 I-12.903553299492385 J2.4619289340101522
G3 X49.756345177664976 Y42.63451776649746 I-13.137055837563452 J0
G3 X49.347715736040605 Y44.00761421319797 I-6.903553299492385 J-1.3172588832487309
G3 X48.66751269035533 Y45.26903553299492 I-6.49492385786802 J-2.6903553299492384
G3 X47.09137055837563 Y47.172588832487314 I-10.86548223350254 J-7.383248730964467
G1 X47.65609137055838 Y47.73934010152284 F1500
G3 X45.63451776649746 Y49.411167512690355 I-9.855329949238579 J-9.855329949238579 F1500
G3 X44.23096446700508 Y50.17005076142132 I-4.401015228426396 J-6.474619289340101
G3 X42.7005076142132 Y50.62690355329949 I-2.99492385786802 J-7.2335025380710665
G3 X40.088832487309645 Y50.87309644670051 I-2.6116751269035534 J-13.690355329949238
G3 X37.47969543147208 Y50.62690355329949 I0 J-13.936548223350254
G3 X35.9492385786802 Y50.17005076142132 I1.4670050761421318 J-7.690355329949239
G3 X34.545685279187815 Y49.411167512690355 I2.99492385786802 J-7.2335025380710665
G3 X32.522842639593904 Y47.73857868020305 I7.835025380710659 J-11.527918781725887
G3 X30.85279187817259 Y45.71827411167512 I9.855329949238579 J-9.855329949238579
G3 X30.093908629441625 Y44.31472081218274 I6.474619289340101 J-4.401015228426396
G3 X29.63705583756345 Y42.78426395939086 I7.2335025380710665 J-2.99492385786802
G3 X29.390862944162436 Y40.17258883248731 I13.690355329949238 J-2.6116751269035534
G3 X29.63705583756345 Y37.56091370558376 I13.936548223350254 J0
G3 X30.093908629441625 Y36.03299492385786 I7.690355329949239 J1.4670050761421318
G3 X30.85279187817259 Y34.629441624365484 I7.2335025380710665 J2.99492385786802
G3 X32.522842639593904 Y32.60659898477157 I11.527918781725887 J7.835025380710659
G3 X34.545685279187815 Y30.936548223350254 I9.855329949238579 J9.855329949238579
G3 X35.9492385786802 Y30.17766497461929 I4.401015228426396 J6.474619289340101
G3 X37.47969543147208 Y29.72081218274112 I2.99492385786802 J7.2335025380710665
G3 X40.088832487309645 Y29.474619289340104 I2.6116751269035534 J13.690355329949238
G3 X42.7005076142132 Y29.72081218274112 I0 J13.936548223350254
G3 X44.23096446700508 Y30.17766497461929 I-1.4670050761421318 J7.690355329949239
G3 X45.63451776649746 Y30.936548223350254 I-2.99492385786802 J7.2335025380710665
G3 X47.65482233502538 Y32.60659898477157 I-7.835025380710659 J11.527918781725887
G3 X49.32741116751269 Y34.629441624365484 I-9.855329949238579 J9.855329949238579
G3 X50.08629441624365 Y36.03299492385786 I-6.474619289340101 J4.401015228426396
G3 X50.54314720812183 Y37.56091370558376 I-7.2335025380710665 J2.99492385786802
G3 X50.789340101522846 Y40.17258883248731 I-13.690355329949238 J2.6116751269035534
G3 X50.54314720812183 Y42.78426395939086 I-13.936548223350254 J0
G3 X50.08629441624365 Y44.31472081218274 I-7.690355329949239 J-1.4670050761421318
G3 X49.32741116751269 Y45.71827411167512 I-7.2335025380710665 J-2.99492385786802
G3 X47.65482233502538 Y47.73857868020305 I-11.527918781725887 J-7.835025380710659
G1 X48.221573604060914 Y48.30507614213198 F1500
G3 X46.08375634517767 Y50.07360406091371 I-10.421319796954315 J-10.421319796954315 F1500
G3 X44.535532994923855 Y50.90862944162437 I-4.850253807106599 J-7.137055837563452
G3 X42.8502538071066 Y51.411167512690355 I-3.302030456852792 J-7.972081218274112
G3 X40.088832487309645 Y51.672588832487314 I-2.7614213197969546 J-14.477157360406093
G3 X37.32994923857868 Y51.411167512690355 I0 J-14.736040609137056
G3 X35.64213197969543 Y50.90862944162437 I1.6167512690355328 J-8.47715736040609
G3 X34.09644670050761 Y50.07360406091371 I3.302030456852792 J-7.972081218274112
G3 X31.95939086294416 Y48.304568527918775 I8.284263959390863 J-12.18781725888325
G3 X30.190355329949238 Y46.16751269035533 I10.421319796954315 J-10.421319796954315
G3 X29.355329949238577 Y44.619289340101524 I7.137055837563452 J-4.850253807106599
G3 X28.8502538071066 Y42.934010152284266 I7.972081218274112 J-3.302030456852792
G3 X28.588832487309645 Y40.17258883248731 I14.477157360406093 J-2.7614213197969546
G3 X28.8502538071066 Y37.411167512690355 I14.736040609137056 J0
G3 X29.355329949238577 Y35.7258883248731 I8.47715736040609 J1.6167512690355328
G3 X30.190355329949238 Y34.17766497461929 I7.972081218274112 J3.302030456852792
G3 X31.95939086294416 Y32.04060913705584 I12.18781725888325 J8.284263959390863
G3 X34.09644670050761 Y30.274111675126903 I10.421319796954315 J10.421319796954315
G3 X35.64213197969543 Y29.439086294416246 I4.850253807106599 J7.137055837563452
G3 X37.32994923857868 Y28.934010152284266 I3.302030456852792 J7.972081218274112
G3 X40.088832487309645 Y28.67258883248731 I2.7614213197969546 J14.477157360406093
G3 X42.8502538071066 Y28.934010152284266 I0 J14.736040609137056
G3 X44.535532994923855 Y29.439086294416246 I-1.6167512690355328 J8.47715736040609
G3 X46.08375634517767 Y30.274111675126903 I-3.302030456852792 J7.972081218274112
G3 X48.22081218274111 Y32.04060913705584 I-8.284263959390863 J12.18781725888325
G3 X49.98984771573604 Y34.17766497461929 I-10.421319796954315 J10.421319796954315
G3 X50.8248730964467 Y35.7258883248731 I-7.137055837563452 J4.850253807106599
G3 X51.32994923857868 Y37.411167512690355 I-7.972081218274112 J3.302030456852792
G3 X51.588832487309645 Y40.17258883248731 I-14.477157360406093 J2.7614213197969546
G3 X51.32994923857868 Y42.934010152284266 I-14.736040609137056 J0
G3 X50.8248730964467 Y44.619289340101524 I-8.47715736040609 J-1.6167512690355328
G3 X49.98984771573604 Y46.16751269035533 I-7.972081218274112 J-3.302030456852792
G3 X48.22081218274111 Y48.304568527918775 I-12.18781725888325 J-8.284263959390863
G1 X48.78730964467005 Y48.87081218274112 F1500
G3 X46.53553299492386 Y50.733502538071065 I-10.987309644670052 J-10.987309644670052 F1500
G3 X44.84263959390863 Y51.64720812182742 I-5.2994923857868015 J-7.7994923857868015
G3 X43 Y52.19796954314721 I-3.6091370558375635 J-8.710659898477157
G3 X40.088832487309645 Y52.4746192893401 I-2.9111675126903553 J-15.261421319796955
G3 X37.17766497461929 Y52.19796954314721 I0 J-15.538071065989847
G3 X35.33756345177665 Y51.64720812182742 I1.766497461928934 J-9.261421319796954
G3 X33.64467005076142 Y50.733502538071065 I3.6091370558375635 J-8.710659898477157
G3 X31.393401015228427 Y48.870558375634516 I8.733502538071066 J-12.8502538071066
G3 X29.527918781725887 Y46.61675126903553 I10.987309644670052 J-10.987309644670052
G3 X28.616751269035532 Y44.92639593908629 I7.7994923857868015 J-5.2994923857868015
G3 X28.065989847715738 Y43.08375634517766 I8.710659898477157 J-3.6091370558375635
G3 X27.789340101522843 Y40.17258883248731 I15.261421319796955 J-2.9111675126903553
G3 X28.065989847715738 Y37.26142131979695 I15.538071065989847 J0
G3 X28.616751269035532 Y35.421319796954315 I9.261421319796954 J1.766497461928934
G3 X29.527918781725887 Y33.72842639593909 I8.710659898477157 J3.6091370558375635
G3 X31.393401015228427 Y31.477157360406093 I12.8502538071066 J8.733502538071066
G3 X33.64467005076142 Y29.611675126903553 I10.987309644670052 J10.987309644670052
G3 X35.33756345177665 Y28.700507614213198 I5.2994923857868015 J7.7994923857868015
G3 X37.17766497461929 Y28.149746192893403 I3.6091370558375635 J8.710659898477157
G3 X40.088832487309645 Y27.873096446700508 I2.9111675126903553 J15.261421319796955
G3 X43 Y28.149746192893403 I0 J15.538071065989847
G3 X44.84263959390863 Y28.700507614213198 I-1.766497461928934 J9.261421319796954
G3 X46.53553299492386 Y29.611675126903553 I-3.6091370558375635 J8.710659898477157
G3 X48.786802030456855 Y31.477157360406093 I-8.733502538071066 J12.8502538071066
G3 X50.652284263959395 Y33.72842639593909 I-10.987309644670052 J10.987309644670052
G3 X51.56345177664974 Y35.421319796954315 I-7.7994923857868015 J5.2994923857868015
G3 X52.11421319796954 Y37.26142131979695 I-8.710659898477157 J3.6091370558375635
G3 X52.390862944162436 Y40.17258883248731 I-15.261421319796955 J2.9111675126903553
G3 X52.11421319796954 Y43.08375634517766 I-15.538071065989847 J0
G3 X51.56345177664974 Y44.92639593908629 I-9.261421319796954 J-1.766497461928934
G3 X50.652284263959395 Y46.61675126903553 I-8.710659898477157 J-3.6091370558375635
G3 X48.786802030456855 Y48.870558375634516 I-12.8502538071066 J-8.733502538071066
G1 X49.353045685279184 Y49.43654822335025 F1500
G3 X46.984771573604064 Y51.39593908629442 I-11.553299492385786 J-11.553299492385786 F1500
G3 X45.1497461928934 Y52.38578680203045 I-5.748730964467005 J-8.459390862944163
G3 X43.1497461928934 Y52.98477157360406 I-3.913705583756345 J-9.449238578680204
G3 X40.088832487309645 Y53.2741116751269 I-3.0609137055837565 J-16.048223350253807
G3 X37.02791878172589 Y52.98477157360406 I0 J-16.33756345177665
G3 X35.03045685279188 Y52.38578680203045 I1.916243654822335 J-10.048223350253807
G3 X33.19543147208122 Y51.39593908629442 I3.913705583756345 J-9.449238578680204
G3 X30.82741116751269 Y49.43654822335026 I9.18274111675127 J-13.512690355329948
G3 X28.868020304568528 Y47.068527918781726 I11.553299492385786 J-11.553299492385786
G3 X27.8756345177665 Y45.233502538071065 I8.459390862944163 J-5.748730964467005
G3 X27.279187817258883 Y43.233502538071065 I9.449238578680204 J-3.913705583756345
G3 X26.98984771573604 Y40.17258883248731 I16.048223350253807 J-3.0609137055837565
G3 X27.279187817258883 Y37.11167512690355 I16.33756345177665 J0
G3 X27.8756345177665 Y35.11421319796954 I10.048223350253807 J1.916243654822335
G3 X28.868020304568528 Y33.27918781725889 I9.449238578680204 J3.913705583756345
G3 X30.82741116751269 Y30.911167512690355 I13.512690355329948 J9.18274111675127
G3 X33.19543147208122 Y28.949238578680202 I11.553299492385786 J11.553299492385786
G3 X35.03045685279188 Y27.95939086294416 I5.748730964467005 J8.459390862944163
G3 X37.02791878172589 Y27.36294416243655 I3.913705583756345 J9.449238578680204
G3 X40.088832487309645 Y27.07360406091371 I3.0609137055837565 J16.048223350253807
G3 X43.1497461928934 Y27.36294416243655 I0 J16.33756345177665
G3 X45.1497461928934 Y27.95939086294416 I-1.916243654822335 J10.048223350253807
G3 X46.984771573604064 Y28.949238578680202 I-3.913705583756345 J9.449238578680204
G3 X49.35279187817259 Y30.911167512690355 I-9.18274111675127 J13.512690355329948
G3 X51.31218274111675 Y33.27918781725889 I-11.553299492385786 J11.553299492385786
G3 X52.30203045685279 Y35.11421319796954 I-8.459390862944163 J5.748730964467005
G3 X52.901015228426395 Y37.11167512690355 I-9.449238578680204 J3.913705583756345
G3 X53.19035532994924 Y40.17258883248731 I-16.048223350253807 J3.0609137055837565
G3 X52.901015228426395 Y43.233502538071065 I-16.33756345177665 J0
G3 X52.30203045685279 Y45.233502538071065 I-10.048223350253807 J-1.916243654822335
G3 X51.31218274111675 Y47.068527918781726 I-9.449238578680204 J-3.913705583756345
G3 X49.35279187817259 Y49.43654822335026 I-13.512690355329948 J-9.18274111675127
G1 X49.91878172588832 Y50.00203045685279 F1500
G3 X47.43401015228426 Y52.058375634517766 I-12.116751269035532 J-12.116751269035532 F1500
G3 X45.454314720812185 Y53.12690355329949 I-6.197969543147208 J-9.121827411167512
G3 X43.3020304568528 Y53.76903553299492 I-4.220812182741117 J-10.190355329949238
G3 X40.088832487309645 Y54.07360406091371 I-3.2106598984771573 J-16.83248730964467
G3 X36.878172588832484 Y53.76903553299492 I0 J-17.13705583756345
G3 X34.7258883248731 Y53.12690355329949 I2.065989847715736 J-10.83248730964467
G3 X32.746192893401016 Y52.058375634517766 I4.220812182741117 J-10.190355329949238
G3 X30.261421319796952 Y50.00253807106599 I9.631979695431472 J-14.17258883248731
G3 X28.205583756345177 Y47.517766497461935 I12.116751269035532 J-12.116751269035532
G3 X27.13705583756345 Y45.53807106598985 I9.121827411167512 J-6.197969543147208
G3 X26.49238578680203 Y43.38324873096447 I10.190355329949238 J-4.220812182741117
G3 X26.19035532994924 Y40.17258883248731 I16.83248730964467 J-3.2106598984771573
G3 X26.49238578680203 Y36.96192893401015 I17.13705583756345 J0
G3 X27.13705583756345 Y34.80710659898477 I10.83248730964467 J2.065989847715736
G3 X28.205583756345177 Y32.82994923857868 I10.190355329949238 J4.220812182741117
G3 X30.261421319796952 Y30.34517766497462 I14.17258883248731 J9.631979695431472
G3 X32.746192893401016 Y28.289340101522843 I12.116751269035532 J12.116751269035532
G3 X34.7258883248731 Y27.22081218274112 I6.197969543147208 J9.121827411167512
G3 X36.878172588832484 Y26.576142131979697 I4.220812182741117 J10.190355329949238
G3 X40.088832487309645 Y26.274111675126903 I3.2106598984771573 J16.83248730964467
G3 X43.3020304568528 Y26.576142131979697 I0 J17.13705583756345
G3 X45.454314720812185 Y27.22081218274112 I-2.065989847715736 J10.83248730964467
G3 X47.43401015228426 Y28.289340101522843 I-4.220812182741117 J10.190355329949238
G3 X49.91878172588833 Y30.34517766497462 I-9.631979695431472 J14.17258883248731
G3 X51.974619289340104 Y32.82994923857868 I-12.116751269035532 J12.116751269035532
G3 X53.04314720812183 Y34.80710659898477 I-9.121827411167512 J6.197969543147208
G3 X53.68527918781726 Y36.96192893401015 I-10.190355329949238 J4.220812182741117
G3 X53.98984771573603 Y40.17258883248731 I-16.83248730964467 J3.2106598984771573
G3 X53.68527918781726 Y43.38324873096447 I-17.13705583756345 J0
G3 X53.04314720812183 Y45.53807106598985 I-10.83248730964467 J-2.065989847715736
G3 X51.974619289340104 Y47.517766497461935 I-10.190355329949238 J-4.220812182741117
G3 X49.91878172588833 Y50.00253807106599 I-14.17258883248731 J-9.631979695431472
G1 X50.48451776649746 Y50.56776649746193 F1500
G3 X47.88324873096447 Y52.72081218274111 I-12.682741116751268 J-12.682741116751268 F1500
G3 X45.76142131979695 Y53.86548223350254 I-6.649746192893401 J-9.784263959390863
G3 X43.45177664974619 Y54.555837563451774 I-4.527918781725888 J-10.928934010152284
G3 X40.088832487309645 Y54.8730964467005 I-3.3604060913705585 J-17.619289340101524
G3 X36.72842639593909 Y54.555837563451774 I0 J-17.936548223350254
G3 X34.41878172588832 Y53.86548223350254 I2.215736040609137 J-11.619289340101522
G3 X32.296954314720814 Y52.72081218274111 I4.527918781725888 J-10.928934010152284
G3 X29.695431472081218 Y50.568527918781726 I10.081218274111674 J-14.835025380710661
G3 X27.543147208121827 Y47.96700507614213 I12.682741116751268 J-12.682741116751268
G3 X26.398477157360407 Y45.84517766497462 I9.784263959390863 J-6.649746192893401
G3 X25.708121827411166 Y43.53299492385787 I10.928934010152284 J-4.527918781725888
G3 X25.390862944162436 Y40.17258883248731 I17.619289340101524 J-3.3604060913705585
G3 X25.708121827411166 Y36.81218274111675 I17.936548223350254 J0
G3 X26.398477157360407 Y34.50253807106599 I11.619289340101522 J2.215736040609137
G3 X27.543147208121827 Y32.380710659898476 I10.928934010152284 J4.527918781725888
G3 X29.695431472081218 Y29.779187817258883 I14.835025380710661 J10.081218274111674
G3 X32.296954314720814 Y27.626903553299492 I12.682741116751268 J12.682741116751268
G3 X34.41878172588832 Y26.482233502538072 I6.649746192893401 J9.784263959390863
G3 X36.72842639593909 Y25.791878172588834 I4.527918781725888 J10.928934010152284
G3 X40.088832487309645 Y25.474619289340104 I3.3604060913705585 J17.619289340101524
G3 X43.45177664974619 Y25.791878172588834 I0 J17.936548223350254
G3 X45.76142131979695 Y26.482233502538072 I-2.215736040609137 J11.619289340101522
G3 X47.88324873096447 Y27.626903553299492 I-4.527918781725888 J10.928934010152284
G3 X50.48477157360406 Y29.779187817258883 I-10.081218274111674 J14.835025380710661
G3 X52.63705583756345 Y32.380710659898476 I-12.682741116751268 J12.682741116751268
G3 X53.78172588832487 Y34.50253807106599 I-9.784263959390863 J6.649746192893401
G3 X54.47208121827411 Y36.81218274111675 I-10.928934010152284 J4.527918781725888
G3 X54.78934010152284 Y40.17258883248731 I-17.619289340101524 J3.3604060913705585
G3 X54.47208121827411 Y43.53299492385787 I-17.936548223350254 J0
G3 X53.78172588832487 Y45.84517766497462 I-11.619289340101522 J-2.215736040609137
G3 X52.63705583756345 Y47.96700507614213 I-10.928934010152284 J-4.527918781725888
G3 X50.48477157360406 Y50.568527918781726 I-14.835025380710661 J-10.081218274111674
G1 X51.05 Y51.13350253807106 F1500
G3 X48.33248730964467 Y53.380710659898476 I-13.248730964467006 J-13.248730964467006 F1500
G3 X46.068527918781726 Y54.60406091370558 I-7.098984771573605 J-10.444162436548224
G3 X43.601522842639596 Y55.34263959390863 I-4.83248730964467 J-11.66751269035533
G3 X40.088832487309645 Y55.67258883248731 I-3.510152284263959 J-18.406091370558375
G3 X36.578680203045685 Y55.34263959390863 I0 J-18.736040609137056
G3 X34.111675126903556 Y54.60406091370558 I2.365482233502538 J-12.406091370558377
G3 X31.847715736040605 Y53.380710659898476 I4.83248730964467 J-11.66751269035533
G3 X29.129441624365484 Y51.13451776649746 I10.532994923857867 J-15.497461928934012
G3 X26.883248730964468 Y48.41624365482233 I13.248730964467006 J-13.248730964467006
G3 X25.65989847715736 Y46.1497461928934 I10.444162436548224 J-7.098984771573605
G3 X24.921319796954315 Y43.68527918781726 I11.66751269035533 J-4.83248730964467
G3 X24.588832487309645 Y40.17258883248731 I18.406091370558375 J-3.510152284263959
G3 X24.921319796954315 Y36.662436548223354 I18.736040609137056 J0
G3 X25.65989847715736 Y34.19543147208122 I12.406091370558377 J2.365482233502538
G3 X26.883248730964468 Y31.931472081218274 I11.66751269035533 J4.83248730964467
G3 X29.129441624365484 Y29.213197969543145 I15.497461928934012 J10.532994923857867
G3 X31.847715736040605 Y26.96446700507614 I13.248730964467006 J13.248730964467006
G3 X34.111675126903556 Y25.743654822335028 I7.098984771573605 J10.444162436548224
G3 X36.578680203045685 Y25.00507614213198 I4.83248730964467 J11.66751269035533
G3 X40.088832487309645 Y24.672588832487307 I3.510152284263959 J18.406091370558375
G3 X43.601522842639596 Y25.00507614213198 I0 J18.736040609137056
G3 X46.068527918781726 Y25.743654822335028 I-2.365482233502538 J12.406091370558377
G3 X48.33248730964467 Y26.96446700507614 I-4.83248730964467 J11.66751269035533
G3 X51.05076142131979 Y29.213197969543145 I-10.532994923857867 J15.497461928934012
G3 X53.296954314720814 Y31.931472081218274 I-13.248730964467006 J13.248730964467006
G3 X54.52030456852792 Y34.19543147208122 I-10.444162436548224 J7.098984771573605
G3 X55.25888324873097 Y36.662436548223354 I-11.66751269035533 J4.83248730964467
G3 X55.588832487309645 Y40.17258883248731 I-18.406091370558375 J3.510152284263959
G3 X55.25888324873097 Y43.68527918781726 I-18.736040609137056 J0
G3 X54.52030456852792 Y46.1497461928934 I-12.406091370558377 J-2.365482233502538
G3 X53.296954314720814 Y48.41624365482233 I-11.66751269035533 J-4.83248730964467
G3 X51.05076142131979 Y51.13451776649746 I-15.497461928934012 J-10.532994923857867
G1 X51.615736040609136 Y51.6992385786802 F1500
G3 X48.78172588832487 Y54.04314720812182 I-13.814720812182742 J-13.814720812182742 F1500
G3 X46.37309644670051 Y55.34263959390863 I-7.548223350253807 J-11.106598984771574
G3 X43.751269035533 Y56.12690355329949 I-5.1395939086294415 J-12.406091370558377
G3 X40.088832487309645 Y56.474619289340104 I-3.659898477157361 J-19.190355329949238
G3 X36.42893401015228 Y56.12690355329949 I0 J-19.538071065989847
G3 X33.807106598984774 Y55.34263959390863 I2.515228426395939 J-13.19035532994924
G3 X31.395939086294415 Y54.04314720812182 I5.1395939086294415 J-12.406091370558377
G3 X28.563451776649742 Y51.6979695431472 I10.98223350253807 J-16.15736040609137
G3 X26.220812182741117 Y48.86548223350254 I13.814720812182742 J-13.814720812182742
G3 X24.921319796954315 Y46.45685279187817 I11.106598984771574 J-7.548223350253807
G3 X24.13705583756345 Y43.83502538071066 I12.406091370558377 J-5.1395939086294415
G3 X23.789340101522846 Y40.17258883248731 I19.190355329949238 J-3.659898477157361
G3 X24.13705583756345 Y36.51269035532995 I19.538071065989847 J0
G3 X24.921319796954315 Y33.890862944162436 I13.19035532994924 J2.515228426395939
G3 X26.220812182741117 Y31.479695431472084 I12.406091370558377 J5.1395939086294415
G3 X28.563451776649742 Y28.64720812182741 I16.15736040609137 J10.98223350253807
G3 X31.395939086294415 Y26.304568527918782 I13.814720812182742 J13.814720812182742
G3 X33.807106598984774 Y25.00253807106599 I7.548223350253807 J11.106598984771574
G3 X36.42893401015228 Y24.21827411167513 I5.1395939086294415 J12.406091370558377
G3 X40.088832487309645 Y23.873096446700508 I3.659898477157361 J19.190355329949238
G3 X43.751269035533 Y24.21827411167513 I0 J19.538071065989847
G3 X46.37309644670051 Y25.00253807106599 I-2.515228426395939 J13.19035532994924
G3 X48.78172588832487 Y26.304568527918782 I-5.1395939086294415 J12.406091370558377
G3 X51.61675126903553 Y28.64720812182741 I-10.98223350253807 J16.15736040609137
G3 X53.95939086294416 Y31.479695431472084 I-13.814720812182742 J13.814720812182742
G3 X55.25888324873097 Y33.890862944162436 I-11.106598984771574 J7.548223350253807
G3 X56.04314720812183 Y36.51269035532995 I-12.406091370558377 J5.1395939086294415
G3 X56.39086294416244 Y40.17258883248731 I-19.190355329949238 J3.659898477157361
G3 X56.04314720812183 Y43.83502538071066 I-19.538071065989847 J0
G3 X55.25888324873097 Y46.45685279187817 I-13.19035532994924 J-2.515228426395939
G3 X53.95939086294416 Y48.86548223350254 I-12.406091370558377 J-5.1395939086294415
G3 X51.61675126903553 Y51.6979695431472 I-16.15736040609137 J-10.98223350253807
G1 X52.181472081218274 Y52.26497461928934 F1500
G3 X49.23350253807107 Y54.70558375634518 I-14.380710659898476 J-14.380710659898476 F1500
G3 X46.68020304568528 Y56.08121827411168 I-7.99746192893401 J-11.769035532994925
G3 X43.9010152284264 Y56.91370558375635 I-5.444162436548224 J-13.144670050761423
G3 X40.088832487309645 Y57.2741116751269 I-3.809644670050761 J-19.97715736040609
G3 X36.27918781725888 Y56.91370558375635 I0 J-20.33756345177665
G3 X33.5 Y56.08121827411168 I2.66497461928934 J-13.977157360406093
G3 X30.94670050761421 Y54.70558375634518 I5.444162436548224 J-13.144670050761423
G3 X27.997461928934012 Y52.263959390862944 I11.431472081218274 J-16.81979695431472
G3 X25.558375634517766 Y49.31472081218274 I14.380710659898476 J-14.380710659898476
G3 X24.180203045685282 Y46.763959390862944 I11.769035532994925 J-7.99746192893401
G3 X23.350253807106597 Y43.984771573604064 I13.144670050761423 J-5.444162436548224
G3 X22.98984771573604 Y40.17258883248731 I19.97715736040609 J-3.809644670050761
G3 X23.350253807106597 Y36.36294416243655 I20.33756345177665 J0
G3 X24.180203045685282 Y33.58375634517766 I13.977157360406093 J2.66497461928934
G3 X25.558375634517766 Y31.03045685279188 I13.144670050761423 J5.444162436548224
G3 X27.997461928934012 Y28.081218274111674 I16.81979695431472 J11.431472081218274
G3 X30.94670050761421 Y25.64213197969543 I14.380710659898476 J14.380710659898476
G3 X33.5 Y24.263959390862944 I7.99746192893401 J11.769035532994925
G3 X36.27918781725888 Y23.434010152284266 I5.444162436548224 J13.144670050761423
G3 X40.088832487309645 Y23.073604060913702 I3.809644670050761 J19.97715736040609
G3 X43.9010152284264 Y23.434010152284266 I0 J20.33756345177665
G3 X46.68020304568528 Y24.263959390862944 I-2.66497461928934 J13.977157360406093
G3 X49.23350253807107 Y25.64213197969543 I-5.444162436548224 J13.144670050761423
G3 X52.182741116751274 Y28.081218274111674 I-11.431472081218274 J16.81979695431472
G3 X54.621827411167516 Y31.03045685279188 I-14.380710659898476 J14.380710659898476
G3 X55.997461928934015 Y33.58375634517766 I-11.769035532994925 J7.99746192893401
G3 X56.829949238578685 Y36.36294416243655 I-13.144670050761423 J5.444162436548224
G3 X57.190355329949234 Y40.17258883248731 I-19.97715736040609 J3.809644670050761
G3 X56.829949238578685 Y43.984771573604064 I-20.33756345177665 J0
G3 X55.997461928934015 Y46.763959390862944 I-13.977157360406093 J-2.66497461928934
G3 X54.621827411167516 Y49.31472081218274 I-13.144670050761423 J-5.444162436548224
G3 X52.182741116751274 Y52.263959390862944 I-16.81979695431472 J-11.431472081218274
G1 X52.74720812182741 Y52.830456852791876 F1500
G3 X49.682741116751274 Y55.36548223350253 I-14.946700507614212 J-14.946700507614212 F1500
G3 X46.984771573604064 Y56.82233502538071 I-8.446700507614214 J-12.428934010152284
G3 X44.05076142131979 Y57.69796954314721 I-5.751269035532996 J-13.885786802030458
G3 X40.088832487309645 Y58.0736040609137 I-3.9593908629441628 J-20.763959390862944
G3 X36.129441624365484 Y57.69796954314721 I0 J-21.13705583756345
G3 X33.19543147208122 Y56.82233502538071 I2.814720812182741 J-14.761421319796955
G3 X30.497461928934012 Y55.36548223350253 I5.751269035532996 J-13.885786802030458
G3 X27.434010152284266 Y52.82994923857868 I11.880710659898476 J-17.482233502538072
G3 X24.895939086294415 Y49.766497461928935 I14.946700507614212 J-14.946700507614212
G3 X23.441624365482234 Y47.068527918781726 I12.428934010152284 J-8.446700507614214
G3 X22.56345177664975 Y44.13451776649747 I13.885786802030458 J-5.751269035532996
G3 X22.19035532994924 Y40.17258883248731 I20.763959390862944 J-3.9593908629441628
G3 X22.56345177664975 Y36.213197969543145 I21.13705583756345 J0
G3 X23.441624365482234 Y33.276649746192895 I14.761421319796955 J2.814720812182741
G3 X24.895939086294415 Y30.581218274111674 I13.885786802030458 J5.751269035532996
G3 X27.434010152284266 Y27.515228426395943 I17.482233502538072 J11.880710659898476
G3 X30.497461928934012 Y24.97969543147208 I14.946700507614212 J14.946700507614212
G3 X33.19543147208122 Y23.5253807106599 I8.446700507614214 J12.428934010152284
G3 X36.129441624365484 Y22.64720812182741 I5.751269035532996 J13.885786802030458
G3 X40.088832487309645 Y22.274111675126903 I3.9593908629441628 J20.763959390862944
G3 X44.05076142131979 Y22.64720812182741 I0 J21.13705583756345
G3 X46.984771573604064 Y23.5253807106599 I-2.814720812182741 J14.761421319796955
G3 X49.682741116751274 Y24.97969543147208 I-5.751269035532996 J13.885786802030458
G3 X52.746192893401016 Y27.515228426395943 I-11.880710659898476 J17.482233502538072
G3 X55.28172588832487 Y30.581218274111674 I-14.946700507614212 J14.946700507614212
G3 X56.73857868020305 Y33.276649746192895 I-12.428934010152284 J8.446700507614214
G3 X57.61675126903553 Y36.213197969543145 I-13.885786802030458 J5.751269035532996
G3 X57.98984771573604 Y40.17258883248731 I-20.763959390862944 J3.9593908629441628
G3 X57.61675126903553 Y44.13451776649747 I-21.13705583756345 J0
G3 X56.73857868020305 Y47.068527918781726 I-14.761421319796955 J-2.814720812182741
G3 X55.28172588832487 Y49.766497461928935 I-13.885786802030458 J-5.751269035532996
G3 X52.746192893401016 Y52.82994923857868 I-17.482233502538072 J-11.880710659898476
G1 X53.31294416243655 Y53.396192893401015 F1500
G3 X50.13197969543147 Y56.02791878172589 I-15.51269035532995 J-15.51269035532995 F1500
G3 X47.29187817258883 Y57.56091370558376 I-8.898477157360405 J-13.091370558375635
G3 X44.200507614213194 Y58.484771573604064 I-6.058375634517766 J-14.624365482233504
G3 X40.088832487309645 Y58.87309644670051 I-4.1091370558375635 J-21.548223350253807
G3 X35.97969543147208 Y58.484771573604064 I0 J-21.936548223350254
G3 X32.88832487309645 Y57.56091370558376 I2.967005076142132 J-15.548223350253807
G3 X30.048223350253807 Y56.02791878172589 I6.058375634517766 J-14.624365482233504
G3 X26.868020304568528 Y53.39593908629442 I12.329949238578681 J-18.144670050761423
G3 X24.236040609137056 Y50.21573604060913 I15.51269035532995 J-15.51269035532995
G3 X22.70304568527919 Y47.3756345177665 I13.091370558375635 J-8.898477157360405
G3 X21.779187817258887 Y44.284263959390856 I14.624365482233504 J-6.058375634517766
G3 X21.390862944162436 Y40.17258883248731 I21.548223350253807 J-4.1091370558375635
G3 X21.779187817258887 Y36.06345177664974 I21.936548223350254 J0
G3 X22.70304568527919 Y32.97208121827411 I15.548223350253807 J2.967005076142132
G3 X24.236040609137056 Y30.13197969543147 I14.624365482233504 J6.058375634517766
G3 X26.868020304568528 Y26.949238578680202 I18.144670050761423 J12.329949238578681
G3 X30.048223350253807 Y24.31979695431472 I15.51269035532995 J15.51269035532995
G3 X32.88832487309645 Y22.78680203045685 I8.898477157360405 J13.091370558375635
G3 X35.97969543147208 Y21.86294416243655 I6.058375634517766 J14.624365482233504
G3 X40.088832487309645 Y21.4746192893401 I4.1091370558375635 J21.548223350253807
G3 X44.200507614213194 Y21.86294416243655 I0 J21.936548223350254
G3 X47.29187817258883 Y22.78680203045685 I-2.967005076142132 J15.548223350253807
G3 X50.13197969543147 Y24.31979695431472 I-6.058375634517766 J14.624365482233504
G3 X53.31218274111676 Y26.949238578680202 I-12.329949238578681 J18.144670050761423
G3 X55.944162436548226 Y30.13197969543147 I-15.51269035532995 J15.51269035532995
G3 X57.477157360406096 Y32.97208121827411 I-13.091370558375635 J8.898477157360405
G3 X58.40101522842639 Y36.06345177664974 I-14.624365482233504 J6.058375634517766
G3 X58.789340101522846 Y40.17258883248731 I-21.548223350253807 J4.1091370558375635
G3 X58.40101522842639 Y44.284263959390856 I-21.936548223350254 J0
G3 X57.477157360406096 Y47.3756345177665 I-15.548223350253807 J-2.967005076142132
G3 X55.944162436548226 Y50.21573604060913 I-14.624365482233504 J-6.058375634517766
G3 X53.31218274111676 Y53.39593908629442 I-18.144670050761423 J-12.329949238578681
G1 X53.87842639593909 Y53.96192893401015 F1500
G3 X50.58121827411168 Y56.69035532994924 I-16.078680203045685 J-16.078680203045685 F1500
G3 X47.598984771573605 Y58.299492385786806 I-9.347715736040609 J-13.753807106598986
G3 X44.3502538071066 Y59.27157360406091 I-6.362944162436548 J-15.362944162436548
G3 X40.088832487309645 Y59.672588832487314 I-4.258883248730965 J-22.33502538071066
G3 X35.829949238578685 Y59.27157360406091 I0 J-22.736040609137053
G3 X32.58121827411168 Y58.299492385786806 I3.1167512690355332 J-16.33502538071066
G3 X29.5989847715736 Y56.69035532994924 I6.362944162436548 J-15.362944162436548
G3 X26.302030456852794 Y53.96192893401015 I12.779187817258883 J-18.804568527918782
G3 X23.573604060913706 Y50.66497461928934 I16.078680203045685 J-16.078680203045685
G3 X21.96446700507614 Y47.680203045685275 I13.753807106598986 J-9.347715736040609
G3 X20.992385786802032 Y44.43401015228426 I15.362944162436548 J-6.362944162436548
G3 X20.588832487309645 Y40.17258883248731 I22.33502538071066 J-4.258883248730965
G3 X20.992385786802032 Y35.91370558375635 I22.736040609137053 J0
G3 X21.96446700507614 Y32.66497461928934 I16.33502538071066 J3.1167512690355332
G3 X23.573604060913706 Y29.68274111675127 I15.362944162436548 J6.362944162436548
G3 X26.302030456852794 Y26.38578680203046 I18.804568527918782 J12.779187817258883
G3 X29.5989847715736 Y23.65736040609137 I16.078680203045685 J16.078680203045685
G3 X32.58121827411168 Y22.048223350253807 I9.347715736040609 J13.753807106598986
G3 X35.829949238578685 Y21.076142131979694 I6.362944162436548 J15.362944162436548
G3 X40.088832487309645 Y20.672588832487307 I4.258883248730965 J22.33502538071066
G3 X44.3502538071066 Y21.076142131979694 I0 J22.736040609137053
G3 X47.598984771573605 Y22.048223350253807 I-3.1167512690355332 J16.33502538071066
G3 X50.58121827411168 Y23.65736040609137 I-6.362944162436548 J15.362944162436548
G3 X53.87817258883249 Y26.38578680203046 I-12.779187817258883 J18.804568527918782
G3 X56.60659898477157 Y29.68274111675127 I-16.078680203045685 J16.078680203045685
G3 X58.215736040609144 Y32.66497461928934 I-13.753807106598986 J9.347715736040609
G3 X59.18781725888324 Y35.91370558375635 I-15.362944162436548 J6.362944162436548
G3 X59.588832487309645 Y40.17258883248731 I-22.33502538071066 J4.258883248730965
G3 X59.18781725888324 Y44.43401015228426 I-22.736040609137053 J0
G3 X58.215736040609144 Y47.680203045685275 I-16.33502538071066 J-3.1167512690355332
G3 X56.60659898477157 Y50.66497461928934 I-15.362944162436548 J-6.362944162436548
G3 X53.87817258883249 Y53.96192893401015 I-18.804568527918782 J-12.779187817258883
G1 X54.444162436548226 Y54.52766497461929 F1500
G3 X51.03045685279188 Y57.3502538071066 I-16.64213197969543 J-16.64213197969543 F1500
G3 X47.90355329949239 Y59.03807106598984 I-9.796954314720812 J-14.413705583756345
G3 X44.5 Y60.055837563451774 I-6.6700507614213205 J-16.101522842639593
G3 X40.088832487309645 Y60.4746192893401 I-4.411167512690356 J-23.119289340101524
G3 X35.68020304568528 Y60.055837563451774 I0 J-23.53807106598985
G3 X32.27664974619289 Y59.03807106598984 I3.266497461928934 J-17.119289340101524
G3 X29.149746192893403 Y57.3502538071066 I6.6700507614213205 J-16.101522842639593
G3 X25.736040609137056 Y54.527918781725894 I13.230964467005075 J-19.467005076142133
G3 X22.911167512690355 Y51.11421319796954 I16.64213197969543 J-16.64213197969543
G3 X21.225888324873097 Y47.98730964467005 I14.413705583756345 J-9.796954314720812
G3 X20.205583756345177 Y44.58375634517766 I16.101522842639593 J-6.6700507614213205
G3 X19.789340101522843 Y40.17258883248731 I23.119289340101524 J-4.411167512690356
G3 X20.205583756345177 Y35.763959390862944 I23.53807106598985 J0
G3 X21.225888324873097 Y32.36040609137056 I17.119289340101524 J3.266497461928934
G3 X22.911167512690355 Y29.23096446700508 I16.101522842639593 J6.6700507614213205
G3 X25.736040609137056 Y25.819796954314718 I19.467005076142133 J13.230964467005075
G3 X29.149746192893403 Y22.99492385786802 I16.64213197969543 J16.64213197969543
G3 X32.27664974619289 Y21.307106598984774 I9.796954314720812 J14.413705583756345
G3 X35.68020304568528 Y20.289340101522843 I6.6700507614213205 J16.101522842639593
G3 X40.088832487309645 Y19.873096446700508 I4.411167512690356 J23.119289340101524
G3 X44.5 Y20.289340101522843 I0 J23.53807106598985
G3 X47.90355329949239 Y21.307106598984774 I-3.266497461928934 J17.119289340101524
G3 X51.03045685279188 Y22.99492385786802 I-6.6700507614213205 J16.101522842639593
G3 X54.44416243654822 Y25.819796954314718 I-13.230964467005075 J19.467005076142133
G3 X57.26903553299493 Y29.23096446700508 I-16.64213197969543 J16.64213197969543
G3 X58.95431472081218 Y32.36040609137056 I-14.413705583756345 J9.796954314720812
G3 X59.97208121827411 Y35.763959390862944 I-16.101522842639593 J6.6700507614213205
G3 X60.390862944162436 Y40.17258883248731 I-23.119289340101524 J4.411167512690356
G3 X59.97208121827411 Y44.58375634517766 I-23.53807106598985 J0
G3 X58.95431472081218 Y47.98730964467005 I-17.119289340101524 J-3.266497461928934
G3 X57.26903553299493 Y51.11421319796954 I-16.101522842639593 J-6.6700507614213205
G3 X54.44416243654822 Y54.527918781725894 I-19.467005076142133 J-13.230964467005075
G1 X55.00989847715736 Y55.09340101522842 F1500
G3 X51.47969543147208 Y58.01269035532995 I-17.208121827411166 J-17.208121827411166 F1500
G3 X48.21065989847716 Y59.77664974619289 I-10.246192893401016 J-15.076142131979696
G3 X44.6497461928934 Y60.84263959390863 I-6.974619289340102 J-16.840101522842637
G3 X40.088832487309645 Y61.2741116751269 I-4.560913705583756 J-23.90609137055838
G3 X35.53045685279188 Y60.84263959390863 I0 J-24.33756345177665
G3 X31.969543147208125 Y59.77664974619289 I3.416243654822335 J-17.906091370558375
G3 X28.697969543147206 Y58.01269035532995 I6.974619289340102 J-16.840101522842637
G3 X25.17005076142132 Y55.09390862944162 I13.68020304568528 J-20.129441624365484
G3 X22.251269035532996 Y51.56345177664974 I17.208121827411166 J-17.208121827411166
G3 X20.48477157360406 Y48.29441624365482 I15.076142131979696 J-10.246192893401016
G3 X19.421319796954315 Y44.733502538071065 I16.840101522842637 J-6.974619289340102
G3 X18.98984771573604 Y40.17258883248731 I23.90609137055838 J-4.560913705583756
G3 X19.421319796954315 Y35.61421319796955 I24.33756345177665 J0
G3 X20.48477157360406 Y32.05329949238579 I17.906091370558375 J3.416243654822335
G3 X22.251269035532996 Y28.781725888324875 I16.840101522842637 J6.974619289340102
G3 X25.17005076142132 Y25.253807106598988 I20.129441624365484 J13.68020304568528
G3 X28.697969543147206 Y22.33502538071066 I17.208121827411166 J17.208121827411166
G3 X31.969543147208125 Y20.568527918781726 I10.246192893401016 J15.076142131979696
G3 X35.53045685279188 Y19.50507614213198 I6.974619289340102 J16.840101522842637
G3 X40.088832487309645 Y19.073604060913706 I4.560913705583756 J23.90609137055838
G3 X44.6497461928934 Y19.50507614213198 I0 J24.33756345177665
G3 X48.21065989847716 Y20.568527918781726 I-3.416243654822335 J17.906091370558375
G3 X51.47969543147208 Y22.33502538071066 I-6.974619289340102 J16.840101522842637
G3 X55.01015228426396 Y25.253807106598988 I-13.68020304568528 J20.129441624365484
G3 X57.92893401015228 Y28.781725888324875 I-17.208121827411166 J17.208121827411166
G3 X59.69543147208122 Y32.05329949238579 I-15.076142131979696 J10.246192893401016
G3 X60.75888324873097 Y35.61421319796955 I-16.840101522842637 J6.974619289340102
G3 X61.19035532994924 Y40.17258883248731 I-23.90609137055838 J4.560913705583756
G3 X60.75888324873097 Y44.733502538071065 I-24.33756345177665 J0
G3 X59.69543147208122 Y48.29441624365482 I-17.906091370558375 J-3.416243654822335
G3 X57.92893401015228 Y51.56345177664974 I-16.840101522842637 J-6.974619289340102
G3 X55.01015228426396 Y55.09390862944162 I-20.129441624365484 J-13.68020304568528
G1 X55.575634517766495 Y55.658883248730966 F1500
G3 X51.931472081218274 Y58.6751269035533 I-17.774111675126903 J-17.774111675126903 F1500
G3 X48.515228426395936 Y60.517766497461935 I-10.695431472081218 J-15.738578680203046
G3 X44.7994923857868 Y61.629441624365484 I-7.281725888324873 J-17.581218274111674
G3 X40.088832487309645 Y62.07360406091371 I-4.710659898477157 J-24.692893401015226
G3 X35.380710659898476 Y61.629441624365484 I0 J-25.13705583756345
G3 X31.66243654822335 Y60.517766497461935 I3.565989847715736 J-18.69289340101523
G3 X28.248730964467008 Y58.6751269035533 I7.281725888324873 J-17.581218274111674
G3 X24.604060913705585 Y55.659898477157356 I14.129441624365482 J-20.789340101522843
G3 X21.588832487309645 Y52.01269035532995 I17.774111675126903 J-17.774111675126903
G3 X19.746192893401016 Y48.5989847715736 I15.738578680203046 J-10.695431472081218
G3 X18.634517766497463 Y44.88324873096447 I17.581218274111674 J-7.281725888324873
G3 X18.190355329949238 Y40.17258883248731 I24.692893401015226 J-4.710659898477157
G3 X18.634517766497463 Y35.464467005076145 I25.13705583756345 J0
G3 X19.746192893401016 Y31.746192893401016 I18.69289340101523 J3.565989847715736
G3 X21.588832487309645 Y28.33248730964467 I17.581218274111674 J7.281725888324873
G3 X24.604060913705585 Y24.68781725888325 I20.789340101522843 J14.129441624365482
G3 X28.248730964467008 Y21.67258883248731 I17.774111675126903 J17.774111675126903
G3 X31.66243654822335 Y19.82994923857868 I10.695431472081218 J15.738578680203046
G3 X35.380710659898476 Y18.718274111675125 I7.281725888324873 J17.581218274111674
G3 X40.088832487309645 Y18.274111675126903 I4.710659898477157 J24.692893401015226
G3 X44.7994923857868 Y18.718274111675125 I0 J25.13705583756345
G3 X48.515228426395936 Y19.82994923857868 I-3.565989847715736 J18.69289340101523
G3 X51.931472081218274 Y21.67258883248731 I-7.281725888324873 J17.581218274111674
G3 X55.576142131979694 Y24.68781725888325 I-14.129441624365482 J20.789340101522843
G3 X58.59137055837564 Y28.33248730964467 I-17.774111675126903 J17.774111675126903
G3 X60.434010152284266 Y31.746192893401016 I-15.738578680203046 J10.695431472081218
G3 X61.54568527918782 Y35.464467005076145 I-17.581218274111674 J7.281725888324873
G3 X61.98984771573605 Y40.17258883248731 I-24.692893401015226 J4.710659898477157
G3 X61.54568527918782 Y44.88324873096447 I-25.13705583756345 J0
G3 X60.434010152284266 Y48.5989847715736 I-18.69289340101523 J-3.565989847715736
G3 X58.59137055837564 Y52.01269035532995 I-17.581218274111674 J-7.281725888324873
G3 X55.576142131979694 Y55.659898477157356 I-20.789340101522843 J-14.129441624365482
G1 X56.141370558375634 Y56.224619289340104 F1500
G3 X52.38071065989848 Y59.33502538071066 I-18.34010152284264 J-18.34010152284264 F1500
G3 X48.82233502538071 Y61.25634517766497 I-11.14467005076142 J-16.401015228426395
G3 X44.9492385786802 Y62.41370558375635 I-7.588832487309645 J-18.319796954314718
G3 X40.088832487309645 Y62.873096446700515 I-4.8604060913705585 J-25.47715736040609
G3 X35.23096446700507 Y62.41370558375635 I0 J-25.936548223350254
G3 X31.357868020304565 Y61.25634517766497 I3.715736040609137 J-19.477157360406093
G3 X27.799492385786802 Y59.33502538071066 I7.588832487309645 J-18.319796954314718
G3 X24.038071065989847 Y56.2258883248731 I14.578680203045685 J-21.451776649746193
G3 X20.926395939086294 Y52.464467005076145 I18.34010152284264 J-18.34010152284264
G3 X19.007614213197968 Y48.90609137055837 I16.401015228426395 J-11.14467005076142
G3 X17.8502538071066 Y45.03299492385786 I18.319796954314718 J-7.588832487309645
G3 X17.390862944162436 Y40.17258883248731 I25.47715736040609 J-4.8604060913705585
G3 X17.8502538071066 Y35.31472081218274 I25.936548223350254 J0
G3 X19.007614213197968 Y31.441624365482234 I19.477157360406093 J3.715736040609137
G3 X20.926395939086294 Y27.883248730964464 I18.319796954314718 J7.588832487309645
G3 X24.038071065989847 Y24.121827411167512 I21.451776649746193 J14.578680203045685
G3 X27.799492385786802 Y21.01015228426396 I18.34010152284264 J18.34010152284264
G3 X31.357868020304565 Y19.091370558375637 I11.14467005076142 J16.401015228426395
G3 X35.23096446700507 Y17.931472081218274 I7.588832487309645 J18.319796954314718
G3 X40.088832487309645 Y17.4746192893401 I4.8604060913705585 J25.47715736040609
G3 X44.9492385786802 Y17.931472081218274 I0 J25.936548223350254
G3 X48.82233502538071 Y19.091370558375637 I-3.715736040609137 J19.477157360406093
G3 X52.38071065989848 Y21.01015228426396 I-7.588832487309645 J18.319796954314718
G3 X56.142131979695435 Y24.121827411167512 I-14.578680203045685 J21.451776649746193
G3 X59.253807106598984 Y27.883248730964464 I-18.34010152284264 J18.34010152284264
G3 X61.17258883248731 Y31.441624365482234 I-16.401015228426395 J11.14467005076142
G3 X62.32994923857868 Y35.31472081218274 I-18.319796954314718 J7.588832487309645
G3 X62.78934010152284 Y40.17258883248731 I-25.47715736040609 J4.8604060913705585
G3 X62.32994923857868 Y45.03299492385786 I-25.936548223350254 J0
G3 X61.17258883248731 Y48.90609137055837 I-19.477157360406093 J-3.715736040609137
G3 X59.253807106598984 Y52.464467005076145 I-18.319796954314718 J-7.588832487309645
G3 X56.142131979695435 Y56.2258883248731 I-21.451776649746193 J-14.578680203045685
G1 X56.70685279187817 Y56.790355329949236 F1500
G3 X52.82994923857868 Y59.99746192893401 I-18.906091370558375 J-18.906091370558375 F1500
G3 X49.129441624365484 Y61.99492385786802 I-11.596446700507615 J-17.060913705583754
G3 X45.098984771573605 Y63.2005076142132 I-7.893401015228426 J-19.058375634517766
G3 X40.088832487309645 Y63.67258883248731 I-5.010152284263959 J-26.263959390862944
G3 X35.08121827411168 Y63.2005076142132 I0 J-26.736040609137056
G3 X31.050761421319798 Y61.99492385786802 I3.865482233502538 J-20.263959390862944
G3 X27.350253807106597 Y59.99746192893401 I7.893401015228426 J-19.058375634517766
G3 X23.47208121827411 Y56.78934010152284 I15.027918781725889 J-22.114213197969544
G3 X20.266497461928935 Y52.91370558375634 I18.906091370558375 J-18.906091370558375
G3 X18.269035532994923 Y49.213197969543145 I17.060913705583754 J-11.596446700507615
G3 X17.063451776649746 Y45.18274111675127 I19.058375634517766 J-7.893401015228426
G3 X16.588832487309645 Y40.17258883248731 I26.263959390862944 J-5.010152284263959
G3 X17.063451776649746 Y35.16497461928934 I26.736040609137056 J0
G3 X18.269035532994923 Y31.134517766497463 I20.263959390862944 J3.865482233502538
G3 X20.266497461928935 Y27.434010152284266 I19.058375634517766 J7.893401015228426
G3 X23.47208121827411 Y23.555837563451778 I22.114213197969544 J15.027918781725889
G3 X27.350253807106597 Y20.34771573604061 I18.906091370558375 J18.906091370558375
G3 X31.050761421319798 Y18.35279187817259 I11.596446700507615 J17.060913705583754
G3 X35.08121827411168 Y17.14720812182741 I7.893401015228426 J19.058375634517766
G3 X40.088832487309645 Y16.67258883248731 I5.010152284263959 J26.263959390862944
G3 X45.098984771573605 Y17.14720812182741 I0 J26.736040609137056
G3 X49.129441624365484 Y18.35279187817259 I-3.865482233502538 J20.263959390862944
G3 X52.82994923857868 Y20.34771573604061 I-7.893401015228426 J19.058375634517766
G3 X56.70812182741117 Y23.555837563451778 I-15.027918781725889 J22.114213197969544
G3 X59.91370558375635 Y27.434010152284266 I-18.906091370558375 J18.906091370558375
G3 X61.911167512690355 Y31.134517766497463 I-17.060913705583754 J11.596446700507615
G3 X63.11675126903553 Y35.16497461928934 I-19.058375634517766 J7.893401015228426
G3 X63.588832487309645 Y40.17258883248731 I-26.263959390862944 J5.010152284263959
G3 X63.11675126903553 Y45.18274111675127 I-26.736040609137056 J0
G3 X61.911167512690355 Y49.213197969543145 I-20.263959390862944 J-3.865482233502538
G3 X59.91370558375635 Y52.91370558375634 I-19.058375634517766 J-7.893401015228426
G3 X56.70812182741117 Y56.78934010152284 I-22.114213197969544 J-15.027918781725889
G1 X57.27258883248731 Y57.356091370558374 F1500
G3 X53.27918781725888 Y60.659898477157356 I-19.472081218274113 J-19.472081218274113 F1500
G3 X49.43401015228426 Y62.733502538071065 I-12.045685279187817 J-17.723350253807105
G3 X45.24873096446701 Y63.984771573604064 I-8.200507614213198 J-19.79695431472081
G3 X40.088832487309645 Y64.4746192893401 I-5.159898477157361 J-27.048223350253807
G3 X34.931472081218274 Y63.984771573604064 I0 J-27.538071065989847
G3 X30.746192893401016 Y62.733502538071065 I4.0152284263959395 J-21.048223350253807
G3 X26.901015228426395 Y60.659898477157356 I8.200507614213198 J-19.79695431472081
G3 X22.90609137055838 Y57.35532994923858 I15.47969543147208 J-22.774111675126903
G3 X19.604060913705585 Y53.36294416243655 I19.472081218274113 J-19.472081218274113
G3 X17.53045685279188 Y49.51776649746193 I17.723350253807105 J-12.045685279187817
G3 X16.27664974619289 Y45.33248730964467 I19.79695431472081 J-8.200507614213198
G3 X15.789340101522843 Y40.17258883248731 I27.048223350253807 J-5.159898477157361
G3 X16.27664974619289 Y35.01269035532995 I27.538071065989847 J0
G3 X17.53045685279188 Y30.82741116751269 I21.048223350253807 J4.0152284263959395
G3 X19.604060913705585 Y26.98477157360406 I19.79695431472081 J8.200507614213198
G3 X22.90609137055838 Y22.98984771573604 I22.774111675126903 J15.47969543147208
G3 X26.901015228426395 Y19.68781725888325 I19.472081218274113 J19.472081218274113
G3 X30.746192893401016 Y17.611675126903556 I12.045685279187817 J17.723350253807105
G3 X34.931472081218274 Y16.360406091370557 I8.200507614213198 J19.79695431472081
G3 X40.088832487309645 Y15.873096446700508 I5.159898477157361 J27.048223350253807
G3 X45.24873096446701 Y16.360406091370557 I0 J27.538071065989847
G3 X49.43401015228426 Y17.611675126903556 I-4.0152284263959395 J21.048223350253807
G3 X53.27918781725888 Y19.68781725888325 I-8.200507614213198 J19.79695431472081
G3 X57.27157360406092 Y22.98984771573604 I-15.47969543147208 J22.774111675126903
G3 X60.576142131979694 Y26.98477157360406 I-19.472081218274113 J19.472081218274113
G3 X62.6497461928934 Y30.82741116751269 I-17.723350253807105 J12.045685279187817
G3 X63.9010152284264 Y35.01269035532995 I-19.79695431472081 J8.200507614213198
G3 X64.39086294416244 Y40.17258883248731 I-27.048223350253807 J5.159898477157361
G3 X63.9010152284264 Y45.33248730964467 I-27.538071065989847 J0
G3 X62.6497461928934 Y49.51776649746193 I-21.048223350253807 J-4.0152284263959395
G3 X60.576142131979694 Y53.36294416243655 I-19.79695431472081 J-8.200507614213198
G3 X57.27157360406092 Y57.35532994923858 I-22.774111675126903 J-15.47969543147208
G1 X57.83832487309645 Y57.92182741116751 F1500
G3 X53.72842639593909 Y61.32233502538071 I-20.038071065989847 J-20.038071065989847 F1500
G3 X49.74111675126903 Y63.47208121827411 I-12.49492385786802 J-18.385786802030456
G3 X45.398477157360404 Y64.77157360406092 I-8.50761421319797 J-20.53553299492386
G3 X40.088832487309645 Y65.2741116751269 I-5.309644670050762 J-27.835025380710658
G3 X34.78172588832487 Y64.77157360406092 I0 J-28.33756345177665
G3 X30.439086294416242 Y63.47208121827411 I4.16497461928934 J-21.83502538071066
G3 X26.451776649746193 Y61.32233502538071 I8.50761421319797 J-20.53553299492386
G3 X22.34263959390863 Y57.92131979695432 I15.928934010152284 J-23.436548223350254
G3 X18.941624365482234 Y53.81218274111675 I20.038071065989847 J-20.038071065989847
G3 X16.789340101522843 Y49.824873096446694 I18.385786802030456 J-12.49492385786802
G3 X15.49238578680203 Y45.48223350253807 I20.53553299492386 J-8.50761421319797
G3 X14.98984771573604 Y40.17258883248731 I27.835025380710658 J-5.309644670050762
G3 X15.49238578680203 Y34.86294416243655 I28.33756345177665 J0
G3 X16.789340101522843 Y30.52284263959391 I21.83502538071066 J4.16497461928934
G3 X18.941624365482234 Y26.53299492385787 I20.53553299492386 J8.50761421319797
G3 X22.34263959390863 Y22.423857868020303 I23.436548223350254 J15.928934010152284
G3 X26.451776649746193 Y19.0253807106599 I20.038071065989847 J20.038071065989847
G3 X30.439086294416242 Y16.873096446700508 I12.49492385786802 J18.385786802030456
G3 X34.78172588832487 Y15.576142131979696 I8.50761421319797 J20.53553299492386
G3 X40.088832487309645 Y15.073604060913706 I5.309644670050762 J27.835025380710658
G3 X45.398477157360404 Y15.576142131979696 I0 J28.33756345177665
G3 X49.74111675126903 Y16.873096446700508 I-4.16497461928934 J21.83502538071066
G3 X53.72842639593909 Y19.0253807106599 I-8.50761421319797 J20.53553299492386
G3 X57.837563451776646 Y22.423857868020303 I-15.928934010152284 J23.436548223350254
G3 X61.23857868020305 Y26.53299492385787 I-20.038071065989847 J20.038071065989847
G3 X63.390862944162436 Y30.52284263959391 I-18.385786802030456 J12.49492385786802
G3 X64.68781725888324 Y34.86294416243655 I-20.53553299492386 J8.50761421319797
G3 X65.19035532994923 Y40.17258883248731 I-27.835025380710658 J5.309644670050762
G3 X64.68781725888324 Y45.48223350253807 I-28.33756345177665 J0
G3 X63.390862944162436 Y49.824873096446694 I-21.83502538071066 J-4.16497461928934
G3 X61.23857868020305 Y53.81218274111675 I-20.53553299492386 J-8.50761421319797
G3 X57.837563451776646 Y57.92131979695432 I-23.436548223350254 J-15.928934010152284
G1 X58.404060913705585 Y58.48730964467005 F1500
G3 X54.17766497461929 Y61.982233502538065 I-20.60406091370558 J-20.60406091370558 F1500
G3 X50.04822335025381 Y64.21319796954315 I-12.944162436548224 J-19.045685279187815
G3 X45.54822335025381 Y65.55837563451776 I-8.81218274111675 J-21.276649746192895
G3 X40.088832487309645 Y66.07360406091371 I-5.459390862944162 J-28.621827411167512
G3 X34.629441624365484 Y65.55837563451776 I0 J-29.13705583756345
G3 X30.13197969543147 Y64.21319796954315 I4.314720812182741 J-22.621827411167512
G3 X26 Y61.982233502538065 I8.81218274111675 J-21.276649746192895
G3 X21.776649746192895 Y58.48730964467005 I16.378172588832488 J-24.098984771573605
G3 X18.281725888324875 Y54.26142131979695 I20.60406091370558 J-20.60406091370558
G3 X16.050761421319798 Y50.12944162436548 I19.045685279187815 J-12.944162436548224
G3 X14.705583756345177 Y45.63197969543147 I21.276649746192895 J-8.81218274111675
G3 X14.190355329949238 Y40.17258883248731 I28.621827411167512 J-5.459390862944162
G3 X14.705583756345177 Y34.713197969543145 I29.13705583756345 J0
G3 X16.050761421319798 Y30.215736040609137 I22.621827411167512 J4.314720812182741
G3 X18.281725888324875 Y26.083756345177665 I21.276649746192895 J8.81218274111675
G3 X21.776649746192895 Y21.860406091370557 I24.098984771573605 J16.378172588832488
G3 X26 Y18.36294416243655 I20.60406091370558 J20.60406091370558
G3 X30.13197969543147 Y16.134517766497463 I12.944162436548224 J19.045685279187815
G3 X34.629441624365484 Y14.789340101522843 I8.81218274111675 J21.276649746192895
G3 X40.088832487309645 Y14.274111675126903 I5.459390862944162 J28.621827411167512
G3 X45.54822335025381 Y14.789340101522843 I0 J29.13705583756345
G3 X50.04822335025381 Y16.134517766497463 I-4.314720812182741 J22.621827411167512
G3 X54.17766497461929 Y18.36294416243655 I-8.81218274111675 J21.276649746192895
G3 X58.40355329949239 Y21.860406091370557 I-16.378172588832488 J24.098984771573605
G3 X61.898477157360404 Y26.083756345177665 I-20.60406091370558 J20.60406091370558
G3 X64.12944162436548 Y30.215736040609137 I-19.045685279187815 J12.944162436548224
G3 X65.4746192893401 Y34.713197969543145 I-21.276649746192895 J8.81218274111675
G3 X65.98984771573603 Y40.17258883248731 I-28.621827411167512 J5.459390862944162
G3 X65.4746192893401 Y45.63197969543147 I-29.13705583756345 J0
G3 X64.12944162436548 Y50.12944162436548 I-22.621827411167512 J-4.314720812182741
G3 X61.898477157360404 Y54.26142131979695 I-21.276649746192895 J-8.81218274111675
G3 X58.40355329949239 Y58.48730964467005 I-24.098984771573605 J-16.378172588832488
G1 X58.969796954314724 Y59.05304568527919 F1500
G3 X54.629441624365484 Y62.64467005076142 I-21.167512690355327 J-21.167512690355327 F1500
G3 X50.35279187817259 Y64.9517766497462 I-13.393401015228426 J-19.708121827411166
G3 X45.69796954314721 Y66.34263959390863 I-9.119289340101522 J-22.01522842639594
G3 X40.088832487309645 Y66.8730964467005 I-5.609137055837563 J-29.406091370558375
G3 X34.47969543147208 Y66.34263959390863 I0 J-29.93654822335025
G3 X29.82741116751269 Y64.9517766497462 I4.464467005076142 J-23.406091370558375
G3 X25.550761421319798 Y62.64467005076142 I9.119289340101522 J-22.01522842639594
G3 X21.210659898477154 Y59.05329949238578 I16.827411167512693 J-24.758883248730964
G3 X17.619289340101524 Y54.71065989847716 I21.167512690355327 J-21.167512690355327
G3 X15.31218274111675 Y50.43654822335025 I19.708121827411166 J-13.393401015228426
G3 X13.921319796954315 Y45.78172588832487 I22.01522842639594 J-9.119289340101522
G3 X13.390862944162436 Y40.17258883248731 I29.406091370558375 J-5.609137055837563
G3 X13.921319796954315 Y34.56345177664974 I29.93654822335025 J0
G3 X15.31218274111675 Y29.911167512690355 I23.406091370558375 J4.464467005076142
G3 X17.619289340101524 Y25.63451776649746 I22.01522842639594 J9.119289340101522
G3 X21.210659898477154 Y21.294416243654823 I24.758883248730964 J16.827411167512693
G3 X25.550761421319798 Y17.70304568527919 I21.167512690355327 J21.167512690355327
G3 X29.82741116751269 Y15.395939086294417 I13.393401015228426 J19.708121827411166
G3 X34.47969543147208 Y14.002538071065992 I9.119289340101522 J22.01522842639594
G3 X40.088832487309645 Y13.474619289340101 I5.609137055837563 J29.406091370558375
G3 X45.69796954314721 Y14.002538071065992 I0 J29.93654822335025
G3 X50.35279187817259 Y15.395939086294417 I-4.464467005076142 J23.406091370558375
G3 X54.629441624365484 Y17.70304568527919 I-9.119289340101522 J22.01522842639594
G3 X58.96954314720812 Y21.294416243654823 I-16.827411167512693 J24.758883248730964
G3 X62.56091370558376 Y25.63451776649746 I-21.167512690355327 J21.167512690355327
G3 X64.86802030456853 Y29.911167512690355 I-19.708121827411166 J13.393401015228426
G3 X66.25888324873097 Y34.56345177664974 I-22.01522842639594 J9.119289340101522
G3 X66.78934010152284 Y40.17258883248731 I-29.406091370558375 J5.609137055837563
G3 X66.25888324873097 Y45.78172588832487 I-29.93654822335025 J0
G3 X64.86802030456853 Y50.43654822335025 I-23.406091370558375 J-4.464467005076142
G3 X62.56091370558376 Y54.71065989847716 I-22.01522842639594 J-9.119289340101522
G3 X58.96954314720812 Y59.05329949238578 I-24.758883248730964 J-16.827411167512693
G1 X59.53527918781726 Y59.618781725888326 F1500
G3 X55.07868020304569 Y63.307106598984774 I-21.733502538071065 J-21.733502538071065 F1500
G3 X50.659898477157356 Y65.69035532994924 I-13.842639593908629 J-20.37055837563452
G3 X45.850253807106604 Y67.12944162436548 I-9.423857868020304 J-22.753807106598988
G3 X40.088832487309645 Y67.6725888324873 I-5.758883248730965 J-30.19289340101523
G3 X34.32994923857868 Y67.12944162436548 I0 J-30.736040609137056
G3 X29.52030456852792 Y65.69035532994924 I4.614213197969543 J-24.19289340101523
G3 X25.101522842639593 Y63.307106598984774 I9.423857868020304 J-22.753807106598988
G3 X20.644670050761423 Y59.619289340101524 I17.276649746192895 J-25.421319796954315
G3 X16.956852791878173 Y55.162436548223354 I21.733502538071065 J-21.733502538071065
G3 X14.573604060913706 Y50.743654822335024 I20.37055837563452 J-13.842639593908629
G3 X13.134517766497462 Y45.931472081218274 I22.753807106598988 J-9.423857868020304
G3 X12.588832487309645 Y40.17258883248731 I30.19289340101523 J-5.758883248730965
G3 X13.134517766497462 Y34.41370558375635 I30.736040609137056 J0
G3 X14.573604060913706 Y29.604060913705585 I24.19289340101523 J4.614213197969543
G3 X16.956852791878173 Y25.185279187817258 I22.753807106598988 J9.423857868020304
G3 X20.644670050761423 Y20.728426395939085 I25.421319796954315 J17.276649746192895
G3 X25.101522842639593 Y17.04060913705584 I21.733502538071065 J21.733502538071065
G3 X29.52030456852792 Y14.657360406091371 I13.842639593908629 J20.37055837563452
G3 X34.32994923857868 Y13.218274111675129 I9.423857868020304 J22.753807106598988
G3 X40.088832487309645 Y12.67258883248731 I5.758883248730965 J30.19289340101523
G3 X45.850253807106604 Y13.218274111675129 I0 J30.736040609137056
G3 X50.659898477157356 Y14.657360406091371 I-4.614213197969543 J24.19289340101523
G3 X55.07868020304569 Y17.04060913705584 I-9.423857868020304 J22.753807106598988
G3 X59.535532994923855 Y20.728426395939085 I-17.276649746192895 J25.421319796954315
G3 X63.223350253807105 Y25.185279187817258 I-21.733502538071065 J21.733502538071065
G3 X65.60659898477158 Y29.604060913705585 I-20.37055837563452 J13.842639593908629
G3 X67.04568527918782 Y34.41370558375635 I-22.753807106598988 J9.423857868020304
G3 X67.58883248730965 Y40.17258883248731 I-30.19289340101523 J5.758883248730965
G3 X67.04568527918782 Y45.931472081218274 I-30.736040609137056 J0
G3 X65.60659898477158 Y50.743654822335024 I-24.19289340101523 J-4.614213197969543
G3 X63.223350253807105 Y55.162436548223354 I-22.753807106598988 J-9.423857868020304
G3 X59.535532994923855 Y59.619289340101524 I-25.421319796954315 J-17.276649746192895
G1 X60.1010152284264 Y60.184517766497464 F1500
G3 X55.52791878172589 Y63.96700507614213 I-22.299492385786802 J-22.299492385786802 F1500
G3 X50.96446700507614 Y66.42893401015228 I-14.294416243654823 J-21.03045685279188
G3 X46 Y67.91370558375634 I-9.730964467005077 J-23.492385786802032
G3 X40.088832487309645 Y68.4746192893401 I-5.908629441624366 J-30.97969543147208
G3 X34.18020304568528 Y67.91370558375634 I0 J-31.538071065989847
G3 X29.213197969543145 Y66.42893401015228 I4.763959390862944 J-24.97969543147208
G3 X24.65228426395939 Y63.96700507614213 I9.730964467005077 J-23.492385786802032
G3 X20.078680203045685 Y60.18527918781726 I17.725888324873097 J-26.083756345177665
G3 X16.294416243654823 Y55.61167512690355 I22.299492385786802 J-22.299492385786802
G3 X13.83502538071066 Y51.04822335025381 I21.03045685279188 J-14.294416243654823
G3 X12.347715736040609 Y46.08121827411168 I23.492385786802032 J-9.730964467005077
G3 X11.789340101522843 Y40.17258883248731 I30.97969543147208 J-5.908629441624366
G3 X12.347715736040609 Y34.263959390862944 I31.538071065989847 J0
G3 X13.83502538071066 Y29.296954314720814 I24.97969543147208 J4.763959390862944
G3 X16.294416243654823 Y24.736040609137056 I23.492385786802032 J9.730964467005077
G3 X20.078680203045685 Y20.162436548223347 I26.083756345177665 J17.725888324873097
G3 X24.65228426395939 Y16.378172588832488 I22.299492385786802 J22.299492385786802
G3 X29.213197969543145 Y13.916243654822335 I14.294416243654823 J21.03045685279188
G3 X34.18020304568528 Y12.431472081218274 I9.730964467005077 J23.492385786802032
G3 X40.088832487309645 Y11.873096446700508 I5.908629441624366 J30.97969543147208
G3 X46 Y12.431472081218274 I0 J31.538071065989847
G3 X50.96446700507614 Y13.916243654822335 I-4.763959390862944 J24.97969543147208
G3 X55.52791878172589 Y16.378172588832488 I-9.730964467005077 J23.492385786802032
G3 X60.101522842639596 Y20.162436548223347 I-17.725888324873097 J26.083756345177665
G3 X63.88324873096447 Y24.736040609137056 I-22.299492385786802 J22.299492385786802
G3 X66.34517766497461 Y29.296954314720814 I-21.03045685279188 J14.294416243654823
G3 X67.83248730964468 Y34.263959390862944 I-23.492385786802032 J9.730964467005077
G3 X68.39086294416244 Y40.17258883248731 I-30.97969543147208 J5.908629441624366
G3 X67.83248730964468 Y46.08121827411168 I-31.538071065989847 J0
G3 X66.34517766497461 Y51.04822335025381 I-24.97969543147208 J-4.763959390862944
G3 X63.88324873096447 Y55.61167512690355 I-23.492385786802032 J-9.730964467005077
G3 X60.101522842639596 Y60.18527918781726 I-26.083756345177665 J-17.725888324873097
G1 X60.66675126903553 Y60.750253807106596 F1500
G3 X55.97715736040609 Y64.62944162436548 I-22.865482233502537 J-22.865482233502537 F1500
G3 X51.27157360406091 Y67.16751269035532 I-14.743654822335026 J-21.69289340101523
G3 X46.1497461928934 Y68.7005076142132 I-10.038071065989849 J-24.23096446700508
G3 X40.088832487309645 Y69.2741116751269 I-6.058375634517766 J-31.763959390862944
G3 X34.03045685279188 Y68.7005076142132 I0 J-32.33756345177665
G3 X28.908629441624363 Y67.16751269035532 I4.913705583756346 J-25.763959390862944
G3 X24.203045685279186 Y64.62944162436548 I10.038071065989849 J-24.23096446700508
G3 X19.512690355329948 Y60.751269035533 I18.17766497461929 J-26.746192893401016
G3 X15.634517766497462 Y56.06091370558375 I22.865482233502537 J-22.865482233502537
G3 X13.093908629441625 Y51.35532994923857 I21.69289340101523 J-14.743654822335026
G3 X11.563451776649746 Y46.23096446700508 I24.23096446700508 J-10.038071065989849
G3 X10.98984771573604 Y40.17258883248731 I31.763959390862944 J-6.058375634517766
G3 X11.563451776649746 Y34.11421319796955 I32.33756345177665 J0
G3 X13.093908629441625 Y28.99238578680203 I25.763959390862944 J4.913705583756346
G3 X15.634517766497462 Y24.28680203045685 I24.23096446700508 J10.038071065989849
G3 X19.512690355329948 Y19.596446700507613 I26.746192893401016 J18.17766497461929
G3 X24.203045685279186 Y15.718274111675129 I22.865482233502537 J22.865482233502537
G3 X28.908629441624363 Y13.17766497461929 I14.743654822335026 J21.69289340101523
G3 X34.03045685279188 Y11.647208121827411 I10.038071065989849 J24.23096446700508
G3 X40.088832487309645 Y11.073604060913706 I6.058375634517766 J31.763959390862944
G3 X46.1497461928934 Y11.647208121827411 I0 J32.33756345177665
G3 X51.27157360406091 Y13.17766497461929 I-4.913705583756346 J25.763959390862944
G3 X55.97715736040609 Y15.718274111675129 I-10.038071065989849 J24.23096446700508
G3 X60.66751269035534 Y19.596446700507613 I-18.17766497461929 J26.746192893401016
G3 X64.54568527918782 Y24.28680203045685 I-22.865482233502537 J22.865482233502537
G3 X67.08629441624366 Y28.99238578680203 I-21.69289340101523 J14.743654822335026
G3 X68.61675126903553 Y34.11421319796955 I-24.23096446700508 J10.038071065989849
G3 X69.19035532994924 Y40.17258883248731 I-31.763959390862944 J6.058375634517766
G3 X68.61675126903553 Y46.23096446700508 I-32.33756345177665 J0
G3 X67.08629441624366 Y51.35532994923857 I-25.763959390862944 J-4.913705583756346
G3 X64.54568527918782 Y56.06091370558375 I-24.23096446700508 J-10.038071065989849
G3 X60.66751269035534 Y60.751269035533 I-26.746192893401016 J-18.17766497461929
G1 X61.23248730964467 Y61.31573604060914 F1500
G3 X56.4263959390863 Y65.29187817258884 I-23.431472081218274 J-23.431472081218274 F1500
G3 X51.578680203045685 Y67.90862944162437 I-15.192893401015228 J-22.35532994923858
G3 X46.299492385786806 Y69.48730964467005 I-10.342639593908629 J-24.972081218274113
G3 X40.088832487309645 Y70.07360406091371 I-6.208121827411167 J-32.5507614213198
G3 X33.880710659898476 Y69.48730964467005 I0 J-33.13705583756345
G3 X28.601522842639593 Y67.90862944162437 I5.063451776649747 J-26.550761421319798
G3 X23.753807106598984 Y65.29187817258884 I10.342639593908629 J-24.972081218274113
G3 X18.946700507614214 Y61.31472081218274 I18.626903553299492 J-27.406091370558375
G3 X14.972081218274111 Y56.51015228426396 I23.431472081218274 J-23.431472081218274
G3 X12.355329949238579 Y51.66243654822335 I22.35532994923858 J-15.192893401015228
G3 X10.776649746192895 Y46.38324873096447 I24.972081218274113 J-10.342639593908629
G3 X10.190355329949238 Y40.17258883248731 I32.5507614213198 J-6.208121827411167
G3 X10.776649746192895 Y33.964467005076145 I33.13705583756345 J0
G3 X12.355329949238579 Y28.68527918781726 I26.550761421319798 J5.063451776649747
G3 X14.972081218274111 Y23.83502538071066 I24.972081218274113 J10.342639593908629
G3 X18.946700507614214 Y19.03045685279188 I27.406091370558375 J18.626903553299492
G3 X23.753807106598984 Y15.055837563451778 I23.431472081218274 J23.431472081218274
G3 X28.601522842639593 Y12.439086294416244 I15.192893401015228 J22.35532994923858
G3 X33.880710659898476 Y10.860406091370558 I10.342639593908629 J24.972081218274113
G3 X40.088832487309645 Y10.274111675126905 I6.208121827411167 J32.5507614213198
G3 X46.299492385786806 Y10.860406091370558 I0 J33.13705583756345
G3 X51.578680203045685 Y12.439086294416244 I-5.063451776649747 J26.550761421319798
G3 X56.4263959390863 Y15.055837563451778 I-10.342639593908629 J24.972081218274113
G3 X61.233502538071065 Y19.03045685279188 I-18.626903553299492 J27.406091370558375
G3 X65.20812182741116 Y23.83502538071066 I-23.431472081218274 J23.431472081218274
G3 X67.8248730964467 Y28.68527918781726 I-22.35532994923858 J15.192893401015228
G3 X69.40355329949239 Y33.964467005076145 I-24.972081218274113 J10.342639593908629
G3 X69.98984771573605 Y40.17258883248731 I-32.5507614213198 J6.208121827411167
G3 X69.40355329949239 Y46.38324873096447 I-33.13705583756345 J0
G3 X67.8248730964467 Y51.66243654822335 I-26.550761421319798 J-5.063451776649747
G3 X65.20812182741116 Y56.51015228426396 I-24.972081218274113 J-10.342639593908629
G3 X61.233502538071065 Y61.31472081218274 I-27.406091370558375 J-18.626903553299492
G1 X61.79822335025381 Y61.88147208121828 F1500
G3 X56.87817258883249 Y65.9517766497462 I-23.997461928934012 J-23.997461928934012 F1500
G3 X51.88324873096447 Y68.6472081218274 I-15.642131979695431 J-23.01522842639594
G3 X46.44923857868021 Y70.27157360406092 I-10.649746192893401 J-25.710659898477157
G3 X40.088832487309645 Y70.87309644670052 I-6.3578680203045685 J-33.33502538071066
G3 X33.73096446700507 Y70.27157360406092 I0 J-33.93654822335026
G3 X28.296954314720814 Y68.6472081218274 I5.213197969543147 J-27.33502538071066
G3 X23.30203045685279 Y65.9517766497462 I10.649746192893401 J-25.710659898477157
G3 X18.38071065989848 Y61.88071065989848 I19.076142131979697 J-28.068527918781726
G3 X14.30964467005076 Y56.95939086294416 I23.997461928934012 J-23.997461928934012
G3 X11.616751269035532 Y51.96700507614213 I23.01522842639594 J-15.642131979695431
G3 X9.98984771573604 Y46.53299492385787 I25.710659898477157 J-10.649746192893401
G3 X9.390862944162437 Y40.17258883248731 I33.33502538071066 J-6.3578680203045685
G3 X9.98984771573604 Y33.81472081218274 I33.93654822335026 J0
G3 X11.616751269035532 Y28.378172588832488 I27.33502538071066 J5.213197969543147
G3 X14.30964467005076 Y23.385786802030456 I25.710659898477157 J10.649746192893401
G3 X18.38071065989848 Y18.46446700507614 I28.068527918781726 J19.076142131979697
G3 X23.30203045685279 Y14.393401015228427 I23.997461928934012 J23.997461928934012
G3 X28.296954314720814 Y11.700507614213198 I15.642131979695431 J23.01522842639594
G3 X33.73096446700507 Y10.073604060913706 I10.649746192893401 J25.710659898477157
G3 X40.088832487309645 Y9.474619289340101 I6.3578680203045685 J33.33502538071066
G3 X46.44923857868021 Y10.073604060913706 I0 J33.93654822335026
G3 X51.88324873096447 Y11.700507614213198 I-5.213197969543147 J27.33502538071066
G3 X56.87817258883249 Y14.393401015228427 I-10.649746192893401 J25.710659898477157
G3 X61.79695431472081 Y18.46446700507614 I-19.076142131979697 J28.068527918781726
G3 X65.87055837563452 Y23.385786802030456 I-23.997461928934012 J23.997461928934012
G3 X68.56345177664974 Y28.378172588832488 I-23.01522842639594 J15.642131979695431
G3 X70.18781725888326 Y33.81472081218274 I-25.710659898477157 J10.649746192893401
G3 X70.78934010152284 Y40.17258883248731 I-33.33502538071066 J6.3578680203045685
G3 X70.18781725888326 Y46.53299492385787 I-33.93654822335026 J0
G3 X68.56345177664974 Y51.96700507614213 I-27.33502538071066 J-5.213197969543147
G3 X65.87055837563452 Y56.95939086294416 I-25.710659898477157 J-10.649746192893401
G3 X61.79695431472081 Y61.88071065989848 I-28.068527918781726 J-19.076142131979697
G1 X62.36370558375634 Y62.44720812182741 F1500
G3 X57.32741116751269 Y66.61421319796955 I-24.563451776649746 J-24.563451776649746 F1500
G3 X52.190355329949234 Y69.38578680203045 I-16.091370558375637 J-23.67766497461929
G3 X46.59898477157361 Y71.05837563451777 I-10.956852791878173 J-26.449238578680202
G3 X40.088832487309645 Y71.67258883248732 I-6.50761421319797 J-34.12182741116751
G3 X33.58121827411168 Y71.05837563451777 I0 J-34.736040609137056
G3 X27.98984771573604 Y69.38578680203045 I5.362944162436548 J-28.121827411167516
G3 X22.85279187817259 Y66.61421319796955 I10.956852791878173 J-26.449238578680202
G3 X17.81725888324873 Y62.44670050761421 I19.5253807106599 J-28.730964467005077
G3 X13.649746192893401 Y57.411167512690355 I24.563451776649746 J-24.563451776649746
G3 X10.878172588832486 Y52.2741116751269 I23.67766497461929 J-16.091370558375637
G3 X9.205583756345177 Y46.682741116751274 I26.449238578680202 J-10.956852791878173
G3 X8.588832487309645 Y40.17258883248731 I34.12182741116751 J-6.50761421319797
G3 X9.205583756345177 Y33.66497461928934 I34.736040609137056 J0
G3 X10.878172588832486 Y28.073604060913702 I28.121827411167516 J5.362944162436548
G3 X13.649746192893401 Y22.936548223350254 I26.449238578680202 J10.956852791878173
G3 X17.81725888324873 Y17.898477157360407 I28.730964467005077 J19.5253807106599
G3 X22.85279187817259 Y13.733502538071065 I24.563451776649746 J24.563451776649746
G3 X27.98984771573604 Y10.961928934010153 I16.091370558375637 J23.67766497461929
G3 X33.58121827411168 Y9.289340101522843 I10.956852791878173 J26.449238578680202
G3 X40.088832487309645 Y8.67258883248731 I6.50761421319797 J34.12182741116751
G3 X46.59898477157361 Y9.289340101522843 I0 J34.736040609137056
G3 X52.190355329949234 Y10.961928934010153 I-5.362944162436548 J28.121827411167516
G3 X57.32741116751269 Y13.733502538071065 I-10.956852791878173 J26.449238578680202
G3 X62.36294416243655 Y17.898477157360407 I-19.5253807106599 J28.730964467005077
G3 X66.53045685279187 Y22.936548223350254 I-24.563451776649746 J24.563451776649746
G3 X69.30203045685279 Y28.073604060913702 I-23.67766497461929 J16.091370558375637
G3 X70.9746192893401 Y33.66497461928934 I-26.449238578680202 J10.956852791878173
G3 X71.58883248730965 Y40.17258883248731 I-34.12182741116751 J6.50761421319797
G3 X70.9746192893401 Y46.682741116751274 I-34.736040609137056 J0
G3 X69.30203045685279 Y52.2741116751269 I-28.121827411167516 J-5.362944162436548
G3 X66.53045685279187 Y57.411167512690355 I-26.449238578680202 J-10.956852791878173
G3 X62.36294416243655 Y62.44670050761421 I-28.730964467005077 J-19.5253807106599
G1 X62.92944162436548 Y63.01294416243655 F1500
G3 X57.77664974619289 Y67.27664974619289 I-25.129441624365484 J-25.129441624365484 F1500
G3 X52.49746192893401 Y70.1243654822335 I-16.54060913705584 J-24.34010152284264
G3 X46.748730964467 Y71.84517766497461 I-11.261421319796954 J-27.18781725888325
