(Generated by PartKam Version 0.05)

G21 G90 G40

(pocket 1)
G0 Z3.175
T0 M6
G17
M3
G0 X70.59035532994923 Y44.44796954314721
G1 Z-0.8890862944162436 F10
G1 X70.59137055837564 Y46.93401015228426 F500
G2 X69.04314720812182 Y46.380710659898476 I-1.8832487309644668 J2.8274111675126905
G1 X69.2005076142132 Y46.22081218274111
G2 X69.7994923857868 Y45.568527918781726 I-10.210659898477157 J-10.00253807106599
G2 X70.26649746192894 Y44.969543147208114 I-5.624365482233502 J-4.865482233502538
G2 X70.59137055837564 Y44.4492385786802 I-4.51015228426396 J-3.157360406091371
G0 Z3.175
G0 X50.08756345177665 Y64.04771573604062
G1 Z-0.8890862944162436 F10
G1 X50.088832487309645 Y61.954314720812185 F500
G2 X51.7258883248731 Y62.51522842639594 I1.8832487309644668 J-2.8274111675126905
G1 X51.692893401015226 Y62.5507614213198
G2 X51.1751269035533 Y63.154822335025386 I4.756345177664975 J4.593908629441624
G2 X50.7258883248731 Y63.86294416243655 I4.129441624365483 J3.1243654822335025
G2 X50.63451776649746 Y64.0482233502538 I4.1725888324873095 J2.2030456852791875
G1 X50.088832487309645 Y64.0482233502538
G0 Z3.175
G0 X49.28807106598985 Y64.8472081218274
G1 Z-0.8890862944162436 F10
G1 X49.286802030456855 Y43.63451776649746 F500
G1 X49.37309644670051 Y43.63451776649746
G1 X49.37309644670051 Y59.12690355329949
G2 X53.83756345177665 Y60.934010152284266 I2.5989847715736043 J0
G1 X68.62944162436548 Y45.662436548223354
G2 X69.19543147208122 Y45.045685279187815 I-9.639593908629442 J-9.441624365482234
G2 X69.61167512690355 Y44.51015228426396 I-5.020304568527919 J-4.34010152284264
G2 X70.05583756345177 Y43.72842639593909 I-3.8527918781725887 J-2.7005076142131976
G2 X70.09390862944161 Y43.63705583756345 I-2.779187817258883 J-1.2385786802030458
G1 X71.39086294416244 Y43.63705583756345
G1 X71.39086294416244 Y64.84771573604061
G1 X71.30456852791879 Y64.84771573604061
G1 X71.30456852791879 Y49.76142131979695
G2 X66.83248730964466 Y47.961928934010146 I-2.5989847715736043 J0
G1 X52.26903553299493 Y63.10659898477158
G2 X51.81472081218274 Y63.63705583756345 I4.180203045685279 J4.038071065989848
G2 X51.434010152284266 Y64.23604060913705 I3.4923857868020303 J2.6421319796954315
G2 X51.1751269035533 Y64.84771573604061 I3.4670050761421316 J1.8299492385786804
G1 X49.286802030456855 Y64.84771573604061
G0 Z3.175
G0 X72.98908629441624 Y43.068527918781726
G1 Z-0.8890862944162436 F10
G1 X72.98984771573603 Y65.43401015228427 F500
G2 X73.01776649746193 Y65.85279187817258 I3.2030456852791875 J0
G2 X73.0989847715736 Y66.23857868020305 I2.383248730964467 J-0.3147208121827411
G2 X73.1751269035533 Y66.44670050761421 I2.0583756345177666 J-0.6243654822335025
G1 X69.52030456852792 Y66.44670050761421
G2 X69.59390862944163 Y66.23857868020305 I-1.9847715736040608 J-0.8350253807106599
G2 X69.67766497461929 Y65.85279187817258 I-2.302030456852792 J-0.7005076142131981
G2 X69.70558375634518 Y65.43401015228427 I-3.1675126903553297 J-0.41878172588832485
G1 X69.70558375634518 Y49.76142131979695
G2 X67.98730964467005 Y49.07106598984772 I-1 J0
G1 X53.41878172588832 Y64.21827411167513
G2 X53.088832487309645 Y64.6015228426396 I3.030456852791878 J2.9289340101522843
G2 X52.84771573604061 Y64.98223350253807 I2.215736040609137 J1.6776649746192893
G2 X52.662436548223354 Y65.44670050761422 I2.053299492385787 J1.0837563451776648
G2 X52.59644670050761 Y65.93654822335026 I1.7741116751269035 J0.49238578680203043
G2 X52.664974619289346 Y66.44670050761421 I1.9086294416243654 J0
G1 X47.50253807106599 Y66.44670050761421
G2 X47.57868020304569 Y66.23857868020305 I-1.9847715736040608 J-0.8350253807106599
G2 X47.662436548223354 Y65.85279187817258 I-2.302030456852792 J-0.7005076142131981
G2 X47.68781725888325 Y65.43401015228427 I-3.1675126903553297 J-0.41878172588832485
G1 X47.68781725888325 Y43.068527918781726
G2 X47.662436548223354 Y42.64467005076142 I-3.32994923857868 J0
G2 X47.57868020304569 Y42.256345177664976 I-2.436548223350254 J0.31218274111675126
G2 X47.5 Y42.035532994923855 I-2.083756345177665 J0.6192893401015229
G1 X51.159898477157356 Y42.035532994923855
G2 X51.08121827411168 Y42.256345177664976 I2.00253807106599 J0.8375634517766497
G2 X51 Y42.64213197969543 I2.3527918781725887 J0.7005076142131981
G2 X50.97208121827411 Y43.068527918781726 I3.307106598984771 J0.42385786802030456
G1 X50.97208121827411 Y59.12690355329949
G2 X52.690355329949234 Y59.82233502538071 I1 J0
G1 X67.48730964467005 Y44.54314720812182
G2 X67.98730964467005 Y44 I-8.49746192893401 J-8.32233502538071
G2 X68.30203045685279 Y43.59390862944163 I-3.809644670050761 J-3.2944162436548226
G2 X68.59390862944163 Y43.076142131979694 I-2.5431472081218276 J-1.7817258883248732
G2 X68.72081218274111 Y42.48730964467005 I-1.3197969543147208 J-0.5888324873096447
G2 X68.66497461928934 Y42.035532994923855 I-1.8629441624365481 J0
G1 X73.17766497461929 Y42.035532994923855
G2 X73.0989847715736 Y42.256345177664976 I2.00253807106599 J0.8375634517766497
G2 X73.01522842639594 Y42.64467005076142 I2.3527918781725887 J0.7005076142131981
G2 X72.98984771573603 Y43.068527918781726 I3.307106598984771 J0.42385786802030456
G0 Z3.175
G0 X36.05482233502538 Y44.44796954314721
G1 Z-0.8890862944162436 F10
G1 X36.055837563451774 Y46.93401015228426 F500
G2 X34.50761421319797 Y46.380710659898476 I-1.8832487309644668 J2.8274111675126905
G1 X34.66497461928934 Y46.22081218274111
G2 X35.263959390862944 Y45.568527918781726 I-10.210659898477157 J-10.00253807106599
G2 X35.73096446700508 Y44.969543147208114 I-5.624365482233502 J-4.865482233502538
G2 X36.055837563451774 Y44.4492385786802 I-4.51015228426396 J-3.157360406091371
G0 Z3.175
G0 X15.552030456852792 Y64.04771573604062
G1 Z-0.8890862944162436 F10
G1 X15.550761421319796 Y61.954314720812185 F500
G2 X17.190355329949238 Y62.51522842639594 I1.8832487309644668 J-2.8274111675126905
G1 X17.15736040609137 Y62.5507614213198
G2 X16.639593908629443 Y63.154822335025386 I4.756345177664975 J4.593908629441624
G2 X16.190355329949238 Y63.86294416243655 I4.129441624365483 J3.1243654822335025
G2 X16.098984771573605 Y64.0482233502538 I4.1725888324873095 J2.2030456852791875
G1 X15.550761421319796 Y64.0482233502538
G0 Z3.175
G0 X14.75253807106599 Y64.8472081218274
G1 Z-0.8890862944162436 F10
G1 X14.751269035532994 Y43.63451776649746 F500
G1 X14.83756345177665 Y43.63451776649746
G1 X14.83756345177665 Y59.12690355329949
G2 X19.30203045685279 Y60.934010152284266 I2.5989847715736043 J0
G1 X34.09390862944163 Y45.662436548223354
G2 X34.65989847715736 Y45.045685279187815 I-9.639593908629442 J-9.441624365482234
G2 X35.076142131979694 Y44.51015228426396 I-5.020304568527919 J-4.34010152284264
G2 X35.52030456852792 Y43.72842639593909 I-3.8527918781725887 J-2.7005076142131976
G2 X35.558375634517766 Y43.63705583756345 I-2.779187817258883 J-1.2385786802030458
G1 X36.85532994923858 Y43.63705583756345
G1 X36.85532994923858 Y64.84771573604061
G1 X36.76903553299492 Y64.84771573604061
G1 X36.76903553299492 Y49.76142131979695
G2 X32.296954314720814 Y47.961928934010146 I-2.5989847715736043 J0
G1 X17.733502538071065 Y63.10659898477158
G2 X17.279187817258883 Y63.63705583756345 I4.180203045685279 J4.038071065989848
G2 X16.898477157360404 Y64.23604060913705 I3.4923857868020303 J2.6421319796954315
G2 X16.639593908629443 Y64.84771573604061 I3.4670050761421316 J1.8299492385786804
G1 X14.751269035532994 Y64.84771573604061
G0 Z3.175
G0 X38.453553299492384 Y43.068527918781726
G1 Z-0.8890862944162436 F10
G1 X38.45431472081218 Y65.43401015228427 F500
G2 X38.47969543147208 Y65.85279187817258 I3.2030456852791875 J0
G2 X38.56345177664974 Y66.23857868020305 I2.383248730964467 J-0.3147208121827411
G2 X38.63959390862944 Y66.44670050761421 I2.0583756345177666 J-0.6243654822335025
G1 X34.98477157360406 Y66.44670050761421
G2 X35.058375634517766 Y66.23857868020305 I-1.9847715736040608 J-0.8350253807106599
G2 X35.142131979695435 Y65.85279187817258 I-2.302030456852792 J-0.7005076142131981
G2 X35.17005076142132 Y65.43401015228427 I-3.1675126903553297 J-0.41878172588832485
G1 X35.17005076142132 Y49.76142131979695
G2 X33.45177664974619 Y49.07106598984772 I-1 J0
G1 X18.883248730964468 Y64.21827411167513
G2 X18.553299492385786 Y64.6015228426396 I3.030456852791878 J2.9289340101522843
G2 X18.31218274111675 Y64.98223350253807 I2.215736040609137 J1.6776649746192893
G2 X18.126903553299492 Y65.44670050761422 I2.053299492385787 J1.0837563451776648
G2 X18.060913705583758 Y65.93654822335026 I1.7741116751269035 J0.49238578680203043
G2 X18.129441624365484 Y66.44670050761421 I1.9086294416243654 J0
G1 X12.967005076142133 Y66.44670050761421
G2 X13.043147208121828 Y66.23857868020305 I-1.9847715736040608 J-0.8350253807106599
G2 X13.126903553299492 Y65.85279187817258 I-2.302030456852792 J-0.7005076142131981
G2 X13.152284263959391 Y65.43401015228427 I-3.1675126903553297 J-0.41878172588832485
G1 X13.152284263959391 Y43.068527918781726
G2 X13.126903553299492 Y42.64467005076142 I-3.32994923857868 J0
G2 X13.043147208121828 Y42.256345177664976 I-2.436548223350254 J0.31218274111675126
G2 X12.964467005076141 Y42.035532994923855 I-2.083756345177665 J0.6192893401015229
G1 X16.624365482233504 Y42.035532994923855
G2 X16.545685279187815 Y42.256345177664976 I2.00253807106599 J0.8375634517766497
G2 X16.46446700507614 Y42.64213197969543 I2.3527918781725887 J0.7005076142131981
G2 X16.436548223350254 Y43.068527918781726 I3.307106598984771 J0.42385786802030456
G1 X16.436548223350254 Y59.12690355329949
G2 X18.15482233502538 Y59.82233502538071 I1 J0
G1 X32.95177664974619 Y44.54314720812182
G2 X33.4492385786802 Y44 I-8.49746192893401 J-8.32233502538071
G2 X33.766497461928935 Y43.59390862944163 I-3.809644670050761 J-3.2944162436548226
G2 X34.058375634517766 Y43.076142131979694 I-2.5431472081218276 J-1.7817258883248732
G2 X34.18527918781726 Y42.48730964467005 I-1.3197969543147208 J-0.5888324873096447
G2 X34.129441624365484 Y42.035532994923855 I-1.8629441624365481 J0
G1 X38.642131979695435 Y42.035532994923855
G2 X38.56345177664974 Y42.256345177664976 I2.00253807106599 J0.8375634517766497
G2 X38.47969543147208 Y42.64467005076142 I2.3527918781725887 J0.7005076142131981
G2 X38.45431472081218 Y43.068527918781726 I3.307106598984771 J0.42385786802030456
G0 Z3.175
G0 X122.32868020304568 Y54.573857868020305
G1 Z-0.8890862944162436 F10
G1 X119.29187817258884 Y54.88324873096447 F500
G2 X117.72081218274111 Y55.055837563451774 I9.175126903553299 J90.8502538071066
G2 X116.65482233502537 Y55.19543147208122 I4.791878172588833 J40.42131979695432
G2 X115.5482233502538 Y55.38324873096447 I3.5761421319796955 J24.604060913705585
G2 X114.81979695431471 Y55.55837563451776 I1.4568527918781726 J7.588832487309645
G2 X113.42893401015229 Y56.159898477157356 I1.895939086294416 J6.299492385786802
G2 X112.2741116751269 Y57.101522842639596 I2.3197969543147208 J4.022842639593909
G2 X111.44416243654823 Y58.5 I3.218274111675127 J2.8527918781725887
G2 X111.17005076142132 Y60.07868020304569 I4.388324873096447 J1.5761421319796953
G2 X111.26649746192894 Y61.03553299492386 I4.850253807106599 J0
G2 X111.37817258883248 Y61.484771573604064 I4.769035532994924 J-0.9619289340101522
G3 X111.13705583756345 Y60.6497461928934 I4.192893401015229 J-1.6675126903553301
G3 X111.02791878172589 Y59.48730964467005 I6.185279187817258 J-1.1649746192893402
G3 X111.07106598984771 Y58.78426395939086 I5.977157360406091 J0
G3 X111.17766497461929 Y58.20558375634518 I4.517766497461929 J0.5355329949238579
G3 X111.3527918781726 Y57.66751269035532 I3.989847715736041 J1.0076142131979695
G3 X111.58883248730965 Y57.182741116751274 I3.50253807106599 J1.4187817258883249
G3 X111.94416243654823 Y56.65989847715736 I3.880710659898477 J2.238578680203046
G3 X112.31725888324873 Y56.248730964467 I2.936548223350254 J2.302030456852792
G3 X112.74619289340102 Y55.90101522842639 I2.5050761421319794 J2.6522842639593907
G3 X113.26903553299493 Y55.59390862944163 I2.3096446700507616 J3.33248730964467
G3 X113.76142131979697 Y55.36548223350253 I4.32994923857868 J8.647208121827411
G3 X114.23096446700507 Y55.17766497461929 I3.380710659898477 J7.824873096446701
G3 X114.70304568527919 Y55.022842639593904 I2.751269035532995 J7.568527918781726
G3 X115.15736040609139 Y54.90355329949239 I2.068527918781726 J7.01015228426396
G3 X115.64213197969544 Y54.807106598984774 I2.045685279187817 J8.98984771573604
G3 X116.61928934010152 Y54.65736040609137 I5.274111675126903 J30.705583756345177
G3 X117.6243654822335 Y54.527918781725894 I6.713197969543147 J48.18781725888325
G3 X119.08629441624365 Y54.36548223350254 I11.723350253807105 J99.23604060913705
G1 X122.08121827411168 Y54.05329949238578
G2 X123.6472081218274 Y53.86040609137056 I-6.269035532994924 J-57.22335025380711
G2 X124.75380710659898 Y53.68527918781726 I-3.728426395939086 J-27.131979695431472
G2 X125.90862944162437 Y53.43908629441624 I-3.1192893401015227 J-17.395939086294415
G2 X126.74365482233503 Y53.17258883248731 I-1.6243654822335025 J-6.5177664974619285
G2 X127.93401015228426 Y52.5253807106599 I-2.1116751269035534 J-5.319796954314721
G2 X128.91878172588832 Y51.57106598984772 I-2.565989847715736 J-3.629441624365482
G2 X129.57868020304568 Y50.286802030456855 I-3.3959390862944163 J-2.560913705583756
G2 X129.7944162436548 Y48.88324873096447 I-4.467005076142132 J-1.4035532994923858
G2 X129.71827411167513 Y48.00507614213198 I-5.068527918781726 J0
G2 X129.49238578680203 Y47.15228426395939 I-5.096446700507614 J0.8984771573604061
G2 X129.14213197969542 Y46.37817258883249 I-5.071065989847716 J1.8223350253807107
G2 X128.6751269035533 Y45.654822335025386 I-5.401015228426395 J2.969543147208122
G2 X128.31725888324874 Y45.21573604060913 I-5.182741116751269 J3.880710659898477
G3 X128.44162436548226 Y45.317258883248726 I-3.7360406091370555 J4.766497461928934
G3 X128.98984771573603 Y45.868020304568525 I-2.5710659898477157 J3.1091370558375635
G3 X129.54060913705584 Y46.65482233502538 I-4.441624365482234 J3.690355329949239
G3 X129.89593908629442 Y47.41370558375635 I-4.0761421319796955 J2.3705583756345177
G3 X130.10913705583758 Y48.223350253807105 I-4.385786802030457 J1.5964467005076142
G3 X130.19035532994923 Y49.15482233502538 I-5.4543147208121825 J0.9340101522842639
G3 X130.15736040609139 Y49.74111675126903 I-5.251269035532995 J0
G3 X130.06598984771574 Y50.27664974619289 I-4.6725888324873095 J-0.5228426395939086
G3 X129.91370558375635 Y50.79441624365482 I-4.50761421319797 J-1.0431472081218274
G3 X129.69289340101523 Y51.30964467005076 I-4.593908629441624 J-1.6472081218274113
G3 X129.41624365482232 Y51.79695431472081 I-4.406091370558375 J-2.1776649746192893
G3 X129.12690355329948 Y52.192893401015226 I-3.3959390862944163 J-2.1928934010152283
G3 X128.7944162436548 Y52.54314720812182 I-2.9340101522842637 J-2.446700507614213
G3 X128.44162436548226 Y52.83502538071066 I-2.5812182741116754 J-2.7715736040609134
G1 X128.4517766497462 Y52.827411167512686
G3 X127.97461928934011 Y53.13197969543147 I-3.807106598984771 J-5.428934010152284
G3 X127.43654822335026 Y53.41624365482233 I-3.697969543147208 J-6.368020304568528
G3 X126.87055837563452 Y53.65736040609137 I-3.385786802030457 J-7.121827411167513
G3 X126.2284263959391 Y53.87817258883249 I-3.304568527918782 J-8.637055837563452
G3 X125.54314720812184 Y54.058375634517766 I-3.228426395939086 J-10.758883248730964
G3 X124.57868020304568 Y54.25888324873096 I-4.50507614213198 J-19.380710659898476
G3 X123.58121827411168 Y54.41878172588832 I-4.532994923857868 J-25.073604060913706
G3 X122.3274111675127 Y54.57360406091371 I-5.474619289340101 J-39.06091370558376
G1 X122.40964467005077 Y55.369289340101524 F500
G1 X119.37309644670052 Y55.67766497461929 F500
G2 X117.81472081218274 Y55.850253807106604 I9.096446700507615 J90.05329949238579
G2 X116.77157360406092 Y55.98730964467005 I4.697969543147208 J39.62690355329949
G2 X115.69796954314722 Y56.16751269035533 I3.4619289340101522 J23.81218274111675
G2 X115.0507614213198 Y56.3248730964467 I1.3045685279187818 J6.804568527918782
G2 X113.82994923857868 Y56.85279187817259 I1.66497461928934 J5.532994923857868
G2 X112.87309644670052 Y57.63197969543147 I1.9213197969543148 J3.32994923857868
G2 X112.1979695431472 Y58.77157360406091 I2.6192893401015227 J2.3223350253807107
G2 X111.96954314720813 Y60.07868020304569 I3.634517766497462 J1.3071065989847717
G2 X112.05076142131979 Y60.878172588832484 I4.050761421319796 J0
G2 X112.28680203045685 Y61.64720812182742 I3.9847715736040605 J-0.8045685279187818
G2 X112.65228426395939 Y62.337563451776646 I3.9289340101522843 J-1.649746192893401
G2 X113.14720812182742 Y62.972081218274106 I4.223350253807107 J-2.7741116751269033
G2 X113.70304568527919 Y63.502538071065985 I4.116751269035533 J-3.761421319796954
G2 X114.33248730964466 Y63.95939086294416 I3.7664974619289335 J-4.538071065989848
G2 X115.00507614213198 Y64.3248730964467 I3.304568527918782 J-5.2639593908629445
G2 X115.74619289340103 Y64.62182741116752 I3.0456852791878175 J-6.50761421319797
G2 X115.77157360406092 Y64.63197969543147 I0.5761421319796954 J-1.7030456852791878
G2 X116.72081218274113 Y64.88832487309645 I3.3096446700507616 J-10.31472081218274
G2 X117.76395939086294 Y65.0761421319797 I2.8223350253807107 J-12.637055837563452
G2 X118.7994923857868 Y65.18274111675127 I1.9644670050761421 J-14.152284263959391
G2 X119.94162436548223 Y65.22081218274111 I1.1395939086294418 J-17.5253807106599
G2 X122.48477157360406 Y65.04568527918781 I0 J-18.606598984771573
G2 X124.79441624365481 Y64.54568527918782 I-2.1395939086294415 J-15.50507614213198
G2 X127.01269035532995 Y63.69035532994924 I-4.2360406091370555 J-14.281725888324871
G2 X129.04060913705584 Y62.51015228426396 I-6.398477157360406 J-13.312182741116752
G2 X129.33248730964468 Y62.2994923857868 I-4.063451776649746 J-6.025380710659899
G1 X129.9771573604061 Y63.568527918781726
G2 X129.9010152284264 Y63.59644670050762 I3.6395939086294415 J10.050761421319796
G2 X129.2969543147208 Y63.82994923857868 I9.19796954314721 J24.80710659898477
G2 X129.26395939086294 Y63.84263959390863 I0.6675126903553299 J1.6700507614213198
G3 X127.67005076142132 Y64.48730964467005 I-22.895939086294415 J-54.276649746192895
G3 X126.3756345177665 Y64.96446700507614 I-13.908629441624365 J-35.860406091370564
G3 X125.07868020304569 Y65.38071065989848 I-9.934010152284264 J-28.616751269035532
G3 X124.09390862944163 Y65.64213197969544 I-5.027918781725889 J-16.898477157360404
G3 X123.10659898477157 Y65.84263959390863 I-3.6700507614213196 J-15.576142131979696
G3 X122.03807106598985 Y65.99238578680203 I-3.030456852791878 J-17.82741116751269
G3 X120.95685279187818 Y66.07868020304568 I-2.0964467005076144 J-19.220812182741117
G3 X119.78680203045685 Y66.10913705583756 I-1.1700507614213198 J-22.248730964467004
G3 X117.04314720812184 Y65.9238578680203 I0 J-20.269035532994923
G3 X115.0507614213198 Y65.4746192893401 I1.6015228426395938 J-11.730964467005077
G3 X113.26649746192894 Y64.68781725888324 I2.796954314720812 J-8.774111675126903
G3 X111.97208121827413 Y63.71827411167513 I3.317258883248731 J-5.784263959390863
G3 X111.19035532994923 Y62.809644670050766 I4.083756345177665 J-4.299492385786802
G3 X110.66751269035534 Y61.85532994923858 I4.1725888324873095 J-2.908629441624365
G3 X110.35025380710661 Y60.796954314720814 I4.903553299492386 J-2.0380710659898478
G3 X110.2284263959391 Y59.48730964467005 I6.972081218274112 J-1.3121827411167515
G3 X110.2766497461929 Y58.68781725888325 I6.776649746192893 J0
G3 X110.4010152284264 Y58.01015228426395 I5.312182741116751 J0.6294416243654822
G3 X110.61167512690355 Y57.36802030456853 I4.763959390862944 J1.2030456852791878
G3 X110.8959390862944 Y56.784263959390856 I4.243654822335025 J1.7182741116751268
G3 X111.31472081218274 Y56.16751269035533 I4.573604060913706 J2.6395939086294415
G3 X111.76903553299493 Y55.66751269035534 I3.565989847715736 J2.7944162436548226
G3 X112.29187817258882 Y55.243654822335024 I3.0532994923857872 J3.2335025380710656
G3 X112.91116751269035 Y54.88071065989848 I2.763959390862944 J3.989847715736041
G3 X113.44416243654821 Y54.629441624365484 I4.687817258883249 J9.362944162436548
G3 X113.95939086294416 Y54.4263959390863 I3.697969543147208 J8.558375634517766
G3 X114.47715736040608 Y54.256345177664976 I3.025380710659898 J8.319796954314722
G3 X114.97969543147208 Y54.1243654822335 I2.2944162436548226 J7.776649746192893
G3 X115.50761421319797 Y54.02030456852792 I2.2233502538071064 J9.769035532994923
G3 X116.50761421319797 Y53.86548223350254 I5.408629441624365 J31.49238578680203
G3 X117.53045685279189 Y53.733502538071065 I6.82233502538071 J48.97969543147208
G3 X119.00507614213198 Y53.568527918781726 I11.817258883248732 J100.03045685279189
G1 X121.99492385786803 Y53.25888324873097
G2 X123.53807106598985 Y53.068527918781726 I-6.182741116751269 J-56.42893401015228
G2 X124.61167512690355 Y52.898477157360404 I-3.619289340101523 J-26.337563451776653
G2 X125.71573604060914 Y52.662436548223354 I-2.9771573604060912 J-16.609137055837564
G2 X126.44670050761421 Y52.42893401015229 I-1.4314720812182742 J-5.741116751269035
G2 X127.47208121827411 Y51.87309644670051 I-1.817258883248731 J-4.5761421319796955
G2 X128.27918781725887 Y51.09137055837564 I-2.1040609137055837 J-2.9771573604060912
G2 X128.8172588832487 Y50.045685279187815 I-2.7588832487309647 J-2.0786802030456855
G2 X128.99492385786803 Y48.88324873096447 I-3.7030456852791875 J-1.1624365482233503
G2 X128.9314720812183 Y48.142131979695435 I-4.269035532994923 J0
G2 X128.73857868020303 Y47.42131979695431 I-4.309644670050761 J0.7588832487309645
G2 X128.44162436548226 Y46.763959390862944 I-4.319796954314721 J1.550761421319797
G2 X128.03553299492387 Y46.13451776649746 I-4.700507614213198 J2.5837563451776653
G2 X127.56345177664974 Y45.58121827411168 I-4.543147208121827 J3.401015228426396
G2 X127.01776649746193 Y45.08629441624365 I-4.220812182741117 J4.101522842639594
G2 X126.42639593908629 Y44.66751269035533 I-3.8248730964467006 J4.784263959390863
G2 X125.76649746192894 Y44.30456852791878 I-3.6370558375634516 J5.850253807106599
G2 X124.61675126903555 Y43.845177664974614 I-4.053299492385786 J8.47969543147208
G2 X123.33248730964468 Y43.512690355329944 I-3.4543147208121825 J10.637055837563452
G2 X122.04314720812184 Y43.3248730964467 I-2.4213197969543145 J12.236040609137056
G2 X120.59898477157361 Y43.26142131979695 I-1.4441624365482233 J15.855329949238579
G2 X119.27157360406092 Y43.31472081218274 I0 J15.890862944162436
G2 X117.88071065989847 Y43.48730964467005 I1.50253807106599 J17.928934010152282
G2 X116.51776649746193 Y43.75888324873096 I3.1091370558375635 J19.081218274111677
G2 X115.0761421319797 Y44.15228426395939 I5.2335025380710665 J22.01269035532995
G2 X113.65736040609137 Y44.64720812182741 I6.215736040609137 J20.11421319796954
G2 X112.51776649746192 Y45.152284263959395 I4.98984771573604 J12.824873096446701
G2 X111.3984771573604 Y45.79187817258883 I4.931472081218274 J9.913705583756345
G2 X110.69289340101523 Y46.31725888324873 I4.025380710659898 J6.167512690355331
G1 X110.13197969543148 Y45.045685279187815
G2 X110.28426395939086 Y44.982233502538065 I-3.9873096446700504 J-9.571065989847716
G2 X110.86802030456853 Y44.71827411167513 I-10.875634517766496 J-24.972081218274113
G2 X110.90609137055837 Y44.700507614213194 I-0.7563451776649746 J-1.6319796954314723
G3 X113.33756345177665 Y43.659898477157356 I11.030456852791879 J22.401015228426395
G3 X115.67766497461929 Y42.9492385786802 I7.444162436548223 J20.29187817258883
G3 X118.07614213197968 Y42.51522842639594 I4.868020304568528 J20.03299492385787
G3 X120.46446700507614 Y42.37055837563452 I2.3883248730964466 J19.784263959390863
G3 X121.80710659898477 Y42.41370558375635 I0 J21.274111675126903
G3 X123.05837563451776 Y42.535532994923855 I-1.1903553299492384 J18.81218274111675
G3 X124.29441624365482 Y42.74111675126903 I-2.317258883248731 J17.720812182741117
G3 X125.45939086294416 Y43.02030456852792 I-3.251269035532995 J16.04314720812183
G3 X126.93654822335026 Y43.52284263959391 I-3.6370558375634516 J13.142131979695431
G3 X128.01269035532994 Y44.04822335025381 I-3.218274111675127 J7.951776649746193
G3 X128.9492385786802 Y44.700507614213194 I-3.431472081218274 J5.934010152284264
G3 X129.60406091370558 Y45.35532994923858 I-3.081218274111675 J3.7258883248730963
G3 X130.2309644670051 Y46.251269035533 I-5.055837563451777 J4.203045685279188
G3 X130.64720812182742 Y47.14213197969543 I-4.766497461928934 J2.7741116751269033
G3 X130.8984771573604 Y48.08629441624365 I-5.1370558375634525 J1.8680203045685277F500
G3 X130.98984771573606 Y49.15482233502538 I-6.243654822335025 J1.0685279187817258
G3 X130.9517766497462 Y49.82994923857868 I-6.050761421319796 J0
G3 X130.84517766497464 Y50.45685279187818 I-5.467005076142132 J-0.6116751269035533
G3 X130.66497461928935 Y51.06345177664974 I-5.286802030456853 J-1.2233502538071066
G3 X130.41116751269035 Y51.66497461928934 I-5.347715736040609 J-1.916243654822335
G3 X130.08883248730965 Y52.23096446700508 I-5.124365482233503 J-2.532994923857868
G3 X129.73857868020306 Y52.70558375634518 I-4.068527918781726 J-2.626903553299492
G3 X129.34010152284264 Y53.12690355329949 I-3.548223350253807 J-2.9593908629441623
G3 X128.91116751269035 Y53.48223350253807 I-3.126903553299493 J-3.3578680203045685
G3 X128.37563451776649 Y53.8248730964467 I-4.266497461928934 J-6.083756345177665
G3 X127.78172588832489 Y54.13705583756345 I-4.098984771573604 J-7.060913705583757
G3 X127.15736040609137 Y54.40609137055837 I-3.728426395939086 J-7.84517766497462
G3 X126.45685279187818 Y54.64467005076142 I-3.5913705583756346 J-9.383248730964468
G3 X125.7233502538071 Y54.837563451776646 I-3.456852791878173 J-11.525380710659899
G3 X124.72081218274111 Y55.045685279187815 I-4.685279187817259 J-20.159898477157363
G3 X123.69289340101523 Y55.21065989847716 I-4.677664974619289 J-25.86294416243655
G3 X122.40862944162437 Y55.370558375634516 I-5.586294416243654 J-39.85279187817259
G1 X122.49060913705584 Y56.16472081218274 F500
G1 X119.45431472081218 Y56.474619289340104 F500
G2 X117.90862944162436 Y56.64467005076142 I9.01522842639594 J89.25888324873097
G2 X116.88578680203045 Y56.77918781725889 I4.601522842639594 J38.83248730964467
G2 X115.8502538071066 Y56.954314720812185 I3.347715736040609 J23.02030456852792
G2 X115.28172588832489 Y57.09137055837563 I1.1548223350253808 J6.017766497461929
G2 X114.22842639593908 Y57.545685279187815 I1.434010152284264 J4.766497461928934
G2 X113.4720812182741 Y58.162436548223354 I1.5203045685279188 J2.6370558375634516
G2 X112.94923857868021 Y59.04060913705584 I2.020304568527919 J1.7918781725888324
G2 X112.76903553299492 Y60.07868020304569 I2.883248730964467 J1.0355329949238579
G2 X112.83248730964466 Y60.72081218274111 I3.251269035532995 J0
G2 X113.02284263959392 Y61.33756345177665 I3.2005076142131976 J-0.6446700507614213
G2 X113.32233502538071 Y61.898477157360404 I3.190355329949239 J-1.3401015228426396
G2 X113.73604060913706 Y62.43401015228426 I3.5558375634517763 J-2.33502538071066
G2 X114.21319796954315 Y62.88578680203046 I3.525380710659898 J-3.220812182741117
G2 X114.75888324873097 Y63.28172588832487 I3.2563451776649748 J-3.9213197969543145
G2 X115.34263959390863 Y63.601522842639596 I2.8807106598984773 J-4.586294416243655
G2 X116.00253807106598 Y63.86548223350254 I2.705583756345178 J-5.784263959390863
G1 X116.01776649746192 Y63.870558375634516
G2 X116.89593908629442 Y64.10913705583756 I3.065989847715736 J-9.553299492385786
G2 X117.87309644670052 Y64.28426395939086 I2.6472081218274113 J-11.857868020304569
G2 X118.8527918781726 Y64.38578680203045 I1.8553299492385786 J-13.360406091370558
G2 X119.94162436548223 Y64.42131979695431 I1.0888324873096447 J-16.72842639593909
G2 X122.3756345177665 Y64.25380710659898 I0 J-17.807106598984774
G2 X124.56852791878174 Y63.77918781725889 I-2.030456852791878 J-14.710659898477157
G2 X126.66497461928934 Y62.96954314720813 I-4.01015228426396 J-13.51522842639594
G2 X128.59137055837562 Y61.847715736040605 I-6.050761421319796 J-12.591370558375633
G2 X129.21573604060913 Y61.368020304568525 I-3.6167512690355332 J-5.3604060913705585
G2 X129.5736040609137 Y61.00761421319797 I-2.2436548223350252 J-2.5862944162436547
G1 X131.12690355329948 Y64.06852791878173
G2 X130.98223350253807 Y64.09644670050761 I0.21065989847715735 J1.5203045685279188
G2 X130.55837563451777 Y64.21319796954315 I1.2563451776649746 J5.289340101522843
G2 X130.1776649746193 Y64.34771573604061 I3.0583756345177666 J9.406091370558375
G2 X129.59390862944164 Y64.57106598984771 I8.918781725888325 J24.055837563451774
G1 X129.57614213197968 Y64.57868020304568
G3 X127.95939086294416 Y65.23350253807106 I-23.208121827411166 J-55.01269035532995
G3 X126.63705583756345 Y65.71827411167513 I-14.19796954314721 J-36.60406091370558
G3 X125.30710659898476 Y66.1472081218274 I-10.197969543147208 J-29.373096446700508
G3 X124.27918781725887 Y66.42131979695432 I-5.256345177664975 J-17.66497461928934
G3 X123.24111675126903 Y66.63197969543147 I-3.8527918781725887 J-16.35532994923858
G3 X122.12690355329948 Y66.78680203045685 I-3.1624365482233503 J-18.616751269035532
G3 X121 Y66.87817258883248 I-2.185279187817259 J-20.015228426395943
G3 X119.78680203045685 Y66.90862944162436 I-1.2131979695431472 J-23.04822335025381
G3 X116.93654822335026 Y66.71573604060913 I0 J-21.068527918781726
G3 X114.80964467005077 Y66.23604060913705 I1.7106598984771573 J-12.52284263959391
G3 X112.86802030456853 Y65.38071065989848 I3.0380710659898473 J-9.535532994923857
G3 X111.42131979695432 Y64.2994923857868 I3.715736040609137 J-6.479695431472081
G3 X110.53299492385787 Y63.26649746192893 I4.634517766497462 J-4.880710659898478
G3 X109.92893401015229 Y62.162436548223354 I4.8274111675126905 J-3.3654822335025383
G3 X109.56598984771574 Y60.94670050761422 I5.6421319796954315 J-2.345177664974619
G3 X109.42893401015228 Y59.48730964467005 I7.756345177664975 J-1.4593908629441623
G3 X109.48223350253807 Y58.59390862944163 I7.5761421319796955 J0
G3 X109.62690355329948 Y57.81472081218274 I6.1065989847715745 J0.7233502538071066
G3 X109.87055837563452 Y57.068527918781726 I5.540609137055838 J1.398477157360406
G3 X110.20558375634519 Y56.38578680203046 I4.9847715736040605 J2.017766497461929
G3 X110.68527918781726 Y55.6751269035533 I5.2664974619289335 J3.0380710659898473
G3 X111.22081218274111 Y55.08629441624365 I4.197969543147208 J3.286802030456853
G3 X111.83502538071066 Y54.58629441624366 I3.604060913705584 J3.8147208121827414
G3 X112.55329949238579 Y54.16497461928934 I3.218274111675127 J4.647208121827411
G3 X113.12944162436548 Y53.89593908629442 I5.045685279187817 J10.076142131979696
G3 X113.68527918781726 Y53.6751269035533 I4.0152284263959395 J9.294416243654823
G3 X114.251269035533 Y53.48984771573604 I3.296954314720812 J9.071065989847716
G3 X114.80456852791878 Y53.34517766497462 I2.5203045685279184 J8.543147208121827
G3 X115.37309644670052 Y53.23096446700507 I2.4010152284263957 J10.550761421319796
G3 X116.3984771573604 Y53.0736040609137 I5.5456852791878175 J32.28172588832487
G3 X117.43654822335026 Y52.93908629441624 I6.934010152284263 J49.77157360406092
G3 X118.92131979695432 Y52.7741116751269 I11.908629441624365 J100.8248730964467
G1 X121.90609137055837 Y52.464467005076145
G2 X123.43147208121827 Y52.27664974619289 I-6.093908629441625 J-55.63451776649746
G2 X124.46954314720813 Y52.111675126903556 I-3.510152284263959 J-25.54568527918782
G2 X125.52284263959392 Y51.88578680203045 I-2.8375634517766497 J-15.822335025380712
G2 X126.15228426395939 Y51.68527918781726 I-1.2385786802030458 J-4.964467005076142
G2 X127.01269035532995 Y51.22081218274111 I-1.5228426395939088 J-3.83248730964467
G2 X127.64213197969542 Y50.609137055837564 I-1.6421319796954315 J-2.3223350253807107
G2 X128.05329949238578 Y49.807106598984774 I-2.1192893401015227 J-1.598984771573604
G2 X128.19543147208122 Y48.88324873096447 I-2.9416243654822334 J-0.9238578680203046
G2 X128.14213197969542 Y48.28172588832487 I-3.469543147208122 J0
G2 X127.98730964467005 Y47.692893401015226 I-3.520304568527919 J0.6192893401015229
G2 X127.74111675126903 Y47.1497461928934 I-3.565989847715736 J1.281725888324873
G2 X127.39593908629442 Y46.61421319796954 I-4 J2.197969543147208
G2 X126.98984771573605 Y46.13705583756345 I-3.901015228426396 J2.9213197969543145
G2 X126.51776649746193 Y45.71065989847716 I-3.6472081218274113 J3.5456852791878175
G2 X126.00507614213198 Y45.34771573604061 I-3.3248730964467006 J4.159898477157361
G2 X125.42131979695432 Y45.02791878172589 I-3.215736040609137 J5.1725888324873095
G2 X124.36802030456853 Y44.60659898477157 I-3.708121827411168 J7.758883248730965
G2 X123.17766497461929 Y44.29695431472081 I-3.2081218274111674 J9.875634517766498
G2 X121.96954314720813 Y44.121827411167516 I-2.266497461928934 J11.451776649746193
G2 X120.59898477157361 Y44.06091370558376 I-1.3705583756345177 J15.060913705583756
G2 X119.34010152284264 Y44.11167512690355 I0 J15.091370558375633
G2 X118.01015228426395 Y44.276649746192895 I1.434010152284264 J17.131979695431472
G2 X116.70304568527919 Y44.538071065989854 I2.9796954314720816 J18.291878172588834
G2 X115.31218274111674 Y44.91624365482234 I5.048223350253807 J21.236040609137056
G2 X113.94670050761421 Y45.39340101522843 I5.979695431472081 J19.350253807106597
G2 X112.87309644670052 Y45.868020304568525 I4.700507614213198 J12.078680203045685
G2 X111.83502538071066 Y46.46192893401015 I4.5761421319796955 J9.19796954314721
G2 X111.05583756345177 Y47.058375634517766 I3.588832487309644 J5.49746192893401
G2 X110.56345177664974 Y47.57360406091371 I2.8629441624365484 J3.2411167512690353
G2 X110.44416243654823 Y47.73096446700507 I2.479695431472081 J2.012690355329949
G1 X109.04568527918782 Y44.568527918781726
G2 X109.20050761421321 Y44.53299492385787 I-0.23096446700507614 J-1.3477157360406091
G2 X109.60659898477158 Y44.39593908629441 I-1.4111675126903553 J-4.8274111675126905
G2 X109.96700507614213 Y44.248730964467 I-3.4619289340101522 J-8.921319796954315
G2 X110.53299492385787 Y43.99238578680203 I-10.558375634517766 J-24.238578680203045
G1 X110.55329949238578 Y43.98223350253807
G3 X113.06091370558376 Y42.90862944162437 I11.383248730964468 J23.119289340101524
G3 X115.48984771573603 Y42.172588832487314 I7.720812182741117 J21.04314720812183
G3 X117.97969543147207 Y41.72081218274112 I5.055837563451777 J20.809644670050762
G3 X120.46446700507614 Y41.57106598984772 I2.482233502538071 J20.578680203045685
G3 X121.85786802030456 Y41.61421319796954 I0 J22.07360406091371
G3 X123.16243654822335 Y41.74111675126903 I-1.2411167512690355 J19.609137055837564
G3 X124.4517766497462 Y41.95685279187817 I-2.4187817258883246 J18.512690355329948
G3 X125.67258883248732 Y42.25126903553299 I-3.411167512690355 J16.827411167512693
G3 X127.23604060913706 Y42.78172588832487 I-3.850253807106599 J13.911167512690355
G3 X128.41370558375635 Y43.35532994923858 I-3.517766497461929 J8.692893401015228
G3 X129.45939086294416 Y44.08375634517767 I-3.83248730964467 J6.626903553299492
G3 X130.22081218274113 Y44.84517766497462 I-3.588832487309644 J4.34010152284264
G3 X130.92131979695432 Y45.850253807106604 I-5.6700507614213205 J4.713197969543147
G3 X131.39847715736042 Y46.86802030456853 I-5.456852791878173 J3.1751269035533
G3 X131.68527918781726 Y47.95177664974619 I-5.890862944162436 J2.1421319796954315
G3 X131.78934010152284 Y49.15482233502538 I-7.030456852791879 J1.2030456852791878
G3 X131.74619289340103 Y49.91878172588833 I-6.850253807106599 J0
G3 X131.62182741116752 Y50.63705583756345 I-6.261421319796955 J-0.7005076142131981
G3 X131.41878172588832 Y51.33502538071066 I-6.065989847715736 J-1.4035532994923858
G3 X131.12690355329948 Y52.01776649746193 I-6.098984771573605 J-2.185279187817259
G3 X130.75888324873097 Y52.664974619289346 I-5.84010152284264 J-2.8883248730964466
G3 X130.35279187817258 Y53.21827411167512 I-4.741116751269035 J-3.0609137055837565
G3 X129.88578680203045 Y53.713197969543145 I-4.162436548223351 J-3.469543147208122
G3 X129.37055837563452 Y54.13705583756345 I-3.6725888324873095 J-3.941624365482234
G3 X128.7766497461929 Y54.51522842639594 I-4.725888324873097 J-6.738578680203045
G3 X128.12436548223351 Y54.86040609137056 I-4.5 J-7.751269035532995
G3 X127.44162436548223 Y55.152284263959395 I-4.071065989847716 J-8.565989847715736
G3 X126.68781725888324 Y55.40862944162437 I-3.8756345177664975 J-10.131979695431472
G3 X125.90609137055837 Y55.61675126903553 I-3.6878172588832485 J-12.291878172588833
G3 X124.86294416243655 Y55.83248730964467 I-4.865482233502538 J-20.939086294416246
G3 X123.80456852791879 Y56.002538071065985 I-4.819796954314721 J-26.649746192893403
G3 X122.48984771573603 Y56.16497461928934 I-5.697969543147208 J-40.64467005076142
G0 Z3.175
G0 X90.96269035532995 Y64.55685279187817
G1 Z-0.8890862944162436 F10
G3 X89.35786802030456 Y64.44923857868021 I-0.005076142131979696 J-11.941624365482234 F500
G3 X87.98477157360406 Y64.15228426395939 I1.1903553299492384 J-8.809644670050762
G3 X86.66497461928934 Y63.62182741116751 I2.2893401015228427 J-7.601522842639595
G3 X85.52284263959392 Y62.89340101522843 I3.220812182741117 J-6.309644670050761
G3 X84.68020304568527 Y62.08121827411168 I3.383248730964467 J-4.3578680203045685
G3 X84.08121827411166 Y61.16497461928934 I3.5126903553299496 J-2.946700507614213
G3 X83.71827411167513 Y60.12944162436548 I4.086294416243655 J-2.017766497461929
G3 X83.59137055837563 Y58.97208121827411 I5.243654822335025 J-1.1598984771573604
G3 X83.71827411167513 Y57.82994923857868 I5.228426395939087 J0
G3 X84.08375634517766 Y56.7994923857868 I4.436548223350254 J0.9949238578680203
G3 X84.67766497461929 Y55.890862944162436 I4.147208121827411 J2.0609137055837565
G3 X85.52030456852792 Y55.07106598984771 I4.350253807106599 J3.6370558375634516
G3 X86.65482233502537 Y54.34263959390863 I4.302030456852791 J5.451776649746193
G3 X87.97461928934011 Y53.81218274111675 I3.588832487309644 J7
G3 X89.34771573604061 Y53.515228426395936 I2.5583756345177666 J8.48984771573604
G3 X90.95685279187818 Y53.40609137055837 I1.6091370558375635 J11.944162436548222
G3 X92.57360406091371 Y53.515228426395936 I0 J12.18527918781726
G3 X93.9517766497462 Y53.81218274111675 I-1.182741116751269 J8.83502538071066
G3 X95.2766497461929 Y54.34263959390863 I-2.266497461928934 J7.550761421319797
G3 X96.41370558375634 Y55.07360406091371 I-3.149746192893401 J6.159898477157361
G3 X97.25380710659898 Y55.88578680203046 I-3.5634517766497464 J4.522842639593908
G3 X97.84771573604061 Y56.786802030456855 I-3.535532994923858 J2.9771573604060912
G3 X98.21319796954315 Y57.807106598984774 I-4.01015228426396 J2.017766497461929
G3 X98.34010152284264 Y58.934010152284266 I-4.944162436548224 J1.1269035532994924
G3 X98.21319796954315 Y60.098984771573605 I-5.461928934010151 J0
G3 X97.8527918781726 Y61.142131979695435 I-4.527918781725888 J-0.9898477157360407
G3 X97.25634517766497 Y62.068527918781726 I-4.182741116751269 J-2.0406091370558377
G3 X96.41116751269035 Y62.890862944162436 I-4.286802030456853 J-3.548223350253807
G3 X95.29695431472081 Y63.61167512690355 I-4.162436548223351 J-5.238578680203045
G3 X93.97208121827411 Y64.14213197969544 I-3.586294416243655 J-7.015228426395939
G3 X92.59644670050761 Y64.44162436548224 I-2.5989847715736043 J-8.66497461928934
G3 X90.96192893401016 Y64.55583756345177 I-1.7131979695431472 J-12.550761421319796
G1 X90.96776649746192 Y65.35634517766498 F500
G3 X89.24873096446701 Y65.24111675126903 I-0.010152284263959392 J-12.741116751269034 F500
G3 X87.753807106599 Y64.91624365482234 I1.296954314720812 J-9.601522842639593
G3 X86.30203045685279 Y64.33502538071066 I2.5203045685279184 J-8.365482233502538
G3 X85.03045685279189 Y63.52284263959391 I3.583756345177665 J-7.022842639593908
G3 X84.06852791878173 Y62.59644670050761 I3.8756345177664975 J-4.987309644670051
G3 X83.36548223350255 Y61.51776649746193 I4.124365482233502 J-3.4619289340101522
G3 X82.93654822335026 Y60.30203045685279 I4.802030456852791 J-2.3705583756345177
G3 X82.79187817258884 Y58.97208121827411 I6.025380710659899 J-1.33248730964467
G3 X82.93908629441624 Y57.65482233502538 I6.027918781725888 J0
G3 X83.36802030456853 Y56.444162436548226 I5.215736040609137 J1.16751269035533
G3 X84.06345177664974 Y55.37563451776649 I4.862944162436548 J2.416243654822335
G3 X85.0253807106599 Y54.44416243654822 I4.964467005076142 J4.152284263959391
G3 X86.28934010152284 Y53.631979695431475 I4.7969543147208125 J6.081218274111675
G3 X87.74365482233503 Y53.045685279187815 I3.9543147208121825 J7.713197969543147
G3 X89.24111675126903 Y52.72081218274111 I2.786802030456853 J9.253807106598984
G3 X90.95685279187818 Y52.60659898477157 I1.715736040609137 J12.736040609137056
G3 X92.68020304568529 Y52.72081218274111 I0 J12.98477157360406
G3 X94.18274111675126 Y53.045685279187815 I-1.2893401015228425 J9.626903553299492
G3 X95.63959390862945 Y53.631979695431475 I-2.49492385786802 J8.31725888324873
G3 X96.90862944162436 Y54.44416243654822 I-3.5126903553299496 J6.870558375634518
G3 X97.86548223350253 Y55.370558375634516 I-4.060913705583756 J5.149746192893401
G3 X98.56091370558376 Y56.4263959390863 I-4.147208121827411 J3.4923857868020303
G3 X98.99238578680203 Y57.62944162436548 I-4.725888324873097 J2.3781725888324874
G3 X99.13959390862944 Y58.934010152284266 I-5.723350253807107 J1.3045685279187818
G3 X98.99492385786802 Y60.27157360406092 I-6.261421319796955 J0
G3 X98.57106598984771 Y61.49238578680203 I-5.309644670050762 J-1.1598984771573604
G3 X97.87055837563452 Y62.57868020304569 I-4.901015228426396 J-2.3908629441624365
G3 X96.90609137055837 Y63.52030456852792 I-4.903553299492386 J-4.055837563451777
G3 X95.65989847715736 Y64.32233502538071 I-4.65736040609137 J-5.868020304568527
G3 X94.20050761421321 Y64.90862944162436 I-3.951776649746193 J-7.725888324873097
G3 X92.70304568527919 Y65.23350253807106 I-2.8274111675126905 J-9.431472081218274
G3 X90.96700507614214 Y65.35532994923858 I-1.8197969543147208 J-13.342639593908629
G0 Z3.175
G0 X100.54238578680203 Y55.99695431472081
G1 Z-0.8890862944162436 F10
G3 X100.43401015228426 Y56.82233502538071 I-13.845177664974619 J-1.4111675126903553 F500
G2 X100.21827411167513 Y56.210659898477154 I-6.596446700507615 J1.982233502538071
G2 X100.54314720812184 Y55.997461928934015 I-1.6954314720812182 J-2.9441624365482233
G1 X101.36345177664974 Y55.80152284263959 F500
G3 X101.20812182741118 Y57.04314720812182 I-14.66751269035533 J-1.215736040609137 F500
G3 X100.94670050761421 Y58.26395939086295 I-14.274111675126903 J-2.4187817258883246
G3 X100.57868020304568 Y59.46192893401015 I-14.040609137055837 J-3.6472081218274113
G3 X100.10406091370558 Y60.59137055837564 I-9.921319796954315 J-3.50507614213198
G3 X99.56345177664974 Y61.53807106598984 I-7.7639593908629445 J-3.8121827411167515
G3 X99.15482233502537 Y62.101522842639596 I-6.776649746192893 J-4.464467005076142
G2 X99.28934010152284 Y61.84263959390863 I-5.4873096446700504 J-3
G2 X99.77664974619289 Y60.441624365482234 I-5.601522842639594 J-2.733502538071066
G2 X99.93908629441623 Y58.934010152284266 I-6.898477157360406 J-1.5076142131979695
G2 X99.7741116751269 Y57.45177664974619 I-6.6700507614213205 J0
G2 X99.2766497461929 Y56.068527918781726 I-5.936548223350254 J1.352791878172589
G2 X99.1269035532995 Y55.79187817258883 I-5.558375634517766 J2.7944162436548226
G2 X101.11928934010152 Y53.26395939086295 I-0.6065989847715736 J-2.5279187817258886
G2 X101.11421319796955 Y53.08629441624365 I-2.5989847715736043 J0
G2 X100.96700507614214 Y51.65989847715736 I-21.256345177664976 J1.4720812182741116
G2 X100.74619289340103 Y50.42893401015228 I-15.192893401015228 J2.0862944162436547
G2 X100.52791878172587 Y49.57868020304568 I-12.718274111675127 J2.817258883248731
G3 X100.63451776649745 Y49.847715736040605 I-9.104060913705585 J3.786802030456853
G3 X101.19796954314721 Y51.901015228426395 I-10.182741116751268 J3.8883248730964466
G3 X101.41624365482232 Y54.50253807106599 I-15.236040609137056 J2.6015228426395938
G3 X101.36294416243655 Y55.8020304568528 I-15.70304568527919 J0
G0 Z3.175
G0 X81.99263959390863 Y58.97208121827411
G1 Z-0.8890862944162436 F10
G2 X82.15736040609137 Y60.4746192893401 I6.969543147208121 J0 F500
G2 X82.64720812182742 Y61.87309644670051 I6.0126903553299496 J-1.3274111675126905
G2 X82.7284263959391 Y62.03045685279187 I5.5456852791878175 J-2.738578680203046
G3 X82.30710659898477 Y61.36040609137056 I3.847715736040609 J-2.8857868020304567
G3 X81.89847715736042 Y60.24873096446701 I4.180203045685279 J-2.1675126903553297
G3 X81.73350253807106 Y58.79695431472081 I6.2944162436548226 J-1.4492385786802031
G3 X81.7766497461929 Y58.05837563451776 I6.426395939086294 J0
G3 X81.89340101522843 Y57.401015228426395 I5.474619289340101 J0.6345177664974619
G3 X82.08883248730965 Y56.76903553299493 I5.154822335025381 J1.2436548223350254
G3 X82.35786802030458 Y56.16751269035533 I5.030456852791878 J1.901015228426396
G3 X82.7284263959391 Y55.56091370558376 I5.210659898477157 J2.7715736040609134
G3 X83.14467005076142 Y55.03807106598985 I4.401015228426396 J3.0710659898477157
G3 X83.62182741116752 Y54.57360406091371 I3.972081218274112 J3.583756345177665
G3 X84.01776649746193 Y54.25888324873096 I3.7969543147208125 J4.398477157360406
G2 X83.4517766497462 Y54.86294416243655 I5.010152284263959 J5.269035532994923
G2 X82.6497461928934 Y56.088832487309645 I4.779187817258883 J3.99746192893401
G2 X82.15736040609137 Y57.47969543147208 I5.50507614213198 J2.733502538071066
G2 X81.99238578680203 Y58.97208121827411 I6.662436548223351 J1.4923857868020305
G0 Z3.175
G0 X80.93401015228426 Y58.79796954314721
G1 Z-0.8890862944162436 F10
G3 X80.98223350253807 Y57.96700507614213 I7.225888324873097 J0 F500
G3 X81.11675126903552 Y57.213197969543145 I6.269035532994924 J0.7258883248730964
G3 X81.34010152284263 Y56.484771573604064 I5.931472081218274 J1.4314720812182742
G3 X81.6522842639594 Y55.79187817258883 I5.779187817258883 J2.185279187817259
G3 X82.0736040609137 Y55.10406091370559 I5.916243654822335 J3.1472081218274113
G3 X82.5507614213198 Y54.50253807106599 I5.055837563451777 J3.5304568527918785
G3 X83.09898477157361 Y53.96700507614213 I4.565989847715736 J4.119289340101523
G3 X83.7284263959391 Y53.48730964467005 I4.319796954314721 J5.00507614213198
G3 X85.03553299492387 Y52.76142131979696 I5.1370558375634525 J7.7335025380710665
G3 X86.51269035532994 Y52.2258883248731 I4.177664974619289 J9.220812182741117
G3 X88.07868020304568 Y51.911167512690355 I2.9822335025380706 J10.769035532994923
G3 X89.93147208121827 Y51.79441624365482 I1.8527918781725887 J14.502538071065988
G3 X91.10406091370558 Y51.840101522842644 I0 J15.228426395939085
G3 X92.11167512690355 Y51.96192893401015 I-0.9060913705583756 J11.725888324873097
G3 X93.08629441624365 Y52.17005076142132 I-1.6928934010152286 J10.256345177664974
G3 X93.9238578680203 Y52.43908629441624 I-2.1446700507614214 J8.076142131979696
G3 X94.72842639593908 Y52.796954314720814 I-3.0076142131979693 J7.873096446700507
G3 X95.59137055837564 Y53.286802030456855 I-4.715736040609137 J9.302030456852792
G3 X96.4238578680203 Y53.86548223350254 I-6.296954314720812 J9.941624365482234
G3 X97.3248730964467 Y54.609137055837564 I-9.195431472081218 J12.078680203045685
G2 X100.31979695431473 Y53.26395939086295 I1.1954314720812182 J-1.3426395939086295
G2 X100.31725888324873 Y53.13959390862944 I-1.799492385786802 J0
G2 X100.1751269035533 Y51.76903553299493 I-20.45939086294416 J1.4162436548223352
G2 X99.96700507614213 Y50.601522842639596 I-14.398477157360405 J1.9771573604060912
G2 X99.64467005076142 Y49.431472081218274 I-11.939086294416244 J2.6446700507614214
G2 X99.251269035533 Y48.43908629441624 I-8.388324873096447 J2.753807106598985
G2 X98.73096446700508 Y47.49238578680203 I-7.644670050761421 J3.581218274111675
G2 X98.08883248730965 Y46.61167512690355 I-7.281725888324873 J4.629441624365482
G2 X97.35279187817258 Y45.82233502538071 I-6.888324873096447 J5.715736040609137
G2 X96.4746192893401 Y45.08375634517766 I-6.918781725888325 J7.314720812182741
G2 X95.01522842639594 Y44.19035532994924 I-5.946700507614214 J8.068527918781726
G2 X93.41116751269035 Y43.54822335025381 I-4.6091370558375635 J9.203045685279188
G2 X91.74111675126903 Y43.17766497461929 I-3.1928934010152283 J10.454314720812183
G2 X89.89340101522842 Y43.04822335025381 I-1.850253807106599 J13.152284263959391
G2 X89.03553299492386 Y43.078680203045685 I0 J12.464467005076143
G2 X88.14467005076142 Y43.170050761421315 I0.9517766497461928 J13.802030456852792
G2 X87.26649746192894 Y43.31472081218274 I1.9543147208121827 J14.540609137055839
G2 X86.3502538071066 Y43.52030456852792 I3.215736040609137 J16.34517766497462
G2 X85.44416243654823 Y43.78172588832487 I3.979695431472081 J15.538071065989847
G2 X84.65736040609137 Y44.06345177664974 I3.6852791878172586 J11.527918781725887
G2 X83.87309644670052 Y44.41370558375635 I3.8883248730964466 J9.771573604060913
G2 X83.19289340101523 Y44.79187817258883 I3.5736040609137056 J7.2055837563451774
G2 X82.55329949238579 Y45.243654822335024 I3.769035532994924 J6.035532994923858
G1 X82.03553299492386 Y44.284263959390856
G2 X82.09390862944163 Y44.26142131979695 I-2.0279187817258886 J-5.477157360406092
G2 X82.58629441624365 Y44.058375634517766 I-3.3223350253807107 J-8.68781725888325
G3 X83.7258883248731 Y43.58121827411168 I13.827411167512691 J31.50253807106599
G3 X84.68020304568527 Y43.2258883248731 I8.804568527918782 J22.192893401015226
G3 X85.63451776649745 Y42.92131979695432 I6.431472081218274 J18.46954314720812
G3 X86.3984771573604 Y42.72335025380711 I3.535532994923858 J12.121827411167512
G3 X87.17005076142131 Y42.576142131979694 I2.705583756345178 J12.017766497461928
G3 X88.05329949238578 Y42.46192893401015 I2.4187817258883246 J15.213197969543145
G3 X88.95431472081219 Y42.39593908629441 I1.715736040609137 J17.13705583756345
G3 X89.96954314720811 Y42.37055837563452 I1.015228426395939 J21.416243654822335
G3 X92.75634517766498 Y42.611675126903556 I0 J16.350253807106597
G3 X95.0253807106599 Y43.23857868020305 I-2.0431472081218276 J11.804568527918782
G3 X97.08883248730965 Y44.29441624365482 I-3.972081218274112 J10.299492385786802
G3 X98.93147208121829 Y45.79187817258883 I-6.286802030456853 J9.626903553299492
G3 X100.36294416243655 Y47.56091370558376 I-7.700507614213198 J7.697969543147209
G3 X101.38324873096448 Y49.56345177664975 I-8.939086294416244 J5.804568527918782
G3 X101.98477157360406 Y51.766497461928935 I-10.931472081218274 J4.1725888324873095
G3 X102.21573604060914 Y54.50253807106599 I-16.022842639593907 J2.736040609137056
G3 X102.15989847715736 Y55.868020304568525 I-16.50253807106599 J0
G3 X101.99492385786803 Y57.17766497461929 I-15.464467005076141 J-1.281725888324873
G3 X101.71827411167513 Y58.46446700507614 I-15.063451776649746 J-2.5532994923857864
G3 X101.33248730964468 Y59.72842639593908 I-14.81472081218274 J-3.847715736040609
G3 X100.82233502538071 Y60.944162436548226 I-10.6751269035533 J-3.771573604060914
G3 X100.23096446700508 Y61.977157360406096 I-8.48223350253807 J-4.16497461928934
G3 X99.52030456852793 Y62.91624365482234 I-7.446700507614214 J-4.903553299492386
G3 X98.69796954314721 Y63.74365482233503 I-6.5126903553299496 J-5.649746192893401
G3 X97.31472081218274 Y64.72842639593908 I-5.223350253807107 J-5.865482233502538
G3 X95.56091370558376 Y65.49238578680203 I-4.692893401015229 J-8.378172588832488
G3 X93.63451776649747 Y65.93401015228426 I-3.548223350253807 J-11.030456852791879
G3 X91.11167512690356 Y66.11167512690355 I-2.5228426395939083 J-17.870558375634516
G3 X88.79187817258882 Y65.96192893401016 I0 J-18.03553299492386
G3 X86.90355329949239 Y65.57106598984771 I1.652284263959391 J-12.753807106598984
G3 X85.14213197969542 Y64.90101522842639 I3.0888324873096447 J-10.784263959390863
G3 X83.6497461928934 Y64.01269035532995 I4.180203045685279 J-8.713197969543147
G3 X82.38832487309645 Y62.87563451776649 I4.553299492385786 J-6.317258883248731
G3 X81.59644670050761 Y61.72842639593909 I4.190355329949239 J-3.730964467005076
G3 X81.11928934010152 Y60.42639593908629 I4.8908629441624365 J-2.5380710659898478
G3 X80.93401015228426 Y58.79695431472081 I7.073604060913706 J-1.6294416243654821
G1 X80.13426395939086 Y58.79796954314721 F500
G3 X80.18781725888324 Y57.87563451776649 I8.025380710659899 J0 F500
G3 X80.33756345177665 Y57.0253807106599 I7.063451776649746 J0.817258883248731
G3 X80.59137055837564 Y56.20304568527919 I6.710659898477157 J1.619289340101523
G3 X80.94670050761421 Y55.41624365482234 I6.525380710659898 J2.467005076142132
G3 X81.41878172588832 Y54.64720812182741 I6.621827411167512 J3.5228426395939088
G3 X81.95685279187816 Y53.96700507614213 I5.710659898477157 J3.9873096446700504
G3 X82.5761421319797 Y53.36294416243655 I5.159898477157361 J4.654822335025381
G3 X83.28680203045685 Y52.819796954314725 I4.842639593908629 J5.609137055837563
G3 X84.70558375634518 Y52.03299492385787 I5.581218274111675 J8.398477157360405
G3 X86.2994923857868 Y51.45685279187817 I4.50761421319797 J9.949238578680204
G3 X87.9771573604061 Y51.119289340101524 I3.1954314720812182 J11.538071065989847
G3 X89.93147208121827 Y50.994923857868024 I1.9543147208121827 J15.294416243654823
G3 X91.16497461928932 Y51.04314720812183 I0 J16.027918781725887
G3 X92.24365482233502 Y51.17258883248731 I-0.967005076142132 J12.52284263959391
G3 X93.29187817258884 Y51.398477157360404 I-1.8223350253807107 J11.045685279187818
G3 X94.20812182741116 Y51.692893401015226 I-2.3477157360406093 J8.850253807106599
G3 X95.08883248730965 Y52.08375634517766 I-3.2918781725888326 J8.619289340101522
G3 X96.0203045685279 Y52.611675126903556 I-5.0761421319796955 J10.01522842639594
G3 X96.90862944162436 Y53.23096446700507 I-6.725888324873096 J10.616751269035534
G3 X97.85786802030456 Y54.01015228426396 I-9.68020304568528 J12.715736040609137
G2 X99.52030456852793 Y53.26395939086295 I0.6649746192893401 J-0.7461928934010152
G2 X99.51776649746193 Y53.19543147208122 I-1 J0
G2 X99.38324873096447 Y51.87817258883249 I-19.66243654822335 J1.3604060913705585
G2 X99.18527918781726 Y50.776649746192895 I-13.606598984771574 J1.8680203045685277
G2 X98.88578680203045 Y49.680203045685275 I-11.157360406091371 J2.472081218274112
G2 X98.52791878172589 Y48.776649746192895 I-7.629441624365483 J2.5050761421319794
G2 X98.05583756345177 Y47.92131979695432 I-6.9213197969543145 J3.2436548223350252
G2 X97.4746192893401 Y47.121827411167516 I-6.606598984771574 J4.200507614213198
G2 X96.80203045685278 Y46.40355329949238 I-6.274111675126903 J5.2030456852791875
G2 X96 Y45.7258883248731 I-6.370558375634517 J6.733502538071066
G2 X94.65736040609137 Y44.90609137055838 I-5.472081218274112 J7.4238578680203045
G2 X93.17766497461929 Y44.31218274111675 I-4.251269035532995 J8.48730964467005
G2 X91.62944162436548 Y43.96954314720812 I-2.9593908629441623 J9.690355329949238
G2 X89.89340101522842 Y43.84771573604061 I-1.7385786802030456 J12.36040609137056
G2 X89.08883248730965 Y43.8756345177665 I0 J11.66497461928934
G2 X88.25126903553299 Y43.96192893401015 I0.8959390862944162 J13.00507614213198
G2 X87.42131979695431 Y44.09898477157361 I1.8477157360406091 J13.748730964467004
G2 X86.5482233502538 Y44.29695431472081 I3.0609137055837565 J15.560913705583756
G2 X85.68781725888326 Y44.54314720812182 I3.7817258883248734 J14.761421319796955
G2 X84.9517766497462 Y44.807106598984774 I3.441624365482234 J10.763959390862945
G2 X84.22842639593908 Y45.12944162436548 I3.5913705583756346 J9.027918781725889
G2 X83.61675126903552 Y45.472081218274106 I3.218274111675127 J6.48984771573604
G2 X82.92131979695432 Y45.9746192893401 I3.3451776649746194 J5.3578680203045685
G2 X82.43654822335026 Y46.46700507614213 I2.197969543147208 J2.6395939086294415
G2 X82.36040609137056 Y46.568527918781726 I2.0482233502538074 J1.6395939086294418
G1 X80.84517766497463 Y43.766497461928935
G2 X80.99492385786802 Y43.74365482233503 I-0.23857868020304568 J-2.2893401015228427
G2 X81.4238578680203 Y43.64467005076143 I-0.6472081218274112 J-3.7817258883248734
G2 X81.80964467005076 Y43.515228426395936 I-1.4162436548223352 J-4.84010152284264
G2 X82.26395939086295 Y43.3248730964467 I-3.0380710659898473 J-7.939086294416243
G3 X83.43147208121827 Y42.84010152284264 I14.149746192893403 J32.236040609137056
G3 X84.41624365482234 Y42.47208121827411 I9.098984771573605 J22.936548223350254
G3 X85.41116751269035 Y42.15482233502538 I6.692893401015229 J19.223350253807105
G3 X86.2233502538071 Y41.94416243654822 I3.7588832487309642 J12.890862944162436
G3 X87.04568527918782 Y41.786802030456855 I2.8807106598984773 J12.799492385786802
G3 X87.97461928934011 Y41.66751269035533 I2.5431472081218276 J16.00253807106599
G3 X88.91624365482232 Y41.59644670050761 I1.794416243654822 J17.934010152284262
G3 X89.96954314720811 Y41.57106598984772 I1.0532994923857868 J22.215736040609137
G3 X92.89340101522842 Y41.82233502538071 I0 J17.1497461928934
G3 X95.31218274111674 Y42.49238578680203 I-2.1802030456852792 J12.591370558375633
G3 X97.5253807106599 Y43.62690355329949 I-4.258883248730965 J11.045685279187818
G3 X99.49746192893402 Y45.2258883248731 I-6.725888324873096 J10.296954314720812
G3 X101.03299492385787 Y47.12436548223351 I-8.266497461928935 J8.263959390862944
G3 X102.12944162436548 Y49.27918781725889 I-9.609137055837563 J6.241116751269036
G3 X102.7741116751269 Y51.631979695431475 I-11.677664974619288 J4.459390862944162
G3 X103.01522842639594 Y54.50253807106599 I-16.812182741116754 J2.8705583756345177
G3 X102.95685279187816 Y55.934010152284266 I-17.302030456852794 J0
G3 X102.78426395939086 Y57.309644670050766 I-16.261421319796952 J-1.3477157360406091
G3 X102.49238578680203 Y58.66751269035533 I-15.852791878172589 J-2.685279187817259
G3 X102.08629441624366 Y59.99492385786802 I-15.588832487309645 J-4.048223350253807
G3 X101.53807106598984 Y61.29695431472081 I-11.428934010152286 J-4.038071065989848
G3 X100.8984771573604 Y62.41878172588833 I-9.200507614213198 J-4.5152284263959395
G3 X100.1243654822335 Y63.441624365482234 I-8.114213197969542 J-5.342639593908629
G3 X99.23096446700507 Y64.34010152284264 I-7.116751269035532 J-6.17258883248731
G3 X97.70558375634519 Y65.42639593908629 I-5.753807106598985 J-6.464467005076142
G3 X95.80710659898477 Y66.25380710659898 I-5.083756345177664 J-9.076142131979696
G3 X93.74619289340102 Y66.7258883248731 I-3.791878172588832 J-11.791878172588833
G3 X91.11167512690356 Y66.91116751269035 I-2.6345177664974617 J-18.66243654822335
G3 X88.69035532994923 Y66.75634517766498 I0 J-18.83502538071066
G3 X86.68527918781726 Y66.34010152284264 I1.7563451776649748 J-13.548223350253807
G3 X84.79441624365481 Y65.62182741116752 I3.3096446700507616 J-11.553299492385786
G3 X83.18274111675126 Y64.66243654822335 I4.525380710659899 J-9.434010152284264
G3 X81.78934010152284 Y63.40609137055837 I5.020304568527919 J-6.964467005076143
G3 X80.88832487309645 Y62.09644670050761 I4.786802030456853 J-4.261421319796954
G3 X80.34010152284264 Y60.60659898477158 I5.598984771573604 J-2.906091370558376
G3 X80.13451776649747 Y58.79695431472081 I7.852791878172589 J-1.8096446700507616
G0 Z3.175
G0 X72.18959390862945 Y43.068527918781726
G1 Z-0.8890862944162436 F10
G1 X72.19035532994924 Y65.43401015228427 F500
G2 X72.19543147208122 Y65.6472081218274 I4.00253807106599 J0
G1 X70.5 Y65.6472081218274
G2 X70.50507614213198 Y65.43401015228427 I-3.9873096446700504 J-0.21319796954314718
G1 X70.50507614213198 Y49.76142131979695
G2 X67.40862944162436 Y48.515228426395936 I-1.799492385786802 J0
G1 X52.84263959390863 Y63.66243654822335
G2 X52.45177664974619 Y64.11928934010152 I3.6065989847715736 J3.4822335025380715
G2 X52.139593908629436 Y64.60913705583756 I2.8527918781725887 J2.1598984771573604
G2 X51.89340101522842 Y65.23096446700508 I2.7588832487309647 J1.4568527918781726
G2 X51.81218274111675 Y65.6472081218274 I2.5431472081218276 J0.7055837563451777
G1 X48.48223350253807 Y65.6472081218274
G2 X48.48730964467005 Y65.43401015228427 I-3.9873096446700504 J-0.21319796954314718
G1 X48.48730964467005 Y43.068527918781726
G2 X48.48223350253807 Y42.83502538071066 I-4.129441624365483 J0
G1 X50.17766497461929 Y42.83502538071066
G2 X50.17258883248731 Y43.068527918781726 I4.129441624365483 J0.23096446700507614
G1 X50.17258883248731 Y59.12690355329949
G2 X53.26395939086295 Y60.378172588832484 I1.799492385786802 J0
G1 X68.05837563451776 Y45.101522842639596
G2 X68.59137055837563 Y44.52284263959391 I-9.068527918781726 J-8.883248730964468
G2 X68.95685279187818 Y44.05329949238578 I-4.416243654822335 J-3.817258883248731
G2 X69.3248730964467 Y43.40101522842639 I-3.197969543147208 J-2.2411167512690353
G2 X69.49238578680203 Y42.83502538071066 I-2.050761421319797 J-0.9137055837563451
G1 X72.19543147208122 Y42.83502538071066
G2 X72.19035532994924 Y43.068527918781726 I4.129441624365483 J0.23096446700507614
G0 Z3.175
G0 X37.654060913705585 Y43.068527918781726
G1 Z-0.8890862944162436 F10
G1 X37.65482233502538 Y65.43401015228427 F500
G2 X37.65989847715736 Y65.6472081218274 I4.00253807106599 J0
G1 X35.964467005076145 Y65.6472081218274
G2 X35.96954314720812 Y65.43401015228427 I-3.9873096446700504 J-0.21319796954314718
G1 X35.96954314720812 Y49.76142131979695
G2 X32.87309644670051 Y48.515228426395936 I-1.799492385786802 J0
G1 X18.307106598984774 Y63.66243654822335
G2 X17.916243654822335 Y64.11928934010152 I3.6065989847715736 J3.4822335025380715
G2 X17.604060913705585 Y64.60913705583756 I2.8527918781725887 J2.1598984771573604
G2 X17.35786802030457 Y65.23096446700508 I2.7588832487309647 J1.4568527918781726
G2 X17.276649746192895 Y65.6472081218274 I2.5431472081218276 J0.7055837563451777
G1 X13.946700507614214 Y65.6472081218274
G2 X13.951776649746193 Y65.43401015228427 I-3.9873096446700504 J-0.21319796954314718
G1 X13.951776649746193 Y43.068527918781726
G2 X13.946700507614214 Y42.83502538071066 I-4.129441624365483 J0
G1 X15.642131979695431 Y42.83502538071066
G2 X15.637055837563452 Y43.068527918781726 I4.129441624365483 J0.23096446700507614
G1 X15.637055837563452 Y59.12690355329949
G2 X18.728426395939085 Y60.378172588832484 I1.799492385786802 J0
G1 X33.52284263959391 Y45.101522842639596
G2 X34.055837563451774 Y44.52284263959391 I-9.068527918781726 J-8.883248730964468
G2 X34.421319796954315 Y44.05329949238578 I-4.416243654822335 J-3.817258883248731
G2 X34.78934010152284 Y43.40101522842639 I-3.197969543147208 J-2.2411167512690353
G2 X34.95685279187817 Y42.83502538071066 I-2.050761421319797 J-0.9137055837563451
G1 X37.65989847715736 Y42.83502538071066
G2 X37.65482233502538 Y43.068527918781726 I4.129441624365483 J0.23096446700507614
G0 Z3.175
G0 X70.59035532994923 Y44.44796954314721
G1 Z-1.7781725888324873 F10
G1 X70.59137055837564 Y46.93401015228426 F500
G2 X69.04314720812182 Y46.380710659898476 I-1.8832487309644668 J2.8274111675126905
G1 X69.2005076142132 Y46.22081218274111
G2 X69.7994923857868 Y45.568527918781726 I-10.210659898477157 J-10.00253807106599
G2 X70.26649746192894 Y44.969543147208114 I-5.624365482233502 J-4.865482233502538
G2 X70.59137055837564 Y44.4492385786802 I-4.51015228426396 J-3.157360406091371
G0 Z3.175
G0 X50.08756345177665 Y64.04771573604062
G1 Z-1.7781725888324873 F10
G1 X50.088832487309645 Y61.954314720812185 F500
G2 X51.7258883248731 Y62.51522842639594 I1.8832487309644668 J-2.8274111675126905
G1 X51.692893401015226 Y62.5507614213198
G2 X51.1751269035533 Y63.154822335025386 I4.756345177664975 J4.593908629441624
G2 X50.7258883248731 Y63.86294416243655 I4.129441624365483 J3.1243654822335025
G2 X50.63451776649746 Y64.0482233502538 I4.1725888324873095 J2.2030456852791875
G1 X50.088832487309645 Y64.0482233502538
G0 Z3.175
G0 X49.28807106598985 Y64.8472081218274
G1 Z-1.7781725888324873 F10
G1 X49.286802030456855 Y43.63451776649746 F500
G1 X49.37309644670051 Y43.63451776649746
G1 X49.37309644670051 Y59.12690355329949
G2 X53.83756345177665 Y60.934010152284266 I2.5989847715736043 J0
G1 X68.62944162436548 Y45.662436548223354
G2 X69.19543147208122 Y45.045685279187815 I-9.639593908629442 J-9.441624365482234
G2 X69.61167512690355 Y44.51015228426396 I-5.020304568527919 J-4.34010152284264
G2 X70.05583756345177 Y43.72842639593909 I-3.8527918781725887 J-2.7005076142131976
G2 X70.09390862944161 Y43.63705583756345 I-2.779187817258883 J-1.2385786802030458
G1 X71.39086294416244 Y43.63705583756345
G1 X71.39086294416244 Y64.84771573604061
G1 X71.30456852791879 Y64.84771573604061
G1 X71.30456852791879 Y49.76142131979695
G2 X66.83248730964466 Y47.961928934010146 I-2.5989847715736043 J0
G1 X52.26903553299493 Y63.10659898477158
G2 X51.81472081218274 Y63.63705583756345 I4.180203045685279 J4.038071065989848
G2 X51.434010152284266 Y64.23604060913705 I3.4923857868020303 J2.6421319796954315
G2 X51.1751269035533 Y64.84771573604061 I3.4670050761421316 J1.8299492385786804
G1 X49.286802030456855 Y64.84771573604061
G0 Z3.175
G0 X72.98908629441624 Y43.068527918781726
G1 Z-1.7781725888324873 F10
G1 X72.98984771573603 Y65.43401015228427 F500
G2 X73.01776649746193 Y65.85279187817258 I3.2030456852791875 J0
G2 X73.0989847715736 Y66.23857868020305 I2.383248730964467 J-0.3147208121827411
G2 X73.1751269035533 Y66.44670050761421 I2.0583756345177666 J-0.6243654822335025
G1 X69.52030456852792 Y66.44670050761421
G2 X69.59390862944163 Y66.23857868020305 I-1.9847715736040608 J-0.8350253807106599
G2 X69.67766497461929 Y65.85279187817258 I-2.302030456852792 J-0.7005076142131981
G2 X69.70558375634518 Y65.43401015228427 I-3.1675126903553297 J-0.41878172588832485
G1 X69.70558375634518 Y49.76142131979695
G2 X67.98730964467005 Y49.07106598984772 I-1 J0
G1 X53.41878172588832 Y64.21827411167513
G2 X53.088832487309645 Y64.6015228426396 I3.030456852791878 J2.9289340101522843
G2 X52.84771573604061 Y64.98223350253807 I2.215736040609137 J1.6776649746192893
G2 X52.662436548223354 Y65.44670050761422 I2.053299492385787 J1.0837563451776648
G2 X52.59644670050761 Y65.93654822335026 I1.7741116751269035 J0.49238578680203043
G2 X52.664974619289346 Y66.44670050761421 I1.9086294416243654 J0
G1 X47.50253807106599 Y66.44670050761421
G2 X47.57868020304569 Y66.23857868020305 I-1.9847715736040608 J-0.8350253807106599
G2 X47.662436548223354 Y65.85279187817258 I-2.302030456852792 J-0.7005076142131981
G2 X47.68781725888325 Y65.43401015228427 I-3.1675126903553297 J-0.41878172588832485
G1 X47.68781725888325 Y43.068527918781726
G2 X47.662436548223354 Y42.64467005076142 I-3.32994923857868 J0
G2 X47.57868020304569 Y42.256345177664976 I-2.436548223350254 J0.31218274111675126
G2 X47.5 Y42.035532994923855 I-2.083756345177665 J0.6192893401015229
G1 X51.159898477157356 Y42.035532994923855
G2 X51.08121827411168 Y42.256345177664976 I2.00253807106599 J0.8375634517766497
G2 X51 Y42.64213197969543 I2.3527918781725887 J0.7005076142131981
G2 X50.97208121827411 Y43.068527918781726 I3.307106598984771 J0.42385786802030456
G1 X50.97208121827411 Y59.12690355329949
G2 X52.690355329949234 Y59.82233502538071 I1 J0
G1 X67.48730964467005 Y44.54314720812182
G2 X67.98730964467005 Y44 I-8.49746192893401 J-8.32233502538071
G2 X68.30203045685279 Y43.59390862944163 I-3.809644670050761 J-3.2944162436548226
G2 X68.59390862944163 Y43.076142131979694 I-2.5431472081218276 J-1.7817258883248732
G2 X68.72081218274111 Y42.48730964467005 I-1.3197969543147208 J-0.5888324873096447
G2 X68.66497461928934 Y42.035532994923855 I-1.8629441624365481 J0
G1 X73.17766497461929 Y42.035532994923855
G2 X73.0989847715736 Y42.256345177664976 I2.00253807106599 J0.8375634517766497
G2 X73.01522842639594 Y42.64467005076142 I2.3527918781725887 J0.7005076142131981
G2 X72.98984771573603 Y43.068527918781726 I3.307106598984771 J0.42385786802030456
G0 Z3.175
G0 X36.05482233502538 Y44.44796954314721
G1 Z-1.7781725888324873 F10
G1 X36.055837563451774 Y46.93401015228426 F500
G2 X34.50761421319797 Y46.380710659898476 I-1.8832487309644668 J2.8274111675126905
G1 X34.66497461928934 Y46.22081218274111
G2 X35.263959390862944 Y45.568527918781726 I-10.210659898477157 J-10.00253807106599
G2 X35.73096446700508 Y44.969543147208114 I-5.624365482233502 J-4.865482233502538
G2 X36.055837563451774 Y44.4492385786802 I-4.51015228426396 J-3.157360406091371
G0 Z3.175
G0 X15.552030456852792 Y64.04771573604062
G1 Z-1.7781725888324873 F10
G1 X15.550761421319796 Y61.954314720812185 F500
G2 X17.190355329949238 Y62.51522842639594 I1.8832487309644668 J-2.8274111675126905
G1 X17.15736040609137 Y62.5507614213198
G2 X16.639593908629443 Y63.154822335025386 I4.756345177664975 J4.593908629441624
G2 X16.190355329949238 Y63.86294416243655 I4.129441624365483 J3.1243654822335025
G2 X16.098984771573605 Y64.0482233502538 I4.1725888324873095 J2.2030456852791875
G1 X15.550761421319796 Y64.0482233502538
G0 Z3.175
G0 X14.75253807106599 Y64.8472081218274
G1 Z-1.7781725888324873 F10
G1 X14.751269035532994 Y43.63451776649746 F500
G1 X14.83756345177665 Y43.63451776649746
G1 X14.83756345177665 Y59.12690355329949
G2 X19.30203045685279 Y60.934010152284266 I2.5989847715736043 J0
G1 X34.09390862944163 Y45.662436548223354
G2 X34.65989847715736 Y45.045685279187815 I-9.639593908629442 J-9.441624365482234
G2 X35.076142131979694 Y44.51015228426396 I-5.020304568527919 J-4.34010152284264
G2 X35.52030456852792 Y43.72842639593909 I-3.8527918781725887 J-2.7005076142131976
G2 X35.558375634517766 Y43.63705583756345 I-2.779187817258883 J-1.2385786802030458
G1 X36.85532994923858 Y43.63705583756345
G1 X36.85532994923858 Y64.84771573604061
G1 X36.76903553299492 Y64.84771573604061
G1 X36.76903553299492 Y49.76142131979695
G2 X32.296954314720814 Y47.961928934010146 I-2.5989847715736043 J0
G1 X17.733502538071065 Y63.10659898477158
G2 X17.279187817258883 Y63.63705583756345 I4.180203045685279 J4.038071065989848
G2 X16.898477157360404 Y64.23604060913705 I3.4923857868020303 J2.6421319796954315
G2 X16.639593908629443 Y64.84771573604061 I3.4670050761421316 J1.8299492385786804
G1 X14.751269035532994 Y64.84771573604061
G0 Z3.175
G0 X38.453553299492384 Y43.068527918781726
G1 Z-1.7781725888324873 F10
G1 X38.45431472081218 Y65.43401015228427 F500
G2 X38.47969543147208 Y65.85279187817258 I3.2030456852791875 J0
G2 X38.56345177664974 Y66.23857868020305 I2.383248730964467 J-0.3147208121827411
G2 X38.63959390862944 Y66.44670050761421 I2.0583756345177666 J-0.6243654822335025
G1 X34.98477157360406 Y66.44670050761421
G2 X35.058375634517766 Y66.23857868020305 I-1.9847715736040608 J-0.8350253807106599
G2 X35.142131979695435 Y65.85279187817258 I-2.302030456852792 J-0.7005076142131981
G2 X35.17005076142132 Y65.43401015228427 I-3.1675126903553297 J-0.41878172588832485
G1 X35.17005076142132 Y49.76142131979695
G2 X33.45177664974619 Y49.07106598984772 I-1 J0
G1 X18.883248730964468 Y64.21827411167513
G2 X18.553299492385786 Y64.6015228426396 I3.030456852791878 J2.9289340101522843
G2 X18.31218274111675 Y64.98223350253807 I2.215736040609137 J1.6776649746192893
G2 X18.126903553299492 Y65.44670050761422 I2.053299492385787 J1.0837563451776648
G2 X18.060913705583758 Y65.93654822335026 I1.7741116751269035 J0.49238578680203043
G2 X18.129441624365484 Y66.44670050761421 I1.9086294416243654 J0
G1 X12.967005076142133 Y66.44670050761421
G2 X13.043147208121828 Y66.23857868020305 I-1.9847715736040608 J-0.8350253807106599
G2 X13.126903553299492 Y65.85279187817258 I-2.302030456852792 J-0.7005076142131981
G2 X13.152284263959391 Y65.43401015228427 I-3.1675126903553297 J-0.41878172588832485
G1 X13.152284263959391 Y43.068527918781726
G2 X13.126903553299492 Y42.64467005076142 I-3.32994923857868 J0
G2 X13.043147208121828 Y42.256345177664976 I-2.436548223350254 J0.31218274111675126
G2 X12.964467005076141 Y42.035532994923855 I-2.083756345177665 J0.6192893401015229
G1 X16.624365482233504 Y42.035532994923855
G2 X16.545685279187815 Y42.256345177664976 I2.00253807106599 J0.8375634517766497
G2 X16.46446700507614 Y42.64213197969543 I2.3527918781725887 J0.7005076142131981
G2 X16.436548223350254 Y43.068527918781726 I3.307106598984771 J0.42385786802030456
G1 X16.436548223350254 Y59.12690355329949
G2 X18.15482233502538 Y59.82233502538071 I1 J0
G1 X32.95177664974619 Y44.54314720812182
G2 X33.4492385786802 Y44 I-8.49746192893401 J-8.32233502538071
G2 X33.766497461928935 Y43.59390862944163 I-3.809644670050761 J-3.2944162436548226
G2 X34.058375634517766 Y43.076142131979694 I-2.5431472081218276 J-1.7817258883248732
G2 X34.18527918781726 Y42.48730964467005 I-1.3197969543147208 J-0.5888324873096447
G2 X34.129441624365484 Y42.035532994923855 I-1.8629441624365481 J0
G1 X38.642131979695435 Y42.035532994923855
G2 X38.56345177664974 Y42.256345177664976 I2.00253807106599 J0.8375634517766497
G2 X38.47969543147208 Y42.64467005076142 I2.3527918781725887 J0.7005076142131981
G2 X38.45431472081218 Y43.068527918781726 I3.307106598984771 J0.42385786802030456
G0 Z3.175
G0 X122.32868020304568 Y54.573857868020305
G1 Z-1.7781725888324873 F10
G1 X119.29187817258884 Y54.88324873096447 F500
G2 X117.72081218274111 Y55.055837563451774 I9.175126903553299 J90.8502538071066
G2 X116.65482233502537 Y55.19543147208122 I4.791878172588833 J40.42131979695432
G2 X115.5482233502538 Y55.38324873096447 I3.5761421319796955 J24.604060913705585
G2 X114.81979695431471 Y55.55837563451776 I1.4568527918781726 J7.588832487309645
G2 X113.42893401015229 Y56.159898477157356 I1.895939086294416 J6.299492385786802
G2 X112.2741116751269 Y57.101522842639596 I2.3197969543147208 J4.022842639593909
G2 X111.44416243654823 Y58.5 I3.218274111675127 J2.8527918781725887
G2 X111.17005076142132 Y60.07868020304569 I4.388324873096447 J1.5761421319796953
G2 X111.26649746192894 Y61.03553299492386 I4.850253807106599 J0
G2 X111.37817258883248 Y61.484771573604064 I4.769035532994924 J-0.9619289340101522
G3 X111.13705583756345 Y60.6497461928934 I4.192893401015229 J-1.6675126903553301
G3 X111.02791878172589 Y59.48730964467005 I6.185279187817258 J-1.1649746192893402
G3 X111.07106598984771 Y58.78426395939086 I5.977157360406091 J0
G3 X111.17766497461929 Y58.20558375634518 I4.517766497461929 J0.5355329949238579
G3 X111.3527918781726 Y57.66751269035532 I3.989847715736041 J1.0076142131979695
G3 X111.58883248730965 Y57.182741116751274 I3.50253807106599 J1.4187817258883249
G3 X111.94416243654823 Y56.65989847715736 I3.880710659898477 J2.238578680203046
G3 X112.31725888324873 Y56.248730964467 I2.936548223350254 J2.302030456852792
G3 X112.74619289340102 Y55.90101522842639 I2.5050761421319794 J2.6522842639593907
G3 X113.26903553299493 Y55.59390862944163 I2.3096446700507616 J3.33248730964467
G3 X113.76142131979697 Y55.36548223350253 I4.32994923857868 J8.647208121827411
G3 X114.23096446700507 Y55.17766497461929 I3.380710659898477 J7.824873096446701
G3 X114.70304568527919 Y55.022842639593904 I2.751269035532995 J7.568527918781726
G3 X115.15736040609139 Y54.90355329949239 I2.068527918781726 J7.01015228426396
G3 X115.64213197969544 Y54.807106598984774 I2.045685279187817 J8.98984771573604
G3 X116.61928934010152 Y54.65736040609137 I5.274111675126903 J30.705583756345177
G3 X117.6243654822335 Y54.527918781725894 I6.713197969543147 J48.18781725888325
G3 X119.08629441624365 Y54.36548223350254 I11.723350253807105 J99.23604060913705
G1 X122.08121827411168 Y54.05329949238578
G2 X123.6472081218274 Y53.86040609137056 I-6.269035532994924 J-57.22335025380711
G2 X124.75380710659898 Y53.68527918781726 I-3.728426395939086 J-27.131979695431472
G2 X125.90862944162437 Y53.43908629441624 I-3.1192893401015227 J-17.395939086294415
G2 X126.74365482233503 Y53.17258883248731 I-1.6243654822335025 J-6.5177664974619285
G2 X127.93401015228426 Y52.5253807106599 I-2.1116751269035534 J-5.319796954314721
G2 X128.91878172588832 Y51.57106598984772 I-2.565989847715736 J-3.629441624365482
G2 X129.57868020304568 Y50.286802030456855 I-3.3959390862944163 J-2.560913705583756
G2 X129.7944162436548 Y48.88324873096447 I-4.467005076142132 J-1.4035532994923858
G2 X129.71827411167513 Y48.00507614213198 I-5.068527918781726 J0
G2 X129.49238578680203 Y47.15228426395939 I-5.096446700507614 J0.8984771573604061
G2 X129.14213197969542 Y46.37817258883249 I-5.071065989847716 J1.8223350253807107
G2 X128.6751269035533 Y45.654822335025386 I-5.401015228426395 J2.969543147208122
G2 X128.31725888324874 Y45.21573604060913 I-5.182741116751269 J3.880710659898477
G3 X128.44162436548226 Y45.317258883248726 I-3.7360406091370555 J4.766497461928934
G3 X128.98984771573603 Y45.868020304568525 I-2.5710659898477157 J3.1091370558375635
G3 X129.54060913705584 Y46.65482233502538 I-4.441624365482234 J3.690355329949239
G3 X129.89593908629442 Y47.41370558375635 I-4.0761421319796955 J2.3705583756345177
G3 X130.10913705583758 Y48.223350253807105 I-4.385786802030457 J1.5964467005076142
G3 X130.19035532994923 Y49.15482233502538 I-5.4543147208121825 J0.9340101522842639
G3 X130.15736040609139 Y49.74111675126903 I-5.251269035532995 J0
G3 X130.06598984771574 Y50.27664974619289 I-4.6725888324873095 J-0.5228426395939086
G3 X129.91370558375635 Y50.79441624365482 I-4.50761421319797 J-1.0431472081218274
G3 X129.69289340101523 Y51.30964467005076 I-4.593908629441624 J-1.6472081218274113
G3 X129.41624365482232 Y51.79695431472081 I-4.406091370558375 J-2.1776649746192893
G3 X129.12690355329948 Y52.192893401015226 I-3.3959390862944163 J-2.1928934010152283
G3 X128.7944162436548 Y52.54314720812182 I-2.9340101522842637 J-2.446700507614213
G3 X128.44162436548226 Y52.83502538071066 I-2.5812182741116754 J-2.7715736040609134
G1 X128.4517766497462 Y52.827411167512686
G3 X127.97461928934011 Y53.13197969543147 I-3.807106598984771 J-5.428934010152284
G3 X127.43654822335026 Y53.41624365482233 I-3.697969543147208 J-6.368020304568528
G3 X126.87055837563452 Y53.65736040609137 I-3.385786802030457 J-7.121827411167513
G3 X126.2284263959391 Y53.87817258883249 I-3.304568527918782 J-8.637055837563452
G3 X125.54314720812184 Y54.058375634517766 I-3.228426395939086 J-10.758883248730964
G3 X124.57868020304568 Y54.25888324873096 I-4.50507614213198 J-19.380710659898476
G3 X123.58121827411168 Y54.41878172588832 I-4.532994923857868 J-25.073604060913706
G3 X122.3274111675127 Y54.57360406091371 I-5.474619289340101 J-39.06091370558376
G1 X122.40964467005077 Y55.369289340101524 F500
G1 X119.37309644670052 Y55.67766497461929 F500
G2 X117.81472081218274 Y55.850253807106604 I9.096446700507615 J90.05329949238579
G2 X116.77157360406092 Y55.98730964467005 I4.697969543147208 J39.62690355329949
G2 X115.69796954314722 Y56.16751269035533 I3.4619289340101522 J23.81218274111675
G2 X115.0507614213198 Y56.3248730964467 I1.3045685279187818 J6.804568527918782
G2 X113.82994923857868 Y56.85279187817259 I1.66497461928934 J5.532994923857868
G2 X112.87309644670052 Y57.63197969543147 I1.9213197969543148 J3.32994923857868
G2 X112.1979695431472 Y58.77157360406091 I2.6192893401015227 J2.3223350253807107
G2 X111.96954314720813 Y60.07868020304569 I3.634517766497462 J1.3071065989847717
G2 X112.05076142131979 Y60.878172588832484 I4.050761421319796 J0
G2 X112.28680203045685 Y61.64720812182742 I3.9847715736040605 J-0.8045685279187818
G2 X112.65228426395939 Y62.337563451776646 I3.9289340101522843 J-1.649746192893401
G2 X113.14720812182742 Y62.972081218274106 I4.223350253807107 J-2.7741116751269033
G2 X113.70304568527919 Y63.502538071065985 I4.116751269035533 J-3.761421319796954
G2 X114.33248730964466 Y63.95939086294416 I3.7664974619289335 J-4.538071065989848
G2 X115.00507614213198 Y64.3248730964467 I3.304568527918782 J-5.2639593908629445
G2 X115.74619289340103 Y64.62182741116752 I3.0456852791878175 J-6.50761421319797
G2 X115.77157360406092 Y64.63197969543147 I0.5761421319796954 J-1.7030456852791878
G2 X116.72081218274113 Y64.88832487309645 I3.3096446700507616 J-10.31472081218274
G2 X117.76395939086294 Y65.0761421319797 I2.8223350253807107 J-12.637055837563452
G2 X118.7994923857868 Y65.18274111675127 I1.9644670050761421 J-14.152284263959391
G2 X119.94162436548223 Y65.22081218274111 I1.1395939086294418 J-17.5253807106599
G2 X122.48477157360406 Y65.04568527918781 I0 J-18.606598984771573
G2 X124.79441624365481 Y64.54568527918782 I-2.1395939086294415 J-15.50507614213198
G2 X127.01269035532995 Y63.69035532994924 I-4.2360406091370555 J-14.281725888324871
G2 X129.04060913705584 Y62.51015228426396 I-6.398477157360406 J-13.312182741116752
G2 X129.33248730964468 Y62.2994923857868 I-4.063451776649746 J-6.025380710659899
G1 X129.9771573604061 Y63.568527918781726
G2 X129.9010152284264 Y63.59644670050762 I3.6395939086294415 J10.050761421319796
G2 X129.2969543147208 Y63.82994923857868 I9.19796954314721 J24.80710659898477
G2 X129.26395939086294 Y63.84263959390863 I0.6675126903553299 J1.6700507614213198
G3 X127.67005076142132 Y64.48730964467005 I-22.895939086294415 J-54.276649746192895
G3 X126.3756345177665 Y64.96446700507614 I-13.908629441624365 J-35.860406091370564
G3 X125.07868020304569 Y65.38071065989848 I-9.934010152284264 J-28.616751269035532
G3 X124.09390862944163 Y65.64213197969544 I-5.027918781725889 J-16.898477157360404
G3 X123.10659898477157 Y65.84263959390863 I-3.6700507614213196 J-15.576142131979696
G3 X122.03807106598985 Y65.99238578680203 I-3.030456852791878 J-17.82741116751269
G3 X120.95685279187818 Y66.07868020304568 I-2.0964467005076144 J-19.220812182741117
G3 X119.78680203045685 Y66.10913705583756 I-1.1700507614213198 J-22.248730964467004
G3 X117.04314720812184 Y65.9238578680203 I0 J-20.269035532994923
G3 X115.0507614213198 Y65.4746192893401 I1.6015228426395938 J-11.730964467005077
G3 X113.26649746192894 Y64.68781725888324 I2.796954314720812 J-8.774111675126903
G3 X111.97208121827413 Y63.71827411167513 I3.317258883248731 J-5.784263959390863
G3 X111.19035532994923 Y62.809644670050766 I4.083756345177665 J-4.299492385786802
G3 X110.66751269035534 Y61.85532994923858 I4.1725888324873095 J-2.908629441624365
G3 X110.35025380710661 Y60.796954314720814 I4.903553299492386 J-2.0380710659898478
G3 X110.2284263959391 Y59.48730964467005 I6.972081218274112 J-1.3121827411167515
G3 X110.2766497461929 Y58.68781725888325 I6.776649746192893 J0
G3 X110.4010152284264 Y58.01015228426395 I5.312182741116751 J0.6294416243654822
G3 X110.61167512690355 Y57.36802030456853 I4.763959390862944 J1.2030456852791878
G3 X110.8959390862944 Y56.784263959390856 I4.243654822335025 J1.7182741116751268
G3 X111.31472081218274 Y56.16751269035533 I4.573604060913706 J2.6395939086294415
G3 X111.76903553299493 Y55.66751269035534 I3.565989847715736 J2.7944162436548226
G3 X112.29187817258882 Y55.243654822335024 I3.0532994923857872 J3.2335025380710656
G3 X112.91116751269035 Y54.88071065989848 I2.763959390862944 J3.989847715736041
G3 X113.44416243654821 Y54.629441624365484 I4.687817258883249 J9.362944162436548
G3 X113.95939086294416 Y54.4263959390863 I3.697969543147208 J8.558375634517766
G3 X114.47715736040608 Y54.256345177664976 I3.025380710659898 J8.319796954314722
G3 X114.97969543147208 Y54.1243654822335 I2.2944162436548226 J7.776649746192893
G3 X115.50761421319797 Y54.02030456852792 I2.2233502538071064 J9.769035532994923
G3 X116.50761421319797 Y53.86548223350254 I5.408629441624365 J31.49238578680203
G3 X117.53045685279189 Y53.733502538071065 I6.82233502538071 J48.97969543147208
G3 X119.00507614213198 Y53.568527918781726 I11.817258883248732 J100.03045685279189
G1 X121.99492385786803 Y53.25888324873097
G2 X123.53807106598985 Y53.068527918781726 I-6.182741116751269 J-56.42893401015228
G2 X124.61167512690355 Y52.898477157360404 I-3.619289340101523 J-26.337563451776653
G2 X125.71573604060914 Y52.662436548223354 I-2.9771573604060912 J-16.609137055837564
G2 X126.44670050761421 Y52.42893401015229 I-1.4314720812182742 J-5.741116751269035
G2 X127.47208121827411 Y51.87309644670051 I-1.817258883248731 J-4.5761421319796955
G2 X128.27918781725887 Y51.09137055837564 I-2.1040609137055837 J-2.9771573604060912
G2 X128.8172588832487 Y50.045685279187815 I-2.7588832487309647 J-2.0786802030456855
G2 X128.99492385786803 Y48.88324873096447 I-3.7030456852791875 J-1.1624365482233503
G2 X128.9314720812183 Y48.142131979695435 I-4.269035532994923 J0
G2 X128.73857868020303 Y47.42131979695431 I-4.309644670050761 J0.7588832487309645
G2 X128.44162436548226 Y46.763959390862944 I-4.319796954314721 J1.550761421319797
G2 X128.03553299492387 Y46.13451776649746 I-4.700507614213198 J2.5837563451776653
G2 X127.56345177664974 Y45.58121827411168 I-4.543147208121827 J3.401015228426396
G2 X127.01776649746193 Y45.08629441624365 I-4.220812182741117 J4.101522842639594
G2 X126.42639593908629 Y44.66751269035533 I-3.8248730964467006 J4.784263959390863
G2 X125.76649746192894 Y44.30456852791878 I-3.6370558375634516 J5.850253807106599
G2 X124.61675126903555 Y43.845177664974614 I-4.053299492385786 J8.47969543147208
G2 X123.33248730964468 Y43.512690355329944 I-3.4543147208121825 J10.637055837563452
G2 X122.04314720812184 Y43.3248730964467 I-2.4213197969543145 J12.236040609137056
G2 X120.59898477157361 Y43.26142131979695 I-1.4441624365482233 J15.855329949238579
G2 X119.27157360406092 Y43.31472081218274 I0 J15.890862944162436
G2 X117.88071065989847 Y43.48730964467005 I1.50253807106599 J17.928934010152282
G2 X116.51776649746193 Y43.75888324873096 I3.1091370558375635 J19.081218274111677
G2 X115.0761421319797 Y44.15228426395939 I5.2335025380710665 J22.01269035532995
G2 X113.65736040609137 Y44.64720812182741 I6.215736040609137 J20.11421319796954
G2 X112.51776649746192 Y45.152284263959395 I4.98984771573604 J12.824873096446701
G2 X111.3984771573604 Y45.79187817258883 I4.931472081218274 J9.913705583756345
G2 X110.69289340101523 Y46.31725888324873 I4.025380710659898 J6.167512690355331
G1 X110.13197969543148 Y45.045685279187815
G2 X110.28426395939086 Y44.982233502538065 I-3.9873096446700504 J-9.571065989847716
G2 X110.86802030456853 Y44.71827411167513 I-10.875634517766496 J-24.972081218274113
G2 X110.90609137055837 Y44.700507614213194 I-0.7563451776649746 J-1.6319796954314723
G3 X113.33756345177665 Y43.659898477157356 I11.030456852791879 J22.401015228426395
G3 X115.67766497461929 Y42.9492385786802 I7.444162436548223 J20.29187817258883
G3 X118.07614213197968 Y42.51522842639594 I4.868020304568528 J20.03299492385787
G3 X120.46446700507614 Y42.37055837563452 I2.3883248730964466 J19.784263959390863
G3 X121.80710659898477 Y42.41370558375635 I0 J21.274111675126903
G3 X123.05837563451776 Y42.535532994923855 I-1.1903553299492384 J18.81218274111675
G3 X124.29441624365482 Y42.74111675126903 I-2.317258883248731 J17.720812182741117
G3 X125.45939086294416 Y43.02030456852792 I-3.251269035532995 J16.04314720812183
G3 X126.93654822335026 Y43.52284263959391 I-3.6370558375634516 J13.142131979695431
G3 X128.01269035532994 Y44.04822335025381 I-3.218274111675127 J7.951776649746193
G3 X128.9492385786802 Y44.700507614213194 I-3.431472081218274 J5.934010152284264
G3 X129.60406091370558 Y45.35532994923858 I-3.081218274111675 J3.7258883248730963
G3 X130.2309644670051 Y46.251269035533 I-5.055837563451777 J4.203045685279188
G3 X130.64720812182742 Y47.14213197969543 I-4.766497461928934 J2.7741116751269033
G3 X130.8984771573604 Y48.08629441624365 I-5.1370558375634525 J1.8680203045685277
G3 X130.98984771573606 Y49.15482233502538 I-6.243654822335025 J1.0685279187817258
G3 X130.9517766497462 Y49.82994923857868 I-6.050761421319796 J0
G3 X130.84517766497464 Y50.45685279187818 I-5.467005076142132 J-0.6116751269035533
G3 X130.66497461928935 Y51.06345177664974 I-5.286802030456853 J-1.2233502538071066
G3 X130.41116751269035 Y51.66497461928934 I-5.347715736040609 J-1.916243654822335
G3 X130.08883248730965 Y52.23096446700508 I-5.124365482233503 J-2.532994923857868
G3 X129.73857868020306 Y52.70558375634518 I-4.068527918781726 J-2.626903553299492
G3 X129.34010152284264 Y53.12690355329949 I-3.548223350253807 J-2.9593908629441623
G3 X128.91116751269035 Y53.48223350253807 I-3.126903553299493 J-3.3578680203045685
G3 X128.37563451776649 Y53.8248730964467 I-4.266497461928934 J-6.083756345177665
G3 X127.78172588832489 Y54.13705583756345 I-4.098984771573604 J-7.060913705583757
G3 X127.15736040609137 Y54.40609137055837 I-3.728426395939086 J-7.84517766497462
G3 X126.45685279187818 Y54.64467005076142 I-3.5913705583756346 J-9.383248730964468
G3 X125.7233502538071 Y54.837563451776646 I-3.456852791878173 J-11.525380710659899
G3 X124.72081218274111 Y55.045685279187815 I-4.685279187817259 J-20.159898477157363
G3 X123.69289340101523 Y55.21065989847716 I-4.677664974619289 J-25.86294416243655
G3 X122.40862944162437 Y55.370558375634516 I-5.586294416243654 J-39.85279187817259
G1 X122.49060913705584 Y56.16472081218274 F500
G1 X119.45431472081218 Y56.474619289340104 F500
G2 X117.90862944162436 Y56.64467005076142 I9.01522842639594 J89.25888324873097
G2 X116.88578680203045 Y56.77918781725889 I4.601522842639594 J38.83248730964467
G2 X115.8502538071066 Y56.954314720812185 I3.347715736040609 J23.02030456852792
G2 X115.28172588832489 Y57.09137055837563 I1.1548223350253808 J6.017766497461929
G2 X114.22842639593908 Y57.545685279187815 I1.434010152284264 J4.766497461928934
G2 X113.4720812182741 Y58.162436548223354 I1.5203045685279188 J2.6370558375634516
G2 X112.94923857868021 Y59.04060913705584 I2.020304568527919 J1.7918781725888324
G2 X112.76903553299492 Y60.07868020304569 I2.883248730964467 J1.0355329949238579
G2 X112.83248730964466 Y60.72081218274111 I3.251269035532995 J0
G2 X113.02284263959392 Y61.33756345177665 I3.2005076142131976 J-0.6446700507614213
G2 X113.32233502538071 Y61.898477157360404 I3.190355329949239 J-1.3401015228426396
G2 X113.73604060913706 Y62.43401015228426 I3.5558375634517763 J-2.33502538071066
G2 X114.21319796954315 Y62.88578680203046 I3.525380710659898 J-3.220812182741117
G2 X114.75888324873097 Y63.28172588832487 I3.2563451776649748 J-3.9213197969543145
G2 X115.34263959390863 Y63.601522842639596 I2.8807106598984773 J-4.586294416243655
G2 X116.00253807106598 Y63.86548223350254 I2.705583756345178 J-5.784263959390863
G1 X116.01776649746192 Y63.870558375634516
G2 X116.89593908629442 Y64.10913705583756 I3.065989847715736 J-9.553299492385786
G2 X117.87309644670052 Y64.28426395939086 I2.6472081218274113 J-11.857868020304569
G2 X118.8527918781726 Y64.38578680203045 I1.8553299492385786 J-13.360406091370558
G2 X119.94162436548223 Y64.42131979695431 I1.0888324873096447 J-16.72842639593909
G2 X122.3756345177665 Y64.25380710659898 I0 J-17.807106598984774
G2 X124.56852791878174 Y63.77918781725889 I-2.030456852791878 J-14.710659898477157
G2 X126.66497461928934 Y62.96954314720813 I-4.01015228426396 J-13.51522842639594
G2 X128.59137055837562 Y61.847715736040605 I-6.050761421319796 J-12.591370558375633
G2 X129.21573604060913 Y61.368020304568525 I-3.6167512690355332 J-5.3604060913705585
G2 X129.5736040609137 Y61.00761421319797 I-2.2436548223350252 J-2.5862944162436547
G1 X131.12690355329948 Y64.06852791878173
G2 X130.98223350253807 Y64.09644670050761 I0.21065989847715735 J1.5203045685279188
G2 X130.55837563451777 Y64.21319796954315 I1.2563451776649746 J5.289340101522843
G2 X130.1776649746193 Y64.34771573604061 I3.0583756345177666 J9.406091370558375
G2 X129.59390862944164 Y64.57106598984771 I8.918781725888325 J24.055837563451774
G1 X129.57614213197968 Y64.57868020304568
G3 X127.95939086294416 Y65.23350253807106 I-23.208121827411166 J-55.01269035532995
G3 X126.63705583756345 Y65.71827411167513 I-14.19796954314721 J-36.60406091370558
G3 X125.30710659898476 Y66.1472081218274 I-10.197969543147208 J-29.373096446700508
G3 X124.27918781725887 Y66.42131979695432 I-5.256345177664975 J-17.66497461928934
G3 X123.24111675126903 Y66.63197969543147 I-3.8527918781725887 J-16.35532994923858
G3 X122.12690355329948 Y66.78680203045685 I-3.1624365482233503 J-18.616751269035532
G3 X121 Y66.87817258883248 I-2.185279187817259 J-20.015228426395943
G3 X119.78680203045685 Y66.90862944162436 I-1.2131979695431472 J-23.04822335025381
G3 X116.93654822335026 Y66.71573604060913 I0 J-21.068527918781726
G3 X114.80964467005077 Y66.23604060913705 I1.7106598984771573 J-12.52284263959391
G3 X112.86802030456853 Y65.38071065989848 I3.0380710659898473 J-9.535532994923857
G3 X111.42131979695432 Y64.2994923857868 I3.715736040609137 J-6.479695431472081
G3 X110.53299492385787 Y63.26649746192893 I4.634517766497462 J-4.880710659898478
G3 X109.92893401015229 Y62.162436548223354 I4.8274111675126905 J-3.3654822335025383
G3 X109.56598984771574 Y60.94670050761422 I5.6421319796954315 J-2.345177664974619
G3 X109.42893401015228 Y59.48730964467005 I7.756345177664975 J-1.4593908629441623
G3 X109.48223350253807 Y58.59390862944163 I7.5761421319796955 J0
G3 X109.62690355329948 Y57.81472081218274 I6.1065989847715745 J0.7233502538071066
G3 X109.87055837563452 Y57.068527918781726 I5.540609137055838 J1.398477157360406
G3 X110.20558375634519 Y56.38578680203046 I4.9847715736040605 J2.017766497461929
G3 X110.68527918781726 Y55.6751269035533 I5.2664974619289335 J3.0380710659898473
G3 X111.22081218274111 Y55.08629441624365 I4.197969543147208 J3.286802030456853
G3 X111.83502538071066 Y54.58629441624366 I3.604060913705584 J3.8147208121827414
G3 X112.55329949238579 Y54.16497461928934 I3.218274111675127 J4.647208121827411
G3 X113.12944162436548 Y53.89593908629442 I5.045685279187817 J10.076142131979696
G3 X113.68527918781726 Y53.6751269035533 I4.0152284263959395 J9.294416243654823
G3 X114.251269035533 Y53.48984771573604 I3.296954314720812 J9.071065989847716
G3 X114.80456852791878 Y53.34517766497462 I2.5203045685279184 J8.543147208121827
G3 X115.37309644670052 Y53.23096446700507 I2.4010152284263957 J10.550761421319796
G3 X116.3984771573604 Y53.0736040609137 I5.5456852791878175 J32.28172588832487
G3 X117.43654822335026 Y52.93908629441624 I6.934010152284263 J49.77157360406092
G3 X118.92131979695432 Y52.7741116751269 I11.908629441624365 J100.8248730964467
G1 X121.90609137055837 Y52.464467005076145
G2 X123.43147208121827 Y52.27664974619289 I-6.093908629441625 J-55.63451776649746
G2 X124.46954314720813 Y52.111675126903556 I-3.510152284263959 J-25.54568527918782
G2 X125.52284263959392 Y51.88578680203045 I-2.8375634517766497 J-15.822335025380712
G2 X126.15228426395939 Y51.68527918781726 I-1.2385786802030458 J-4.964467005076142
G2 X127.01269035532995 Y51.22081218274111 I-1.5228426395939088 J-3.83248730964467
G2 X127.64213197969542 Y50.609137055837564 I-1.6421319796954315 J-2.3223350253807107
G2 X128.05329949238578 Y49.807106598984774 I-2.1192893401015227 J-1.598984771573604
G2 X128.19543147208122 Y48.88324873096447 I-2.9416243654822334 J-0.9238578680203046
G2 X128.14213197969542 Y48.28172588832487 I-3.469543147208122 J0
G2 X127.98730964467005 Y47.692893401015226 I-3.520304568527919 J0.6192893401015229
G2 X127.74111675126903 Y47.1497461928934 I-3.565989847715736 J1.281725888324873
G2 X127.39593908629442 Y46.61421319796954 I-4 J2.197969543147208
G2 X126.98984771573605 Y46.13705583756345 I-3.901015228426396 J2.9213197969543145
G2 X126.51776649746193 Y45.71065989847716 I-3.6472081218274113 J3.5456852791878175
G2 X126.00507614213198 Y45.34771573604061 I-3.3248730964467006 J4.159898477157361
G2 X125.42131979695432 Y45.02791878172589 I-3.215736040609137 J5.1725888324873095
G2 X124.36802030456853 Y44.60659898477157 I-3.708121827411168 J7.758883248730965
G2 X123.17766497461929 Y44.29695431472081 I-3.2081218274111674 J9.875634517766498
G2 X121.96954314720813 Y44.121827411167516 I-2.266497461928934 J11.451776649746193
G2 X120.59898477157361 Y44.06091370558376 I-1.3705583756345177 J15.060913705583756
G2 X119.34010152284264 Y44.11167512690355 I0 J15.091370558375633
G2 X118.01015228426395 Y44.276649746192895 I1.434010152284264 J17.131979695431472
G2 X116.70304568527919 Y44.538071065989854 I2.9796954314720816 J18.291878172588834
G2 X115.31218274111674 Y44.91624365482234 I5.048223350253807 J21.236040609137056
G2 X113.94670050761421 Y45.39340101522843 I5.979695431472081 J19.350253807106597
G2 X112.87309644670052 Y45.868020304568525 I4.700507614213198 J12.078680203045685
G2 X111.83502538071066 Y46.46192893401015 I4.5761421319796955 J9.19796954314721
G2 X111.05583756345177 Y47.058375634517766 I3.588832487309644 J5.49746192893401
G2 X110.56345177664974 Y47.57360406091371 I2.8629441624365484 J3.2411167512690353
G2 X110.44416243654823 Y47.73096446700507 I2.479695431472081 J2.012690355329949
G1 X109.04568527918782 Y44.568527918781726
G2 X109.20050761421321 Y44.53299492385787 I-0.23096446700507614 J-1.3477157360406091
G2 X109.60659898477158 Y44.39593908629441 I-1.4111675126903553 J-4.8274111675126905
G2 X109.96700507614213 Y44.248730964467 I-3.4619289340101522 J-8.921319796954315
G2 X110.53299492385787 Y43.99238578680203 I-10.558375634517766 J-24.238578680203045
G1 X110.55329949238578 Y43.98223350253807
G3 X113.06091370558376 Y42.90862944162437 I11.383248730964468 J23.119289340101524
G3 X115.48984771573603 Y42.172588832487314 I7.720812182741117 J21.04314720812183
G3 X117.97969543147207 Y41.72081218274112 I5.055837563451777 J20.809644670050762
G3 X120.46446700507614 Y41.57106598984772 I2.482233502538071 J20.578680203045685
G3 X121.85786802030456 Y41.61421319796954 I0 J22.07360406091371
G3 X123.16243654822335 Y41.74111675126903 I-1.2411167512690355 J19.609137055837564
G3 X124.4517766497462 Y41.95685279187817 I-2.4187817258883246 J18.512690355329948
G3 X125.67258883248732 Y42.25126903553299 I-3.411167512690355 J16.827411167512693
G3 X127.23604060913706 Y42.78172588832487 I-3.850253807106599 J13.911167512690355
G3 X128.41370558375635 Y43.35532994923858 I-3.517766497461929 J8.692893401015228
G3 X129.45939086294416 Y44.08375634517767 I-3.83248730964467 J6.626903553299492
G3 X130.22081218274113 Y44.84517766497462 I-3.588832487309644 J4.34010152284264
G3 X130.92131979695432 Y45.850253807106604 I-5.6700507614213205 J4.713197969543147
G3 X131.39847715736042 Y46.86802030456853 I-5.456852791878173 J3.1751269035533
G3 X131.68527918781726 Y47.95177664974619 I-5.890862944162436 J2.1421319796954315
G3 X131.78934010152284 Y49.15482233502538 I-7.030456852791879 J1.2030456852791878
G3 X131.74619289340103 Y49.91878172588833 I-6.850253807106599 J0
G3 X131.62182741116752 Y50.63705583756345 I-6.261421319796955 J-0.7005076142131981
G3 X131.41878172588832 Y51.33502538071066 I-6.065989847715736 J-1.4035532994923858
G3 X131.12690355329948 Y52.01776649746193 I-6.098984771573605 J-2.185279187817259
G3 X130.75888324873097 Y52.664974619289346 I-5.84010152284264 J-2.8883248730964466
G3 X130.35279187817258 Y53.21827411167512 I-4.741116751269035 J-3.0609137055837565
G3 X129.88578680203045 Y53.713197969543145 I-4.162436548223351 J-3.469543147208122
G3 X129.37055837563452 Y54.13705583756345 I-3.6725888324873095 J-3.941624365482234
G3 X128.7766497461929 Y54.51522842639594 I-4.725888324873097 J-6.738578680203045
G3 X128.12436548223351 Y54.86040609137056 I-4.5 J-7.751269035532995
G3 X127.44162436548223 Y55.152284263959395 I-4.071065989847716 J-8.565989847715736
G3 X126.68781725888324 Y55.40862944162437 I-3.8756345177664975 J-10.131979695431472
G3 X125.90609137055837 Y55.61675126903553 I-3.6878172588832485 J-12.291878172588833
G3 X124.86294416243655 Y55.83248730964467 I-4.865482233502538 J-20.939086294416246
G3 X123.80456852791879 Y56.002538071065985 I-4.819796954314721 J-26.649746192893403
G3 X122.48984771573603 Y56.16497461928934 I-5.697969543147208 J-40.64467005076142
G0 Z3.175
G0 X90.96269035532995 Y64.55685279187817
G1 Z-1.7781725888324873 F10
G3 X89.35786802030456 Y64.44923857868021 I-0.005076142131979696 J-11.941624365482234 F500
G3 X87.98477157360406 Y64.15228426395939 I1.1903553299492384 J-8.809644670050762
G3 X86.66497461928934 Y63.62182741116751 I2.2893401015228427 J-7.601522842639595
G3 X85.52284263959392 Y62.89340101522843 I3.220812182741117 J-6.309644670050761
G3 X84.68020304568527 Y62.08121827411168 I3.383248730964467 J-4.3578680203045685
G3 X84.08121827411166 Y61.16497461928934 I3.5126903553299496 J-2.946700507614213
