(Generated by PartKam Version 0.05)

G20

(profile 4)
G0 Z0.25
T1 M6
G0 X2.6987 Y1.7039
G1 Z-0.05 F6
G1 X2.8972 Y1.6668 F6
G2 X2.8983 Y1.6698 I4.2886 J-1.6128
G2 X2.8838 Y1.6746 I0.3124 J0.973
G2 X2.8683 Y1.68 I0.253 J0.7493
G2 X2.8567 Y1.6844 I0.1502 J0.4161
G2 X2.8462 Y1.6939 I0.0073 J0.0186
G2 X2.8406 Y1.7085 I0.0679 J0.0346
G2 X2.8363 Y1.7295 I0.1644 J0.0447
G2 X2.8342 Y1.75 I0.2486 J0.035
G2 X2.8334 Y1.7784 I0.4945 J0.0284
G1 X2.8334 Y1.7785
G1 X2.8334 Y1.7785
G2 X2.834 Y1.8083 I0.7401 J0
G2 X2.8363 Y1.8504 I1.4896 J-0.0602
G2 X2.8396 Y1.8922 I2.0093 J-0.1381
G2 X2.8449 Y1.9459 I3.3908 J-0.3041
G1 X2.848 Y2.0062
G3 X2.8467 Y2.0442 I-0.6055 J-0.0005
G3 X2.8435 Y2.0753 I-0.4031 J-0.0257
G3 X2.8378 Y2.1055 I-0.3225 J-0.0458
G3 X2.8307 Y2.129 I-0.204 J-0.049
G3 X2.8184 Y2.1546 I-0.1339 J-0.0483
G3 X2.8077 Y2.1675 I-0.0501 J-0.0304
G3 X2.7953 Y2.1752 I-0.0268 J-0.0296
G3 X2.7811 Y2.1779 I-0.0142 J-0.0367
G3 X2.772 Y2.177 I0 J-0.0471
G3 X2.7595 Y2.1735 I0.0161 J-0.0819
G3 X2.7468 Y2.168 I0.0385 J-0.1055
G3 X2.7307 Y2.1587 I0.0887 J-0.1732
G3 X2.6744 Y2.115 I0.229 J-0.3528
G3 X2.6288 Y2.0647 I0.2602 J-0.282
G3 X2.5926 Y2.0072 I0.3117 J-0.2362
G3 X2.5643 Y1.939 I0.4076 J-0.2093
G2 X2.5253 Y1.9451 I-0.019 J0.0062
G1 X2.5253 Y1.9451
G1 X2.5253 Y1.9451
G2 X2.5288 Y2.0123 I0.6299 J0
G2 X2.5385 Y2.068 I0.4364 J-0.0468
G2 X2.5559 Y2.1221 I0.3615 J-0.0868
G2 X2.5632 Y2.1383 I0.2668 J-0.1093
G2 X2.4429 Y2.1465 I2.7207 J40.7072
G2 X2.365 Y2.1523 I0.7479 J10.7134
G2 X2.326 Y2.1554 I0.4275 J5.5438
G2 X2.3053 Y2.1573 I0.1298 J1.5413
G2 X2.3037 Y2.1575 I0.0811 J0.8296
G3 X2.3042 Y2.1506 I0.1239 J0.0066
G3 X2.3047 Y2.1478 I0.0272 J0.003
G3 X2.309 Y2.1471 I0.1589 J0.875
G3 X2.3173 Y2.1457 I0.0865 J0.4898
G3 X2.3255 Y2.1445 I0.0554 J0.3484
G3 X2.3307 Y2.1439 I0.0202 J0.1492
G2 X2.3319 Y2.1437 I-0.002 J-0.0199
G2 X2.3537 Y2.1371 I-0.0143 J-0.0867
G2 X2.3701 Y2.1259 I-0.0229 J-0.0509
G2 X2.3815 Y2.1089 I-0.0365 J-0.0369
G2 X2.3864 Y2.088 I-0.0605 J-0.0251
G3 X2.3886 Y2.0591 I1.3307 J0.0893
G3 X2.3919 Y2.0258 I1.7791 J0.1582
G3 X2.3958 Y1.9924 I2.0358 J0.2196
G3 X2.4008 Y1.9546 I2.6256 J0.3269
G3 X2.4108 Y1.8942 I1.4204 J0.2042
G3 X2.4191 Y1.8568 I0.5658 J0.1062
G3 X2.4304 Y1.8215 I0.3062 J0.0789
G3 X2.437 Y1.8093 I0.0523 J0.0202
G2 X2.4407 Y1.7977 I-0.0163 J-0.0116
G2 X2.4122 Y1.7796 I-0.02 J0
G3 X2.3981 Y1.7854 I-0.0702 J-0.1499
G3 X2.3856 Y1.7892 I-0.0425 J-0.118
G3 X2.373 Y1.7915 I-0.0265 J-0.1073
G3 X2.3617 Y1.7923 I-0.0113 J-0.0894
G3 X2.3539 Y1.7919 I0 J-0.0986
G3 X2.3501 Y1.7915 I0.0051 J-0.0646
G1 X2.3497 Y1.747
G2 X2.3569 Y1.749 I0.0371 J-0.1171
G2 X2.3807 Y1.7532 I0.041 J-0.1631
G2 X2.4124 Y1.7548 I0.0317 J-0.3083
G2 X2.4593 Y1.7522 I0 J-0.4238
G2 X2.5067 Y1.7443 I-0.049 J-0.4394
G2 X2.5528 Y1.7315 I-0.1006 J-0.4507
G2 X2.5599 Y1.729 I-0.1662 J-0.4959
G2 X2.556 Y1.7419 I1.7412 J0.5397
G2 X2.5459 Y1.7784 I0.7839 J0.2367
G2 X2.538 Y1.8159 I0.4846 J0.1222
G2 X2.5359 Y1.8378 I0.1449 J0.0249
G1 X2.5359 Y1.8382
G2 X2.5365 Y1.843 I0.02 J0
G2 X2.5548 Y1.8995 I0.4069 J-0.101
G2 X2.5761 Y1.9405 I0.226 J-0.0916
G2 X2.6061 Y1.9762 I0.1607 J-0.1041
G2 X2.6399 Y1.9999 I0.0993 J-0.1062
G2 X2.6494 Y2.0043 I0.0672 J-0.1312
G2 X2.6575 Y2.0073 I0.036 J-0.0846
G2 X2.6666 Y2.0096 I0.022 J-0.069
G2 X2.675 Y2.0103 I0.0084 J-0.0465
G2 X2.6992 Y2.0029 I0 J-0.0435
G2 X2.7167 Y1.9835 I-0.0297 J-0.0441
G2 X2.7245 Y1.9614 I-0.0738 J-0.0387
G2 X2.7288 Y1.9267 I-0.2172 J-0.0441
G1 X2.7288 Y1.9259
G1 X2.7288 Y1.9259
G3 X2.7288 Y1.9228 I243.6618 J-0.009
G3 X2.7288 Y1.9191 I380.725 J-0.0094
G1 X2.7288 Y1.9108
G1 X2.7288 Y1.901
G1 X2.7288 Y1.8897
G2 X2.7258 Y1.8203 I-0.8131 J0
G2 X2.7183 Y1.7676 I-0.466 J0.0399
G2 X2.7036 Y1.716 I-0.3418 J0.069
G2 X2.6987 Y1.7039 I-0.1889 J0.0696
G1 Z-0.1 F6
G1 X2.8972 Y1.6668 F6
G2 X2.8983 Y1.6698 I4.2886 J-1.6128
G2 X2.8838 Y1.6746 I0.3124 J0.973
G2 X2.8683 Y1.68 I0.253 J0.7493
G2 X2.8567 Y1.6844 I0.1502 J0.4161
G2 X2.8462 Y1.6939 I0.0073 J0.0186
G2 X2.8406 Y1.7085 I0.0679 J0.0346
G2 X2.8363 Y1.7295 I0.1644 J0.0447
G2 X2.8342 Y1.75 I0.2486 J0.035
G2 X2.8334 Y1.7784 I0.4945 J0.0284
G1 X2.8334 Y1.7785
G1 X2.8334 Y1.7785
G2 X2.834 Y1.8083 I0.7401 J0
G2 X2.8363 Y1.8504 I1.4896 J-0.0602
G2 X2.8396 Y1.8922 I2.0093 J-0.1381
G2 X2.8449 Y1.9459 I3.3908 J-0.3041
G1 X2.848 Y2.0062
G3 X2.8467 Y2.0442 I-0.6055 J-0.0005
G3 X2.8435 Y2.0753 I-0.4031 J-0.0257
G3 X2.8378 Y2.1055 I-0.3225 J-0.0458
G3 X2.8307 Y2.129 I-0.204 J-0.049
G3 X2.8184 Y2.1546 I-0.1339 J-0.0483
G3 X2.8077 Y2.1675 I-0.0501 J-0.0304
G3 X2.7953 Y2.1752 I-0.0268 J-0.0296
G3 X2.7811 Y2.1779 I-0.0142 J-0.0367
G3 X2.772 Y2.177 I0 J-0.0471
G3 X2.7595 Y2.1735 I0.0161 J-0.0819
G3 X2.7468 Y2.168 I0.0385 J-0.1055
G3 X2.7307 Y2.1587 I0.0887 J-0.1732
G3 X2.6744 Y2.115 I0.229 J-0.3528
G3 X2.6288 Y2.0647 I0.2602 J-0.282
G3 X2.5926 Y2.0072 I0.3117 J-0.2362
G3 X2.5643 Y1.939 I0.4076 J-0.2093
G2 X2.5253 Y1.9451 I-0.019 J0.0062
G1 X2.5253 Y1.9451
G1 X2.5253 Y1.9451
G2 X2.5288 Y2.0123 I0.6299 J0
G2 X2.5385 Y2.068 I0.4364 J-0.0468
G2 X2.5559 Y2.1221 I0.3615 J-0.0868
G2 X2.5632 Y2.1383 I0.2668 J-0.1093
G2 X2.4429 Y2.1465 I2.7207 J40.7072
G2 X2.365 Y2.1523 I0.7479 J10.7134
G2 X2.326 Y2.1554 I0.4275 J5.5438
G2 X2.3053 Y2.1573 I0.1298 J1.5413
G2 X2.3037 Y2.1575 I0.0811 J0.8296
G3 X2.3042 Y2.1506 I0.1239 J0.0066
G3 X2.3047 Y2.1478 I0.0272 J0.003
G3 X2.309 Y2.1471 I0.1589 J0.875
G3 X2.3173 Y2.1457 I0.0865 J0.4898
G3 X2.3255 Y2.1445 I0.0554 J0.3484
G3 X2.3307 Y2.1439 I0.0202 J0.1492
G2 X2.3319 Y2.1437 I-0.002 J-0.0199
G2 X2.3537 Y2.1371 I-0.0143 J-0.0867
G2 X2.3701 Y2.1259 I-0.0229 J-0.0509
G2 X2.3815 Y2.1089 I-0.0365 J-0.0369
G2 X2.3864 Y2.088 I-0.0605 J-0.0251
G3 X2.3886 Y2.0591 I1.3307 J0.0893
G3 X2.3919 Y2.0258 I1.7791 J0.1582
G3 X2.3958 Y1.9924 I2.0358 J0.2196
G3 X2.4008 Y1.9546 I2.6256 J0.3269
G3 X2.4108 Y1.8942 I1.4204 J0.2042
G3 X2.4191 Y1.8568 I0.5658 J0.1062
G3 X2.4304 Y1.8215 I0.3062 J0.0789
G3 X2.437 Y1.8093 I0.0523 J0.0202
G2 X2.4407 Y1.7977 I-0.0163 J-0.0116
G2 X2.4122 Y1.7796 I-0.02 J0
G3 X2.3981 Y1.7854 I-0.0702 J-0.1499
G3 X2.3856 Y1.7892 I-0.0425 J-0.118
G3 X2.373 Y1.7915 I-0.0265 J-0.1073
G3 X2.3617 Y1.7923 I-0.0113 J-0.0894
G3 X2.3539 Y1.7919 I0 J-0.0986
G3 X2.3501 Y1.7915 I0.0051 J-0.0646
G1 X2.3497 Y1.747
G2 X2.3569 Y1.749 I0.0371 J-0.1171
G2 X2.3807 Y1.7532 I0.041 J-0.1631
G2 X2.4124 Y1.7548 I0.0317 J-0.3083
G2 X2.4593 Y1.7522 I0 J-0.4238
G2 X2.5067 Y1.7443 I-0.049 J-0.4394
G2 X2.5528 Y1.7315 I-0.1006 J-0.4507
G2 X2.5599 Y1.729 I-0.1662 J-0.4959
G2 X2.556 Y1.7419 I1.7412 J0.5397
G2 X2.5459 Y1.7784 I0.7839 J0.2367
G2 X2.538 Y1.8159 I0.4846 J0.1222
G2 X2.5359 Y1.8378 I0.1449 J0.0249
G1 X2.5359 Y1.8382
G2 X2.5365 Y1.843 I0.02 J0
G2 X2.5548 Y1.8995 I0.4069 J-0.101
G2 X2.5761 Y1.9405 I0.226 J-0.0916
G2 X2.6061 Y1.9762 I0.1607 J-0.1041
G2 X2.6399 Y1.9999 I0.0993 J-0.1062
G2 X2.6494 Y2.0043 I0.0672 J-0.1312
G2 X2.6575 Y2.0073 I0.036 J-0.0846
G2 X2.6666 Y2.0096 I0.022 J-0.069
G2 X2.675 Y2.0103 I0.0084 J-0.0465
G2 X2.6992 Y2.0029 I0 J-0.0435
G2 X2.7167 Y1.9835 I-0.0297 J-0.0441
G2 X2.7245 Y1.9614 I-0.0738 J-0.0387
G2 X2.7288 Y1.9267 I-0.2172 J-0.0441
G1 X2.7288 Y1.9259
G1 X2.7288 Y1.9259
G3 X2.7288 Y1.9228 I243.6618 J-0.009
G3 X2.7288 Y1.9191 I380.725 J-0.0094
G1 X2.7288 Y1.9108
G1 X2.7288 Y1.901
G1 X2.7288 Y1.8897
G2 X2.7258 Y1.8203 I-0.8131 J0
G2 X2.7183 Y1.7676 I-0.466 J0.0399
G2 X2.7036 Y1.716 I-0.3418 J0.069
G2 X2.6987 Y1.7039 I-0.1889 J0.0696
G0 Z0.25
G0 X5.32 Y2.3126
G1 Z-0.05 F6
G2 X5.1749 Y2.3262 I5.9212 J64.0954 F6
G2 X5.0864 Y2.3348 I1.5865 J16.7593
G2 X5.0421 Y2.3393 I0.8633 J8.633
G2 X5.0188 Y2.3419 I0.2488 J2.3651
G2 X5.0147 Y2.3424 I0.145 J1.2589
G3 X5.0154 Y2.333 I0.1571 J0.006
G3 X5.016 Y2.329 I0.0351 J0.0035
G3 X5.0223 Y2.3279 I0.2748 J1.4971
G3 X5.0321 Y2.3262 I0.1439 J0.8032
G3 X5.0418 Y2.3246 I0.0924 J0.5546
G3 X5.0477 Y2.3238 I0.0325 J0.2182
G2 X5.049 Y2.3236 I-0.0024 J-0.0199
G2 X5.0709 Y2.3163 I-0.0153 J-0.082
G2 X5.0871 Y2.3039 I-0.0241 J-0.0483
G2 X5.0975 Y2.286 I-0.0385 J-0.0343
G2 X5.1011 Y2.2639 I-0.066 J-0.0221
G2 X5.101 Y2.2541 I-0.9421 J0
G2 X5.1008 Y2.24 I-1.9452 J0.0203
G2 X5.1006 Y2.226 I-2.6467 J0.0468
G2 X5.1001 Y2.2077 I-4.5186 J0.1038
G3 X5.0996 Y2.1896 I4.7984 J-0.1297
G3 X5.0994 Y2.1762 I2.6421 J-0.0614
G3 X5.0992 Y2.1629 I1.858 J-0.0338
G3 X5.0991 Y2.1542 I0.7846 J-0.0086
G1 X5.0991 Y2.1542
G1 X5.0991 Y2.1542
G3 X5.1029 Y2.0369 I1.8406 J0
G3 X5.1125 Y1.9448 I1.1481 J0.0733
G3 X5.1303 Y1.8548 I0.8825 J0.1282
G3 X5.1519 Y1.7882 I0.5094 J0.1286
G2 X5.1534 Y1.7808 I-0.0186 J-0.0074
G2 X5.1292 Y1.7613 I-0.02 J0
G3 X5.119 Y1.7632 I-0.0518 J-0.2417
G3 X5.1102 Y1.7645 I-0.0307 J-0.1799
G3 X5.1016 Y1.7653 I-0.0187 J-0.1541
G3 X5.0945 Y1.7655 I-0.0071 J-0.1101
G3 X5.0802 Y1.7647 I0 J-0.1233
G3 X5.0691 Y1.7626 I0.0095 J-0.0815
G3 X5.0621 Y1.7604 I0.0171 J-0.0659
G1 X5.0713 Y1.709
G2 X5.1225 Y1.7275 I0.1017 J-0.2022
G2 X5.1777 Y1.7361 I0.0895 J-0.3912
G2 X5.2654 Y1.7399 I0.0878 J-1.022
G2 X5.3317 Y1.7385 I0 J-1.6188
G2 X5.4015 Y1.7343 I-0.0739 J-1.8062
G2 X5.471 Y1.7275 I-0.1521 J-1.9071
G2 X5.5388 Y1.7185 I-0.2488 J-2.1326
G1 X5.5595 Y1.7517
G3 X5.5699 Y1.7703 I-0.334 J0.1976
G3 X5.5789 Y1.7888 I-0.3248 J0.1689
G3 X5.5868 Y1.8078 I-0.3263 J0.147
G3 X5.5935 Y1.827 I-0.3236 J0.1239
G3 X5.601 Y1.8541 I-0.3489 J0.1114
G3 X5.6063 Y1.8813 I-0.3471 J0.0822
G3 X5.6095 Y1.9088 I-0.3522 J0.0549
G3 X5.6106 Y1.9369 I-0.3641 J0.0281
G3 X5.6043 Y1.992 I-0.2455 J0
G3 X5.5928 Y2.0181 I-0.0739 J-0.017
G3 X5.5747 Y2.0336 I-0.0384 J-0.0265
G3 X5.5453 Y2.0403 I-0.0294 J-0.0609
G3 X5.5326 Y2.0396 I0 J-0.1198
G3 X5.5151 Y2.037 I0.023 J-0.215
G3 X5.4974 Y2.033 I0.0529 J-0.2771
G3 X5.4749 Y2.0266 I0.1135 J-0.4396
G3 X5.4476 Y2.017 I0.1067 J-0.3456
G3 X5.4252 Y2.0068 I0.099 J-0.2481
G3 X5.4041 Y1.9946 I0.1048 J-0.2053
G3 X5.387 Y1.9819 I0.0966 J-0.1482
G3 X5.3719 Y1.9675 I0.0889 J-0.1083
G3 X5.3635 Y1.9561 I0.053 J-0.0478
G3 X5.3584 Y1.9444 I0.0441 J-0.0262
G3 X5.357 Y1.9345 I0.0337 J-0.0099
G1 X5.357 Y1.9345
G1 X5.357 Y1.9345
G3 X5.3575 Y1.9288 I0.0289 J0
G3 X5.3593 Y1.9231 I0.03 J0.006
G3 X5.3622 Y1.9175 I0.0329 J0.0137
G3 X5.3673 Y1.9108 I0.0458 J0.0294
G3 X5.3831 Y1.8964 I0.0734 J0.0646
G3 X5.4005 Y1.8865 I0.052 J0.0712
G3 X5.42 Y1.8806 I0.0371 J0.0873
G3 X5.4447 Y1.8782 I0.0246 J0.1303
G3 X5.4726 Y1.8806 I0 J0.1699
G3 X5.5008 Y1.8876 I-0.0298 J0.1788
G3 X5.5278 Y1.899 I-0.0633 J0.1876
G3 X5.5567 Y1.9164 I-0.1166 J0.2273
G2 X5.5607 Y1.9185 I0.0114 J-0.0164
G1 X5.5646 Y1.9201
G2 X5.572 Y1.9215 I0.0074 J-0.0186
G2 X5.5869 Y1.9169 I0 J-0.0264
G2 X5.5965 Y1.9058 I-0.0161 J-0.0236
G2 X5.5997 Y1.8957 I-0.0328 J-0.016
G2 X5.6007 Y1.8838 I-0.073 J-0.0119
G2 X5.5976 Y1.8621 I-0.0795 J0
G2 X5.5887 Y1.8414 I-0.0826 J0.0235
G2 X5.5754 Y1.824 I-0.0853 J0.0512
G2 X5.5561 Y1.8069 I-0.1094 J0.1042
G2 X5.5259 Y1.7891 I-0.0962 J0.1286
G2 X5.4869 Y1.7755 I-0.0959 J0.2126
G2 X5.4467 Y1.7683 I-0.0718 J0.2858
G2 X5.3955 Y1.7655 I-0.0511 J0.4738
G2 X5.3259 Y1.7801 I0 J0.1741
G2 X5.2777 Y1.8179 I0.0489 J0.112
G2 X5.2509 Y1.8732 I0.1221 J0.0932
G2 X5.2395 Y1.9636 I0.3548 J0.0903
G1 X5.2395 Y1.9636
G1 X5.2395 Y1.9636
G2 X5.2412 Y2.0023 I0.4461 J0
G2 X5.2472 Y2.0512 I0.7274 J-0.0634
G2 X5.256 Y2.0993 I0.9081 J-0.1413
G2 X5.2696 Y2.1579 I1.3726 J-0.2892
G2 X5.2846 Y2.2128 I1.4416 J-0.3643
G2 X5.2991 Y2.2582 I0.9954 J-0.2925
G2 X5.3159 Y2.303 I0.8087 J-0.2786
G2 X5.32 Y2.3126 I0.5257 J-0.2146
G1 Z-0.1 F6
G2 X5.1749 Y2.3262 I5.9212 J64.0954 F6
G2 X5.0864 Y2.3348 I1.5865 J16.7593
G2 X5.0421 Y2.3393 I0.8633 J8.633
G2 X5.0188 Y2.3419 I0.2488 J2.3651
G2 X5.0147 Y2.3424 I0.145 J1.2589
G3 X5.0154 Y2.333 I0.1571 J0.006
G3 X5.016 Y2.329 I0.0351 J0.0035
G3 X5.0223 Y2.3279 I0.2748 J1.4971
G3 X5.0321 Y2.3262 I0.1439 J0.8032
G3 X5.0418 Y2.3246 I0.0924 J0.5546
G3 X5.0477 Y2.3238 I0.0325 J0.2182
G2 X5.049 Y2.3236 I-0.0024 J-0.0199
G2 X5.0709 Y2.3163 I-0.0153 J-0.082
G2 X5.0871 Y2.3039 I-0.0241 J-0.0483
G2 X5.0975 Y2.286 I-0.0385 J-0.0343
G2 X5.1011 Y2.2639 I-0.066 J-0.0221
G2 X5.101 Y2.2541 I-0.9421 J0
G2 X5.1008 Y2.24 I-1.9452 J0.0203
G2 X5.1006 Y2.226 I-2.6467 J0.0468
G2 X5.1001 Y2.2077 I-4.5186 J0.1038
G3 X5.0996 Y2.1896 I4.7984 J-0.1297
G3 X5.0994 Y2.1762 I2.6421 J-0.0614
G3 X5.0992 Y2.1629 I1.858 J-0.0338
G3 X5.0991 Y2.1542 I0.7846 J-0.0086
G1 X5.0991 Y2.1542
G1 X5.0991 Y2.1542
G3 X5.1029 Y2.0369 I1.8406 J0
G3 X5.1125 Y1.9448 I1.1481 J0.0733
G3 X5.1303 Y1.8548 I0.8825 J0.1282
G3 X5.1519 Y1.7882 I0.5094 J0.1286
G2 X5.1534 Y1.7808 I-0.0186 J-0.0074
G2 X5.1292 Y1.7613 I-0.02 J0
G3 X5.119 Y1.7632 I-0.0518 J-0.2417
G3 X5.1102 Y1.7645 I-0.0307 J-0.1799
G3 X5.1016 Y1.7653 I-0.0187 J-0.1541
G3 X5.0945 Y1.7655 I-0.0071 J-0.1101
G3 X5.0802 Y1.7647 I0 J-0.1233
G3 X5.0691 Y1.7626 I0.0095 J-0.0815
G3 X5.0621 Y1.7604 I0.0171 J-0.0659
G1 X5.0713 Y1.709
G2 X5.1225 Y1.7275 I0.1017 J-0.2022
G2 X5.1777 Y1.7361 I0.0895 J-0.3912
G2 X5.2654 Y1.7399 I0.0878 J-1.022
G2 X5.3317 Y1.7385 I0 J-1.6188
G2 X5.4015 Y1.7343 I-0.0739 J-1.8062
G2 X5.471 Y1.7275 I-0.1521 J-1.9071
G2 X5.5388 Y1.7185 I-0.2488 J-2.1326
G1 X5.5595 Y1.7517
G3 X5.5699 Y1.7703 I-0.334 J0.1976
G3 X5.5789 Y1.7888 I-0.3248 J0.1689
G3 X5.5868 Y1.8078 I-0.3263 J0.147
G3 X5.5935 Y1.827 I-0.3236 J0.1239
G3 X5.601 Y1.8541 I-0.3489 J0.1114
G3 X5.6063 Y1.8813 I-0.3471 J0.0822
G3 X5.6095 Y1.9088 I-0.3522 J0.0549
G3 X5.6106 Y1.9369 I-0.3641 J0.0281
G3 X5.6043 Y1.992 I-0.2455 J0
G3 X5.5928 Y2.0181 I-0.0739 J-0.017
G3 X5.5747 Y2.0336 I-0.0384 J-0.0265
G3 X5.5453 Y2.0403 I-0.0294 J-0.0609
G3 X5.5326 Y2.0396 I0 J-0.1198
G3 X5.5151 Y2.037 I0.023 J-0.215
G3 X5.4974 Y2.033 I0.0529 J-0.2771
G3 X5.4749 Y2.0266 I0.1135 J-0.4396
G3 X5.4476 Y2.017 I0.1067 J-0.3456
G3 X5.4252 Y2.0068 I0.099 J-0.2481
G3 X5.4041 Y1.9946 I0.1048 J-0.2053
G3 X5.387 Y1.9819 I0.0966 J-0.1482
G3 X5.3719 Y1.9675 I0.0889 J-0.1083
G3 X5.3635 Y1.9561 I0.053 J-0.0478
G3 X5.3584 Y1.9444 I0.0441 J-0.0262
G3 X5.357 Y1.9345 I0.0337 J-0.0099
G1 X5.357 Y1.9345
G1 X5.357 Y1.9345
G3 X5.3575 Y1.9288 I0.0289 J0
G3 X5.3593 Y1.9231 I0.03 J0.006
G3 X5.3622 Y1.9175 I0.0329 J0.0137
G3 X5.3673 Y1.9108 I0.0458 J0.0294
G3 X5.3831 Y1.8964 I0.0734 J0.0646
G3 X5.4005 Y1.8865 I0.052 J0.0712
G3 X5.42 Y1.8806 I0.0371 J0.0873
G3 X5.4447 Y1.8782 I0.0246 J0.1303
G3 X5.4726 Y1.8806 I0 J0.1699
G3 X5.5008 Y1.8876 I-0.0298 J0.1788
G3 X5.5278 Y1.899 I-0.0633 J0.1876
G3 X5.5567 Y1.9164 I-0.1166 J0.2273
G2 X5.5607 Y1.9185 I0.0114 J-0.0164
G1 X5.5646 Y1.9201
G2 X5.572 Y1.9215 I0.0074 J-0.0186
G2 X5.5869 Y1.9169 I0 J-0.0264
G2 X5.5965 Y1.9058 I-0.0161 J-0.0236
G2 X5.5997 Y1.8957 I-0.0328 J-0.016
G2 X5.6007 Y1.8838 I-0.073 J-0.0119
G2 X5.5976 Y1.8621 I-0.0795 J0
G2 X5.5887 Y1.8414 I-0.0826 J0.0235
G2 X5.5754 Y1.824 I-0.0853 J0.0512
G2 X5.5561 Y1.8069 I-0.1094 J0.1042
G2 X5.5259 Y1.7891 I-0.0962 J0.1286
G2 X5.4869 Y1.7755 I-0.0959 J0.2126
G2 X5.4467 Y1.7683 I-0.0718 J0.2858
G2 X5.3955 Y1.7655 I-0.0511 J0.4738
G2 X5.3259 Y1.7801 I0 J0.1741
G2 X5.2777 Y1.8179 I0.0489 J0.112
G2 X5.2509 Y1.8732 I0.1221 J0.0932
G2 X5.2395 Y1.9636 I0.3548 J0.0903
G1 X5.2395 Y1.9636
G1 X5.2395 Y1.9636
G2 X5.2412 Y2.0023 I0.4461 J0
G2 X5.2472 Y2.0512 I0.7274 J-0.0634
G2 X5.256 Y2.0993 I0.9081 J-0.1413
G2 X5.2696 Y2.1579 I1.3726 J-0.2892
G2 X5.2846 Y2.2128 I1.4416 J-0.3643
G2 X5.2991 Y2.2582 I0.9954 J-0.2925
G2 X5.3159 Y2.303 I0.8087 J-0.2786
G2 X5.32 Y2.3126 I0.5257 J-0.2146
G0 Z0.25
G0 X1.2404 Y2.3373
G1 Z-0.05 F6
G1 X1.0968 Y2.3469 F6
G2 X1.0297 Y2.3517 I0.6902 J10.2342
G2 X0.989 Y2.3549 I0.278 J3.7555
G2 X0.9548 Y2.3581 I0.1627 J1.9147
G3 X0.9554 Y2.3503 I0.1453 J0.0064
G3 X0.9556 Y2.3483 I0.0298 J0.0029
G1 X0.9557 Y2.3483
G3 X0.9627 Y2.3471 I0.3828 J2.2226
G3 X0.9696 Y2.3459 I0.3303 J1.9541
G3 X0.9756 Y2.3449 I0.2452 J1.4825
G2 X0.9885 Y2.3425 I-0.0426 J-0.2596
G2 X0.9981 Y2.3401 I-0.0287 J-0.133
G2 X1.008 Y2.3365 I-0.0265 J-0.0905
G2 X1.0155 Y2.3326 I-0.0177 J-0.0422
G2 X1.0256 Y2.3239 I-0.0255 J-0.0401
G2 X1.0331 Y2.3125 I-0.0357 J-0.0315
G2 X1.037 Y2.3003 I-0.0476 J-0.0222
G2 X1.0384 Y2.2863 I-0.0724 J-0.014
G1 X1.0384 Y2.2863
G1 X1.0384 Y2.2863
G3 X1.0393 Y2.2403 I1.1905 J0
G3 X1.0424 Y2.1834 I1.8162 J0.0702
G3 X1.0471 Y2.1265 I2.1988 J0.1541
G3 X1.0544 Y2.0587 I3.1242 J0.3005
G3 X1.0647 Y1.9803 I2.5632 J0.2989
G3 X1.0751 Y1.9184 I1.6107 J0.2381
G3 X1.0881 Y1.8574 I1.2361 J0.2316
G3 X1.1004 Y1.8127 I0.6829 J0.1634
G2 X1.1013 Y1.8068 I-0.0191 J-0.0059
G2 X1.0728 Y1.7886 I-0.02 J0
G3 X1.0587 Y1.7945 I-0.0702 J-0.1499
G3 X1.0462 Y1.7982 I-0.0425 J-0.118
G3 X1.0336 Y1.8006 I-0.0265 J-0.1073
G3 X1.0223 Y1.8013 I-0.0113 J-0.0894
G3 X1.0144 Y1.801 I0 J-0.0955
G3 X1.01 Y1.8004 I0.0053 J-0.0633
G1 X1.0096 Y1.7536
G2 X1.0229 Y1.7573 I0.0509 J-0.1555
G2 X1.0477 Y1.7615 I0.0451 J-0.1914
G2 X1.0777 Y1.7631 I0.03 J-0.2892
G2 X1.1216 Y1.7606 I0 J-0.3853
G2 X1.1662 Y1.7529 I-0.0467 J-0.4072
G2 X1.2097 Y1.7406 I-0.0963 J-0.4217
G2 X1.2141 Y1.7391 I-0.1614 J-0.4728
G2 X1.2102 Y1.7518 I1.7425 J0.5441
G2 X1.2 Y1.7885 I0.7826 J0.2381
G2 X1.1919 Y1.8261 I0.4829 J0.1227
G2 X1.1898 Y1.848 I0.1436 J0.0249
G1 X1.1898 Y1.8484
G2 X1.1902 Y1.8525 I0.02 J0
G2 X1.1991 Y1.886 I0.3275 J-0.0683
G2 X1.208 Y1.9101 I0.2699 J-0.0862
G2 X1.178 Y1.9268 I-0.0099 J0.0174
G1 X1.1765 Y1.9783
G1 X1.1764 Y1.9789
G1 X1.1764 Y1.9789
G1 X1.1764 Y1.9789
G2 X1.1811 Y2.0776 I1.0499 J0
G2 X1.1949 Y2.1741 I1.0154 J-0.0959
G2 X1.2178 Y2.2688 I1.0049 J-0.193
G2 X1.2404 Y2.3373 I1.0239 J-0.3
G1 Z-0.1 F6
G1 X1.0968 Y2.3469 F6
G2 X1.0297 Y2.3517 I0.6902 J10.2342
G2 X0.989 Y2.3549 I0.278 J3.7555
G2 X0.9548 Y2.3581 I0.1627 J1.9147
G3 X0.9554 Y2.3503 I0.1453 J0.0064
G3 X0.9556 Y2.3483 I0.0298 J0.0029
G1 X0.9557 Y2.3483
G3 X0.9627 Y2.3471 I0.3828 J2.2226
G3 X0.9696 Y2.3459 I0.3303 J1.9541
G3 X0.9756 Y2.3449 I0.2452 J1.4825
G2 X0.9885 Y2.3425 I-0.0426 J-0.2596
G2 X0.9981 Y2.3401 I-0.0287 J-0.133
G2 X1.008 Y2.3365 I-0.0265 J-0.0905
G2 X1.0155 Y2.3326 I-0.0177 J-0.0422
G2 X1.0256 Y2.3239 I-0.0255 J-0.0401
G2 X1.0331 Y2.3125 I-0.0357 J-0.0315
G2 X1.037 Y2.3003 I-0.0476 J-0.0222
G2 X1.0384 Y2.2863 I-0.0724 J-0.014
G1 X1.0384 Y2.2863
G1 X1.0384 Y2.2863
G3 X1.0393 Y2.2403 I1.1905 J0
G3 X1.0424 Y2.1834 I1.8162 J0.0702
G3 X1.0471 Y2.1265 I2.1988 J0.1541
G3 X1.0544 Y2.0587 I3.1242 J0.3005
G3 X1.0647 Y1.9803 I2.5632 J0.2989
G3 X1.0751 Y1.9184 I1.6107 J0.2381
G3 X1.0881 Y1.8574 I1.2361 J0.2316
G3 X1.1004 Y1.8127 I0.6829 J0.1634
G2 X1.1013 Y1.8068 I-0.0191 J-0.0059
G2 X1.0728 Y1.7886 I-0.02 J0
G3 X1.0587 Y1.7945 I-0.0702 J-0.1499
G3 X1.0462 Y1.7982 I-0.0425 J-0.118
G3 X1.0336 Y1.8006 I-0.0265 J-0.1073
G3 X1.0223 Y1.8013 I-0.0113 J-0.0894
G3 X1.0144 Y1.801 I0 J-0.0955
G3 X1.01 Y1.8004 I0.0053 J-0.0633
G1 X1.0096 Y1.7536
G2 X1.0229 Y1.7573 I0.0509 J-0.1555
G2 X1.0477 Y1.7615 I0.0451 J-0.1914
G2 X1.0777 Y1.7631 I0.03 J-0.2892
G2 X1.1216 Y1.7606 I0 J-0.3853
G2 X1.1662 Y1.7529 I-0.0467 J-0.4072
G2 X1.2097 Y1.7406 I-0.0963 J-0.4217
G2 X1.2141 Y1.7391 I-0.1614 J-0.4728
G2 X1.2102 Y1.7518 I1.7425 J0.5441
G2 X1.2 Y1.7885 I0.7826 J0.2381
G2 X1.1919 Y1.8261 I0.4829 J0.1227
G2 X1.1898 Y1.848 I0.1436 J0.0249
G1 X1.1898 Y1.8484
G2 X1.1902 Y1.8525 I0.02 J0
G2 X1.1991 Y1.886 I0.3275 J-0.0683
G2 X1.208 Y1.9101 I0.2699 J-0.0862
G2 X1.178 Y1.9268 I-0.0099 J0.0174
G1 X1.1765 Y1.9783
G1 X1.1764 Y1.9789
G1 X1.1764 Y1.9789
G1 X1.1764 Y1.9789
G2 X1.1811 Y2.0776 I1.0499 J0
G2 X1.1949 Y2.1741 I1.0154 J-0.0959
G2 X1.2178 Y2.2688 I1.0049 J-0.193
G2 X1.2404 Y2.3373 I1.0239 J-0.3
G0 Z0.25
G0 X3.8553 Y1.7457
G1 Z-0.05 F6
G2 X3.9467 Y1.7485 I0.0915 J-1.455 F6
G2 X3.9618 Y1.7485 I0 J-2.0137
G2 X3.9733 Y1.7483 I-0.0087 J-1.1616
G2 X3.9761 Y1.7483 I-0.0147 J-0.8454
G3 X3.9764 Y1.7496 I-39.2555 J8.8038
G3 X3.9797 Y1.7645 I-28.5599 J6.4041
G3 X3.9808 Y1.7693 I-24.0347 J5.3762
G2 X3.9717 Y1.7701 I0.1178 J1.3921
G2 X3.9448 Y1.7729 I0.0882 J0.9671
G2 X3.9178 Y1.7766 I0.0945 J0.7912
G2 X3.8959 Y1.7805 I0.0789 J0.512
G2 X3.8758 Y1.7855 I0.0569 J0.273
G2 X3.8629 Y1.7901 I0.0293 J0.102
G2 X3.8494 Y1.7982 I0.0241 J0.0557
G2 X3.84 Y1.8119 I0.0175 J0.0221
G2 X3.8232 Y1.8701 I1.4493 J0.4483
G2 X3.813 Y1.9134 I0.7815 J0.2079
G2 X3.8056 Y1.9577 I0.5494 J0.1142
G2 X3.8037 Y1.988 I0.2408 J0.0302
G1 X3.8037 Y1.988
G1 X3.8037 Y1.988
G2 X3.8075 Y2.0251 I0.1821 J0
G2 X3.8181 Y2.0565 I0.1356 J-0.0282
G2 X3.8362 Y2.0846 I0.1194 J-0.057
G2 X3.8618 Y2.1086 I0.1144 J-0.096
G2 X3.8857 Y2.1234 I0.1031 J-0.1398
G2 X3.9113 Y2.134 I0.0764 J-0.149
G2 X3.9382 Y2.1402 I0.0523 J-0.1645
G2 X3.9676 Y2.1424 I0.0294 J-0.1975
G2 X3.9843 Y2.1415 I0 J-0.1633
G2 X3.9996 Y2.1391 I-0.0139 J-0.1355
G2 X4.0146 Y2.1348 I-0.0272 J-0.1239
G2 X4.0287 Y2.1287 I-0.0386 J-0.109
G2 X4.0401 Y2.122 I-0.0541 J-0.1041
G2 X4.0482 Y2.1153 I-0.032 J-0.0476
G2 X4.0558 Y2.1051 I-0.0288 J-0.0293
G2 X4.0591 Y2.0917 I-0.0255 J-0.0134
G1 X4.0591 Y2.0917
G2 X4.0581 Y2.0839 I-0.0303 J0
G2 X4.0543 Y2.0758 I-0.0247 J0.0066
G2 X4.0473 Y2.0691 I-0.0205 J0.0144
G2 X4.0391 Y2.0656 I-0.0146 J0.0229
G3 X4.0145 Y2.0584 I0.0621 J-0.258
G3 X3.9938 Y2.05 I0.0669 J-0.1932
G3 X3.9745 Y2.0394 I0.078 J-0.1647
G3 X3.9583 Y2.0276 I0.0818 J-0.1296
G3 X3.9413 Y2.0104 I0.0797 J-0.096
G3 X3.9305 Y1.9936 I0.0691 J-0.0562
G3 X3.9239 Y1.975 I0.075 J-0.037
G3 X3.9215 Y1.9538 I0.0939 J-0.0213
G1 X3.9215 Y1.9538
G1 X3.9215 Y1.9538
G3 X3.9242 Y1.9444 I0.018 J0
G3 X3.9324 Y1.9365 I0.0187 J0.0115
G3 X3.9487 Y1.9308 I0.026 J0.0478
G3 X3.9868 Y1.9274 I0.0381 J0.2103
G3 X4.0086 Y1.9282 I0 J0.2823
G3 X4.0335 Y1.931 I-0.0282 J0.3647
G3 X4.0582 Y1.9354 I-0.0605 J0.4126
G3 X4.0864 Y1.9421 I-0.1103 J0.5281
G3 X4.1313 Y1.9577 I-0.0734 J0.2824
G3 X4.1537 Y1.9715 I-0.0404 J0.0912
G3 X4.1675 Y1.9883 I-0.0339 J0.0418
G3 X4.1712 Y2.0037 I-0.0294 J0.0154
G3 X4.1706 Y2.0127 I-0.0679 J0
G3 X4.1683 Y2.0253 I-0.1207 J-0.0162
G3 X4.1646 Y2.038 I-0.1552 J-0.0377
G3 X4.1587 Y2.0541 I-0.2469 J-0.0823
G3 X4.1304 Y2.0994 I-0.1575 J-0.0666
G3 X4.0929 Y2.1303 I-0.109 J-0.0944
G3 X4.0461 Y2.1485 I-0.0845 J-0.1481
G3 X3.9766 Y2.1562 I-0.0694 J-0.3064
G3 X3.9242 Y2.1524 I0 J-0.3586
G3 X3.8833 Y2.1425 I0.0345 J-0.2338
G3 X3.8457 Y2.1254 I0.0639 J-0.1895
G3 X3.8154 Y2.1027 I0.087 J-0.1479
G2 X3.7817 Y2.1173 I-0.0137 J0.0146
G2 X3.7819 Y2.1204 I0.02 J0
G2 X3.7859 Y2.1452 I25.1689 J-3.9949
G2 X3.788 Y2.1584 I16.6797 J-2.6643
G2 X3.7772 Y2.1526 I-0.2314 J0.425
G2 X3.7326 Y2.1336 I-0.1601 J0.3126
G2 X3.6855 Y2.1213 I-0.1007 J0.2891
G2 X3.6409 Y2.1173 I-0.0446 J0.2505
G2 X3.6225 Y2.1179 I0 J0.2772
G2 X3.6043 Y2.1198 I0.0183 J0.2752
G2 X3.589 Y2.1222 I0.0368 J0.2749
G3 X3.5914 Y2.104 I3.6863 J0.4743
G2 X3.5938 Y2.0855 I-2.7743 J-0.3709
G2 X3.5946 Y2.0792 I-0.9436 J-0.1197
G2 X3.6 Y2.0799 I0.0435 J-0.3118
G2 X3.6089 Y2.0808 I0.0251 J-0.2055
G2 X3.615 Y2.0811 I0.0061 J-0.0777
G2 X3.6295 Y2.0803 I0 J-0.1299
G2 X3.6418 Y2.078 I-0.0098 J-0.0874
G2 X3.6543 Y2.0735 I-0.0186 J-0.0715
G2 X3.6646 Y2.0674 I-0.0241 J-0.0521
G2 X3.6748 Y2.0549 I-0.0185 J-0.0256
G2 X3.6803 Y2.0377 I-0.0695 J-0.0318
G2 X3.6825 Y2.0215 I-0.1324 J-0.0257
G2 X3.6833 Y1.9966 I-0.3499 J-0.0249
G2 X3.6829 Y1.9739 I-0.5276 J0
G2 X3.681 Y1.9426 I-1.0336 J0.0444
G2 X3.6784 Y1.9114 I-1.3815 J0.1015
G2 X3.6741 Y1.8711 I-2.3009 J0.2214
G1 X3.664 Y1.7894
G2 X3.6607 Y1.7764 I-0.0425 J0.0038
G2 X3.6533 Y1.7644 I-0.0446 J0.0191
G2 X3.644 Y1.7554 I-0.0442 J0.0369
G2 X3.6314 Y1.7474 I-0.0552 J0.0727
G2 X3.6294 Y1.7465 I-0.0093 J0.0177
G3 X3.6132 Y1.7399 I0.578 J-1.4565
G3 X3.5921 Y1.7312 I2.2064 J-5.3836
G3 X3.5936 Y1.7254 I0.3038 J0.0751
G3 X3.5975 Y1.7128 I0.1663 J0.0446
G3 X3.5999 Y1.7066 I0.1144 J0.0403
G2 X3.6745 Y1.7228 I0.3532 J-1.4428
G2 X3.7645 Y1.7371 I0.2722 J-1.4259
G2 X3.8553 Y1.7457 I0.1815 J-1.4347
G1 Z-0.1 F6
G2 X3.9467 Y1.7485 I0.0915 J-1.455 F6
G2 X3.9618 Y1.7485 I0 J-2.0137
G2 X3.9733 Y1.7483 I-0.0087 J-1.1616
G2 X3.9761 Y1.7483 I-0.0147 J-0.8454
G3 X3.9764 Y1.7496 I-39.2555 J8.8038
G3 X3.9797 Y1.7645 I-28.5599 J6.4041
G3 X3.9808 Y1.7693 I-24.0347 J5.3762
G2 X3.9717 Y1.7701 I0.1178 J1.3921
G2 X3.9448 Y1.7729 I0.0882 J0.9671
G2 X3.9178 Y1.7766 I0.0945 J0.7912
G2 X3.8959 Y1.7805 I0.0789 J0.512
G2 X3.8758 Y1.7855 I0.0569 J0.273
G2 X3.8629 Y1.7901 I0.0293 J0.102
G2 X3.8494 Y1.7982 I0.0241 J0.0557
G2 X3.84 Y1.8119 I0.0175 J0.0221
G2 X3.8232 Y1.8701 I1.4493 J0.4483
G2 X3.813 Y1.9134 I0.7815 J0.2079
G2 X3.8056 Y1.9577 I0.5494 J0.1142
G2 X3.8037 Y1.988 I0.2408 J0.0302
G1 X3.8037 Y1.988
G1 X3.8037 Y1.988
G2 X3.8075 Y2.0251 I0.1821 J0
G2 X3.8181 Y2.0565 I0.1356 J-0.0282
G2 X3.8362 Y2.0846 I0.1194 J-0.057
G2 X3.8618 Y2.1086 I0.1144 J-0.096
G2 X3.8857 Y2.1234 I0.1031 J-0.1398
G2 X3.9113 Y2.134 I0.0764 J-0.149
G2 X3.9382 Y2.1402 I0.0523 J-0.1645
G2 X3.9676 Y2.1424 I0.0294 J-0.1975
G2 X3.9843 Y2.1415 I0 J-0.1633
G2 X3.9996 Y2.1391 I-0.0139 J-0.1355
G2 X4.0146 Y2.1348 I-0.0272 J-0.1239
G2 X4.0287 Y2.1287 I-0.0386 J-0.109
G2 X4.0401 Y2.122 I-0.0541 J-0.1041
G2 X4.0482 Y2.1153 I-0.032 J-0.0476
G2 X4.0558 Y2.1051 I-0.0288 J-0.0293
G2 X4.0591 Y2.0917 I-0.0255 J-0.0134
G1 X4.0591 Y2.0917
G2 X4.0581 Y2.0839 I-0.0303 J0
G2 X4.0543 Y2.0758 I-0.0247 J0.0066
G2 X4.0473 Y2.0691 I-0.0205 J0.0144
G2 X4.0391 Y2.0656 I-0.0146 J0.0229
G3 X4.0145 Y2.0584 I0.0621 J-0.258
G3 X3.9938 Y2.05 I0.0669 J-0.1932
G3 X3.9745 Y2.0394 I0.078 J-0.1647
G3 X3.9583 Y2.0276 I0.0818 J-0.1296
G3 X3.9413 Y2.0104 I0.0797 J-0.096
G3 X3.9305 Y1.9936 I0.0691 J-0.0562
G3 X3.9239 Y1.975 I0.075 J-0.037
G3 X3.9215 Y1.9538 I0.0939 J-0.0213
G1 X3.9215 Y1.9538
G1 X3.9215 Y1.9538
G3 X3.9242 Y1.9444 I0.018 J0
G3 X3.9324 Y1.9365 I0.0187 J0.0115
G3 X3.9487 Y1.9308 I0.026 J0.0478
G3 X3.9868 Y1.9274 I0.0381 J0.2103
G3 X4.0086 Y1.9282 I0 J0.2823
G3 X4.0335 Y1.931 I-0.0282 J0.3647
G3 X4.0582 Y1.9354 I-0.0605 J0.4126
G3 X4.0864 Y1.9421 I-0.1103 J0.5281
G3 X4.1313 Y1.9577 I-0.0734 J0.2824
G3 X4.1537 Y1.9715 I-0.0404 J0.0912
G3 X4.1675 Y1.9883 I-0.0339 J0.0418
G3 X4.1712 Y2.0037 I-0.0294 J0.0154
G3 X4.1706 Y2.0127 I-0.0679 J0
G3 X4.1683 Y2.0253 I-0.1207 J-0.0162
G3 X4.1646 Y2.038 I-0.1552 J-0.0377
G3 X4.1587 Y2.0541 I-0.2469 J-0.0823
G3 X4.1304 Y2.0994 I-0.1575 J-0.0666
G3 X4.0929 Y2.1303 I-0.109 J-0.0944
G3 X4.0461 Y2.1485 I-0.0845 J-0.1481
G3 X3.9766 Y2.1562 I-0.0694 J-0.3064
G3 X3.9242 Y2.1524 I0 J-0.3586
G3 X3.8833 Y2.1425 I0.0345 J-0.2338
G3 X3.8457 Y2.1254 I0.0639 J-0.1895
G3 X3.8154 Y2.1027 I0.087 J-0.1479
G2 X3.7817 Y2.1173 I-0.0137 J0.0146
G2 X3.7819 Y2.1204 I0.02 J0
G2 X3.7859 Y2.1452 I25.1689 J-3.9949
G2 X3.788 Y2.1584 I16.6797 J-2.6643
G2 X3.7772 Y2.1526 I-0.2314 J0.425
G2 X3.7326 Y2.1336 I-0.1601 J0.3126
G2 X3.6855 Y2.1213 I-0.1007 J0.2891
G2 X3.6409 Y2.1173 I-0.0446 J0.2505
G2 X3.6225 Y2.1179 I0 J0.2772
G2 X3.6043 Y2.1198 I0.0183 J0.2752
G2 X3.589 Y2.1222 I0.0368 J0.2749
G3 X3.5914 Y2.104 I3.6863 J0.4743
G2 X3.5938 Y2.0855 I-2.7743 J-0.3709
G2 X3.5946 Y2.0792 I-0.9436 J-0.1197
G2 X3.6 Y2.0799 I0.0435 J-0.3118
G2 X3.6089 Y2.0808 I0.0251 J-0.2055
G2 X3.615 Y2.0811 I0.0061 J-0.0777
G2 X3.6295 Y2.0803 I0 J-0.1299
G2 X3.6418 Y2.078 I-0.0098 J-0.0874
G2 X3.6543 Y2.0735 I-0.0186 J-0.0715
G2 X3.6646 Y2.0674 I-0.0241 J-0.0521
G2 X3.6748 Y2.0549 I-0.0185 J-0.0256
G2 X3.6803 Y2.0377 I-0.0695 J-0.0318
G2 X3.6825 Y2.0215 I-0.1324 J-0.0257
G2 X3.6833 Y1.9966 I-0.3499 J-0.0249
G2 X3.6829 Y1.9739 I-0.5276 J0
G2 X3.681 Y1.9426 I-1.0336 J0.0444
G2 X3.6784 Y1.9114 I-1.3815 J0.1015
G2 X3.6741 Y1.8711 I-2.3009 J0.2214
G1 X3.664 Y1.7894
G2 X3.6607 Y1.7764 I-0.0425 J0.0038
G2 X3.6533 Y1.7644 I-0.0446 J0.0191
G2 X3.644 Y1.7554 I-0.0442 J0.0369
G2 X3.6314 Y1.7474 I-0.0552 J0.0727
G2 X3.6294 Y1.7465 I-0.0093 J0.0177
G3 X3.6132 Y1.7399 I0.578 J-1.4565
G3 X3.5921 Y1.7312 I2.2064 J-5.3836
G3 X3.5936 Y1.7254 I0.3038 J0.0751
G3 X3.5975 Y1.7128 I0.1663 J0.0446
G3 X3.5999 Y1.7066 I0.1144 J0.0403
G2 X3.6745 Y1.7228 I0.3532 J-1.4428
G2 X3.7645 Y1.7371 I0.2722 J-1.4259
G2 X3.8553 Y1.7457 I0.1815 J-1.4347
G0 Z0.25
G0 X3.3308 Y2.0237
G1 Z-0.05 F6
G3 X3.3036 Y2.0348 I-0.1198 J-0.2556 F6
G3 X3.2766 Y2.0425 I-0.0843 J-0.243
G3 X3.2489 Y2.0473 I-0.0559 J-0.2444
G3 X3.2208 Y2.0488 I-0.028 J-0.248
G3 X3.1947 Y2.0482 I0 J-0.5105
G3 X3.1726 Y2.0464 I0.0185 J-0.3601
G3 X3.1504 Y2.043 I0.0338 J-0.2988
G3 X3.132 Y2.0386 I0.0387 J-0.2045
G3 X3.1112 Y2.031 I0.0402 J-0.1415
G3 X3.097 Y2.0222 I0.0281 J-0.0616
G3 X3.0848 Y2.0077 I0.0301 J-0.0377
G3 X3.0802 Y1.9895 I0.0333 J-0.0182
G1 X3.0802 Y1.9895
G1 X3.0802 Y1.9895
G3 X3.0859 Y1.969 I0.04 J0
G3 X3.1012 Y1.9511 I0.06 J0.036
G3 X3.119 Y1.939 I0.0725 J0.0874
G3 X3.1478 Y1.9252 I0.135 J0.2458
G3 X3.1777 Y1.9147 I0.1228 J0.3002
G3 X3.2082 Y1.9072 I0.0915 J0.3058
G3 X3.2393 Y1.9027 I0.0616 J0.3165
G3 X3.2715 Y1.9011 I0.0322 J0.3392
G3 X3.2966 Y1.9018 I0 J0.4688
G3 X3.3172 Y1.9036 I-0.0167 J0.3132
G3 X3.3379 Y1.9069 I-0.0302 J0.2518
G3 X3.3546 Y1.9113 I-0.033 J0.161
G3 X3.3713 Y1.9179 I-0.0388 J0.1221
G3 X3.3829 Y1.9253 I-0.026 J0.0542
G3 X3.3935 Y1.9377 I-0.0269 J0.0335
G3 X3.3977 Y1.9538 I-0.0286 J0.0161
G1 X3.3977 Y1.9538
G3 X3.3924 Y1.9748 I-0.0443 J0
G3 X3.3775 Y1.9941 I-0.0665 J-0.0358
G3 X3.3596 Y2.0079 I-0.081 J-0.0865
G3 X3.3308 Y2.0237 I-0.1484 J-0.236
G1 Z-0.1 F6
G3 X3.3036 Y2.0348 I-0.1198 J-0.2556 F6
G3 X3.2766 Y2.0425 I-0.0843 J-0.243
G3 X3.2489 Y2.0473 I-0.0559 J-0.2444
G3 X3.2208 Y2.0488 I-0.028 J-0.248
G3 X3.1947 Y2.0482 I0 J-0.5105
G3 X3.1726 Y2.0464 I0.0185 J-0.3601
G3 X3.1504 Y2.043 I0.0338 J-0.2988
G3 X3.132 Y2.0386 I0.0387 J-0.2045
G3 X3.1112 Y2.031 I0.0402 J-0.1415
G3 X3.097 Y2.0222 I0.0281 J-0.0616
G3 X3.0848 Y2.0077 I0.0301 J-0.0377
G3 X3.0802 Y1.9895 I0.0333 J-0.0182
G1 X3.0802 Y1.9895
G1 X3.0802 Y1.9895
G3 X3.0859 Y1.969 I0.04 J0
G3 X3.1012 Y1.9511 I0.06 J0.036
G3 X3.119 Y1.939 I0.0725 J0.0874
G3 X3.1478 Y1.9252 I0.135 J0.2458
G3 X3.1777 Y1.9147 I0.1228 J0.3002
G3 X3.2082 Y1.9072 I0.0915 J0.3058
G3 X3.2393 Y1.9027 I0.0616 J0.3165
G3 X3.2715 Y1.9011 I0.0322 J0.3392
G3 X3.2966 Y1.9018 I0 J0.4688
G3 X3.3172 Y1.9036 I-0.0167 J0.3132
G3 X3.3379 Y1.9069 I-0.0302 J0.2518
G3 X3.3546 Y1.9113 I-0.033 J0.161
G3 X3.3713 Y1.9179 I-0.0388 J0.1221
G3 X3.3829 Y1.9253 I-0.026 J0.0542
G3 X3.3935 Y1.9377 I-0.0269 J0.0335
G3 X3.3977 Y1.9538 I-0.0286 J0.0161
G1 X3.3977 Y1.9538
G3 X3.3924 Y1.9748 I-0.0443 J0
G3 X3.3775 Y1.9941 I-0.0665 J-0.0358
G3 X3.3596 Y2.0079 I-0.081 J-0.0865
G3 X3.3308 Y2.0237 I-0.1484 J-0.236
G0 Z0.25
G0 X3.213 Y1.5465
G1 Z-0.05 F6
G3 X3.2912 Y1.5503 I0 J0.8027 F6
G3 X3.346 Y1.5594 I-0.0403 J0.4117
G3 X3.397 Y1.5767 I-0.0659 J0.2788
G3 X3.4285 Y1.596 I-0.0584 J0.1308
G3 X3.4499 Y1.6182 I-0.0759 J0.0947
G3 X3.4704 Y1.6526 I-0.1549 J0.1154
G3 X3.4847 Y1.6915 I-0.2366 J0.1092
G3 X3.4966 Y1.7468 I-0.4533 J0.127
G3 X3.4986 Y1.7618 I-0.3914 J0.0587
G3 X3.5 Y1.7772 I-0.407 J0.0452
G3 X3.5009 Y1.7926 I-0.4166 J0.0305
G3 X3.5011 Y1.8083 I-0.4366 J0.0158
G3 X3.4971 Y1.8727 I-0.5172 J0
G3 X3.4855 Y1.9333 I-0.4708 J-0.0591
G3 X3.4661 Y1.9918 I-0.4551 J-0.1186
G3 X3.4385 Y2.0489 I-0.4595 J-0.1868
G2 X3.4359 Y2.0587 I0.0174 J0.0098
G2 X3.4656 Y2.0762 I0.02 J0
G3 X3.4796 Y2.0693 I0.0823 J0.1493
G3 X3.4908 Y2.0651 I0.0428 J0.098
G3 X3.5019 Y2.0625 I0.0248 J0.0801
G3 X3.5105 Y2.0618 I0.0086 J0.0521
G3 X3.5135 Y2.062 I0 J0.0321
G1 X3.514 Y2.062
G1 X3.5182 Y2.1049
G2 X3.5114 Y2.1041 I-0.0181 J0.1129
G2 X3.4936 Y2.1032 I-0.0178 J0.1799
G2 X3.451 Y2.1066 I0 J0.266
G2 X3.4058 Y2.1174 I0.051 J0.3143
G2 X3.3627 Y2.1341 I0.1092 J0.3447
G2 X3.3565 Y2.1371 I0.2045 J0.4403
G2 X3.3572 Y2.1339 I-0.6839 J-0.1531
G2 X3.3608 Y2.1154 I-0.3472 J-0.0761
G2 X3.3615 Y2.1063 I-0.0554 J-0.0091
G1 X3.3615 Y2.1063
G2 X3.3602 Y2.0978 I-0.0276 J0
G2 X3.3495 Y2.0853 I-0.0202 J0.0065
G2 X3.3327 Y2.0844 I-0.0095 J0.0189
G2 X3.3251 Y2.0887 I0.0094 J0.0255
G1 X3.3244 Y2.0893
G3 X3.3055 Y2.1028 I-0.0792 J-0.0904
G3 X3.2784 Y2.1158 I-0.0958 J-0.165
G3 X3.2489 Y2.1251 I-0.0889 J-0.2305
G3 X3.2092 Y2.1329 I-0.0981 J-0.396
G3 X3.1851 Y2.1362 I-0.1365 J-0.8982
G3 X3.1655 Y2.1383 I-0.0752 J-0.6027
G3 X3.1459 Y2.1397 I-0.0444 J-0.4838
G3 X3.1308 Y2.1401 I-0.0151 J-0.2944
G3 X3.0991 Y2.1382 I0 J-0.2693
G3 X3.0776 Y2.1339 I0.0161 J-0.1357
G3 X3.0586 Y2.1262 I0.0261 J-0.0911
G3 X3.0471 Y2.1177 I0.0242 J-0.0449
G3 X3.0397 Y2.1086 I0.0315 J-0.0331
G3 X3.0334 Y2.0951 I0.0559 J-0.0343
G3 X3.0298 Y2.0796 I0.083 J-0.0278
G3 X3.0282 Y2.0571 I0.1582 J-0.0224
G1 X3.0282 Y2.0571
G1 X3.0282 Y2.0571
G3 X3.0286 Y2.0451 I0.1805 J0
G3 X3.0303 Y2.0254 I0.4586 J0.0306
G3 X3.0328 Y2.0055 I0.6643 J0.0731
G3 X3.037 Y1.9781 I1.2391 J0.1741
G3 X3.0434 Y1.9487 I0.2583 J0.041
G3 X3.0522 Y1.9238 I0.1969 J0.055
G3 X3.064 Y1.9005 I0.1709 J0.0726
G3 X3.0783 Y1.8804 I0.1428 J0.0861
G3 X3.1017 Y1.8576 I0.1125 J0.0921
G3 X3.1276 Y1.842 I0.0781 J0.1007
G3 X3.1568 Y1.8327 I0.0555 J0.1237
G3 X3.1933 Y1.8291 I0.0365 J0.1844
G3 X3.219 Y1.8301 I0 J0.3344
G3 X3.2424 Y1.8329 I-0.0218 J0.2827
G3 X3.2654 Y1.8376 I-0.042 J0.2605
G3 X3.2863 Y1.844 I-0.058 J0.2284
G3 X3.3084 Y1.8538 I-0.063 J0.173
G3 X3.3222 Y1.8626 I-0.043 J0.0824
G3 X3.333 Y1.8731 I-0.0396 J0.0514
G3 X3.3384 Y1.8822 I-0.0293 J0.0238
G2 X3.3765 Y1.8781 I0.0184 J-0.0078
G2 X3.3773 Y1.8725 I-0.0758 J-0.0144
G2 X3.378 Y1.8654 I-0.14 J-0.0161
G2 X3.3783 Y1.8586 I-0.1862 J-0.012
G2 X3.3784 Y1.85 I-0.3103 J-0.0086
G2 X3.3775 Y1.8148 I-0.6766 J0
G2 X3.3749 Y1.7818 I-0.5949 J0.031
G2 X3.3703 Y1.749 I-0.558 J0.0603
G2 X3.3641 Y1.718 I-0.4966 J0.0836
G2 X3.3502 Y1.6726 I-0.3579 J0.0847
G2 X3.3347 Y1.6406 I-0.1845 J0.0697
G2 X3.3121 Y1.612 I-0.125 J0.0754
G2 X3.2868 Y1.5939 I-0.0691 J0.0702
G2 X3.2561 Y1.5811 I-0.1098 J0.2197
G2 X3.2213 Y1.5716 I-0.0944 J0.2773
G2 X3.1858 Y1.5662 I-0.0668 J0.3214
G2 X3.1454 Y1.5643 I-0.0404 J0.4223
G2 X3.1129 Y1.5655 I0 J0.4172
G2 X3.0942 Y1.5684 I0.0097 J0.1239
G2 X3.0744 Y1.5773 I0.013 J0.0555
G2 X3.0633 Y1.5988 I0.0151 J0.0215
G1 X3.0633 Y1.5988
G1 X3.0633 Y1.5988
G2 X3.0663 Y1.612 I0.0303 J0
G2 X3.0737 Y1.6225 I0.0347 J-0.0168
G2 X3.0821 Y1.6292 I0.0357 J-0.0357
G2 X3.0934 Y1.6355 I0.0513 J-0.0796
G2 X3.0994 Y1.638 I0.0418 J-0.0912
G2 X3.115 Y1.6438 I0.29 J-0.7583
G2 X3.1306 Y1.6493 I0.5517 J-1.5369
G2 X3.1567 Y1.6583 I1.5065 J-4.3337
G3 X3.1895 Y1.6733 I-0.0566 J0.1674
G3 X3.2067 Y1.6872 I-0.038 J0.0647
G3 X3.2172 Y1.7039 I-0.0391 J0.036
G3 X3.2209 Y1.7238 I-0.0513 J0.0199
G3 X3.22 Y1.729 I-0.0151 J0
G3 X3.2169 Y1.7344 I-0.0177 J-0.0064
G3 X3.2111 Y1.7399 I-0.0239 J-0.0194
G3 X3.1987 Y1.7473 I-0.047 J-0.0645
G3 X3.1835 Y1.7531 I-0.0485 J-0.1053
G3 X3.1632 Y1.7579 I-0.0511 J-0.1708
G3 X3.1421 Y1.7606 I-0.0385 J-0.219
G3 X3.1155 Y1.7616 I-0.0266 J-0.3385
G3 X3.0967 Y1.7611 I0 J-0.386
G3 X3.0772 Y1.7597 I0.02 J-0.4098
G3 X3.0579 Y1.7574 I0.0409 J-0.4228
G3 X3.038 Y1.7541 I0.065 J-0.4541
G3 X2.9939 Y1.7412 I0.0475 J-0.2442
G3 X2.9723 Y1.7287 I0.0311 J-0.0786
G3 X2.9593 Y1.7126 I0.0299 J-0.0375
G3 X2.9551 Y1.6947 I0.0359 J-0.0179
G3 X2.9555 Y1.6871 I0.0693 J0
G3 X2.9572 Y1.6763 I0.129 J0.0142
G3 X2.9597 Y1.6652 I0.1679 J0.0331
G3 X2.9639 Y1.651 I0.2698 J0.072
G3 X2.9707 Y1.6353 I0.0859 J0.0278
G3 X2.981 Y1.6199 I0.0915 J0.0502
G3 X2.9941 Y1.6061 I0.0937 J0.0757
G3 X3.0123 Y1.5919 I0.1156 J0.1283
G3 X3.0468 Y1.5734 I0.1081 J0.1612
G3 X3.0949 Y1.5582 I0.1179 J0.2881
G3 X3.1458 Y1.5498 I0.091 J0.3957
G3 X3.213 Y1.5465 I0.0672 J0.6758
G1 Z-0.1 F6
G3 X3.2912 Y1.5503 I0 J0.8027 F6
G3 X3.346 Y1.5594 I-0.0403 J0.4117
G3 X3.397 Y1.5767 I-0.0659 J0.2788
G3 X3.4285 Y1.596 I-0.0584 J0.1308
G3 X3.4499 Y1.6182 I-0.0759 J0.0947
G3 X3.4704 Y1.6526 I-0.1549 J0.1154
G3 X3.4847 Y1.6915 I-0.2366 J0.1092
G3 X3.4966 Y1.7468 I-0.4533 J0.127
G3 X3.4986 Y1.7618 I-0.3914 J0.0587
G3 X3.5 Y1.7772 I-0.407 J0.0452
G3 X3.5009 Y1.7926 I-0.4166 J0.0305
G3 X3.5011 Y1.8083 I-0.4366 J0.0158
G3 X3.4971 Y1.8727 I-0.5172 J0
G3 X3.4855 Y1.9333 I-0.4708 J-0.0591
G3 X3.4661 Y1.9918 I-0.4551 J-0.1186
G3 X3.4385 Y2.0489 I-0.4595 J-0.1868
G2 X3.4359 Y2.0587 I0.0174 J0.0098
G2 X3.4656 Y2.0762 I0.02 J0
G3 X3.4796 Y2.0693 I0.0823 J0.1493
G3 X3.4908 Y2.0651 I0.0428 J0.098
G3 X3.5019 Y2.0625 I0.0248 J0.0801
G3 X3.5105 Y2.0618 I0.0086 J0.0521
G3 X3.5135 Y2.062 I0 J0.0321
G1 X3.514 Y2.062
G1 X3.5182 Y2.1049
G2 X3.5114 Y2.1041 I-0.0181 J0.1129
G2 X3.4936 Y2.1032 I-0.0178 J0.1799
G2 X3.451 Y2.1066 I0 J0.266
G2 X3.4058 Y2.1174 I0.051 J0.3143
G2 X3.3627 Y2.1341 I0.1092 J0.3447
G2 X3.3565 Y2.1371 I0.2045 J0.4403
G2 X3.3572 Y2.1339 I-0.6839 J-0.1531
G2 X3.3608 Y2.1154 I-0.3472 J-0.0761
G2 X3.3615 Y2.1063 I-0.0554 J-0.0091
G1 X3.3615 Y2.1063
G2 X3.3602 Y2.0978 I-0.0276 J0
G2 X3.3495 Y2.0853 I-0.0202 J0.0065
G2 X3.3327 Y2.0844 I-0.0095 J0.0189
G2 X3.3251 Y2.0887 I0.0094 J0.0255
G1 X3.3244 Y2.0893
G3 X3.3055 Y2.1028 I-0.0792 J-0.0904
G3 X3.2784 Y2.1158 I-0.0958 J-0.165
G3 X3.2489 Y2.1251 I-0.0889 J-0.2305
G3 X3.2092 Y2.1329 I-0.0981 J-0.396
G3 X3.1851 Y2.1362 I-0.1365 J-0.8982
G3 X3.1655 Y2.1383 I-0.0752 J-0.6027
G3 X3.1459 Y2.1397 I-0.0444 J-0.4838
G3 X3.1308 Y2.1401 I-0.0151 J-0.2944
G3 X3.0991 Y2.1382 I0 J-0.2693
G3 X3.0776 Y2.1339 I0.0161 J-0.1357
G3 X3.0586 Y2.1262 I0.0261 J-0.0911
G3 X3.0471 Y2.1177 I0.0242 J-0.0449
G3 X3.0397 Y2.1086 I0.0315 J-0.0331
G3 X3.0334 Y2.0951 I0.0559 J-0.0343
G3 X3.0298 Y2.0796 I0.083 J-0.0278
G3 X3.0282 Y2.0571 I0.1582 J-0.0224
G1 X3.0282 Y2.0571
G1 X3.0282 Y2.0571
G3 X3.0286 Y2.0451 I0.1805 J0
G3 X3.0303 Y2.0254 I0.4586 J0.0306
G3 X3.0328 Y2.0055 I0.6643 J0.0731
G3 X3.037 Y1.9781 I1.2391 J0.1741
G3 X3.0434 Y1.9487 I0.2583 J0.041
G3 X3.0522 Y1.9238 I0.1969 J0.055
G3 X3.064 Y1.9005 I0.1709 J0.0726
G3 X3.0783 Y1.8804 I0.1428 J0.0861
G3 X3.1017 Y1.8576 I0.1125 J0.0921
G3 X3.1276 Y1.842 I0.0781 J0.1007
G3 X3.1568 Y1.8327 I0.0555 J0.1237
G3 X3.1933 Y1.8291 I0.0365 J0.1844
G3 X3.219 Y1.8301 I0 J0.3344
G3 X3.2424 Y1.8329 I-0.0218 J0.2827
G3 X3.2654 Y1.8376 I-0.042 J0.2605
G3 X3.2863 Y1.844 I-0.058 J0.2284
G3 X3.3084 Y1.8538 I-0.063 J0.173
G3 X3.3222 Y1.8626 I-0.043 J0.0824
G3 X3.333 Y1.8731 I-0.0396 J0.0514
G3 X3.3384 Y1.8822 I-0.0293 J0.0238
G2 X3.3765 Y1.8781 I0.0184 J-0.0078
G2 X3.3773 Y1.8725 I-0.0758 J-0.0144
G2 X3.378 Y1.8654 I-0.14 J-0.0161
G2 X3.3783 Y1.8586 I-0.1862 J-0.012
G2 X3.3784 Y1.85 I-0.3103 J-0.0086
G2 X3.3775 Y1.8148 I-0.6766 J0
G2 X3.3749 Y1.7818 I-0.5949 J0.031
G2 X3.3703 Y1.749 I-0.558 J0.0603
G2 X3.3641 Y1.718 I-0.4966 J0.0836
G2 X3.3502 Y1.6726 I-0.3579 J0.0847
G2 X3.3347 Y1.6406 I-0.1845 J0.0697
G2 X3.3121 Y1.612 I-0.125 J0.0754
G2 X3.2868 Y1.5939 I-0.0691 J0.0702
G2 X3.2561 Y1.5811 I-0.1098 J0.2197
G2 X3.2213 Y1.5716 I-0.0944 J0.2773
G2 X3.1858 Y1.5662 I-0.0668 J0.3214
G2 X3.1454 Y1.5643 I-0.0404 J0.4223
G2 X3.1129 Y1.5655 I0 J0.4172
G2 X3.0942 Y1.5684 I0.0097 J0.1239
G2 X3.0744 Y1.5773 I0.013 J0.0555
G2 X3.0633 Y1.5988 I0.0151 J0.0215
G1 X3.0633 Y1.5988
G1 X3.0633 Y1.5988
G2 X3.0663 Y1.612 I0.0303 J0
G2 X3.0737 Y1.6225 I0.0347 J-0.0168
G2 X3.0821 Y1.6292 I0.0357 J-0.0357
G2 X3.0934 Y1.6355 I0.0513 J-0.0796
G2 X3.0994 Y1.638 I0.0418 J-0.0912
G2 X3.115 Y1.6438 I0.29 J-0.7583
G2 X3.1306 Y1.6493 I0.5517 J-1.5369
G2 X3.1567 Y1.6583 I1.5065 J-4.3337
G3 X3.1895 Y1.6733 I-0.0566 J0.1674
G3 X3.2067 Y1.6872 I-0.038 J0.0647
G3 X3.2172 Y1.7039 I-0.0391 J0.036
G3 X3.2209 Y1.7238 I-0.0513 J0.0199
G3 X3.22 Y1.729 I-0.0151 J0
G3 X3.2169 Y1.7344 I-0.0177 J-0.0064
G3 X3.2111 Y1.7399 I-0.0239 J-0.0194
G3 X3.1987 Y1.7473 I-0.047 J-0.0645
G3 X3.1835 Y1.7531 I-0.0485 J-0.1053
G3 X3.1632 Y1.7579 I-0.0511 J-0.1708
G3 X3.1421 Y1.7606 I-0.0385 J-0.219
G3 X3.1155 Y1.7616 I-0.0266 J-0.3385
G3 X3.0967 Y1.7611 I0 J-0.386
G3 X3.0772 Y1.7597 I0.02 J-0.4098
G3 X3.0579 Y1.7574 I0.0409 J-0.4228
G3 X3.038 Y1.7541 I0.065 J-0.4541
G3 X2.9939 Y1.7412 I0.0475 J-0.2442
G3 X2.9723 Y1.7287 I0.0311 J-0.0786
G3 X2.9593 Y1.7126 I0.0299 J-0.0375
G3 X2.9551 Y1.6947 I0.0359 J-0.0179
G3 X2.9555 Y1.6871 I0.0693 J0
G3 X2.9572 Y1.6763 I0.129 J0.0142
G3 X2.9597 Y1.6652 I0.1679 J0.0331
G3 X2.9639 Y1.651 I0.2698 J0.072
G3 X2.9707 Y1.6353 I0.0859 J0.0278
G3 X2.981 Y1.6199 I0.0915 J0.0502
G3 X2.9941 Y1.6061 I0.0937 J0.0757
G3 X3.0123 Y1.5919 I0.1156 J0.1283
G3 X3.0468 Y1.5734 I0.1081 J0.1612
G3 X3.0949 Y1.5582 I0.1179 J0.2881
G3 X3.1458 Y1.5498 I0.091 J0.3957
G3 X3.213 Y1.5465 I0.0672 J0.6758
G0 Z0.25
G0 X4.473 Y2.1335
G1 Z-0.05 F6
G2 X4.3968 Y2.1165 I-0.2279 J0.8441 F6
G2 X4.3196 Y2.1063 I-0.1578 J0.8951
G2 X4.2615 Y2.1028 I-0.0893 J1.0043
G3 X4.262 Y2.1012 I0.1325 J0.0403
G3 X4.2675 Y2.0858 I0.2214 J0.0704
G3 X4.2711 Y2.0769 I0.4845 J0.1926
G1 X4.2713 Y2.0769
G2 X4.28 Y2.0777 I0.017 J-0.1437
G2 X4.289 Y2.0779 I0.009 J-0.156
G2 X4.3193 Y2.0722 I0 J-0.0826
G2 X4.3417 Y2.0561 I-0.0207 J-0.0526
G2 X4.3543 Y2.0325 I-0.0482 J-0.0408
G2 X4.3589 Y1.999 I-0.1187 J-0.0335
G2 X4.3581 Y1.9702 I-0.5145 J0
G2 X4.3557 Y1.9407 I-0.5449 J0.0305
G2 X4.3516 Y1.9113 I-0.5616 J0.0622
G2 X4.3459 Y1.8812 I-0.6032 J0.099
G2 X4.3381 Y1.8496 I-0.4891 J0.1035
G2 X4.3305 Y1.8266 I-0.2563 J0.0719
G2 X4.3201 Y1.804 I-0.175 J0.0668
G2 X4.3096 Y1.7886 I-0.0809 J0.044
G2 X4.2941 Y1.7751 I-0.0508 J0.0429
G2 X4.2712 Y1.7639 I-0.0652 J0.104
G2 X4.2477 Y1.757 I-0.061 J0.1662
G2 X4.2293 Y1.7536 I-0.0744 J0.3435
G2 X4.2282 Y1.7483 I-11.295 J2.2044
G2 X4.2249 Y1.7313 I-8.7063 J1.7034
G2 X4.2244 Y1.7286 I-7.5734 J1.4971
G2 X4.2741 Y1.7368 I0.4873 J-2.813
G2 X4.3354 Y1.7452 I0.2612 J-1.6841
G2 X4.3972 Y1.7509 I0.1491 J-1.2625
G2 X4.4419 Y1.7525 I0.0447 J-0.6494
G2 X4.4877 Y1.7515 I0 J-1.1025
G2 X4.5311 Y1.7488 I-0.0411 J-0.9893
G2 X4.5743 Y1.744 I-0.0803 J-0.9371
G2 X4.5911 Y1.7417 I-0.1121 J-0.8465
G3 X4.5909 Y1.7481 I-1.825 J-0.059
G3 X4.5898 Y1.7716 I-1.0972 J-0.0393
G3 X4.5881 Y1.795 I-0.8184 J-0.047
G1 X4.5881 Y1.7956
G2 X4.5788 Y1.7931 I-0.0431 J0.1405
G2 X4.5654 Y1.7907 I-0.0293 J0.1237
G2 X4.5531 Y1.7899 I-0.0123 J0.0972
G2 X4.5408 Y1.7911 I0 J0.0634
G2 X4.5295 Y1.7947 I0.01 J0.0502
G2 X4.5192 Y1.8011 I0.0203 J0.0446
G2 X4.5106 Y1.8098 I0.0325 J0.0406
G2 X4.5018 Y1.8257 I0.0473 J0.0369
G2 X4.4952 Y1.8492 I0.1298 J0.0485
G2 X4.4923 Y1.8724 I0.2114 J0.0387
G2 X4.4911 Y1.9058 I0.4612 J0.0334
G1 X4.4911 Y1.9058
G1 X4.4911 Y1.9058
G2 X4.4925 Y1.9531 I0.7843 J0
G2 X4.4975 Y2.012 I1.2327 J-0.0745
G2 X4.505 Y2.0705 I1.5135 J-0.1645
G2 X4.5165 Y2.1407 I2.2118 J-0.3274
G3 X4.5176 Y2.1469 I-0.585 J0.1009
G2 X4.473 Y2.1335 I-0.262 J0.792
G1 Z-0.1 F6
G2 X4.3968 Y2.1165 I-0.2279 J0.8441 F6
G2 X4.3196 Y2.1063 I-0.1578 J0.8951
G2 X4.2615 Y2.1028 I-0.0893 J1.0043
G3 X4.262 Y2.1012 I0.1325 J0.0403
G3 X4.2675 Y2.0858 I0.2214 J0.0704
G3 X4.2711 Y2.0769 I0.4845 J0.1926
G1 X4.2713 Y2.0769
G2 X4.28 Y2.0777 I0.017 J-0.1437
G2 X4.289 Y2.0779 I0.009 J-0.156
G2 X4.3193 Y2.0722 I0 J-0.0826
G2 X4.3417 Y2.0561 I-0.0207 J-0.0526
G2 X4.3543 Y2.0325 I-0.0482 J-0.0408
G2 X4.3589 Y1.999 I-0.1187 J-0.0335
G2 X4.3581 Y1.9702 I-0.5145 J0
G2 X4.3557 Y1.9407 I-0.5449 J0.0305
G2 X4.3516 Y1.9113 I-0.5616 J0.0622
G2 X4.3459 Y1.8812 I-0.6032 J0.099
G2 X4.3381 Y1.8496 I-0.4891 J0.1035
G2 X4.3305 Y1.8266 I-0.2563 J0.0719
G2 X4.3201 Y1.804 I-0.175 J0.0668
G2 X4.3096 Y1.7886 I-0.0809 J0.044
G2 X4.2941 Y1.7751 I-0.0508 J0.0429
G2 X4.2712 Y1.7639 I-0.0652 J0.104
G2 X4.2477 Y1.757 I-0.061 J0.1662
G2 X4.2293 Y1.7536 I-0.0744 J0.3435
G2 X4.2282 Y1.7483 I-11.295 J2.2044
G2 X4.2249 Y1.7313 I-8.7063 J1.7034
G2 X4.2244 Y1.7286 I-7.5734 J1.4971
G2 X4.2741 Y1.7368 I0.4873 J-2.813
G2 X4.3354 Y1.7452 I0.2612 J-1.6841
G2 X4.3972 Y1.7509 I0.1491 J-1.2625
G2 X4.4419 Y1.7525 I0.0447 J-0.6494
G2 X4.4877 Y1.7515 I0 J-1.1025
G2 X4.5311 Y1.7488 I-0.0411 J-0.9893
G2 X4.5743 Y1.744 I-0.0803 J-0.9371
G2 X4.5911 Y1.7417 I-0.1121 J-0.8465
G3 X4.5909 Y1.7481 I-1.825 J-0.059
G3 X4.5898 Y1.7716 I-1.0972 J-0.0393
G3 X4.5881 Y1.795 I-0.8184 J-0.047
G1 X4.5881 Y1.7956
G2 X4.5788 Y1.7931 I-0.0431 J0.1405
G2 X4.5654 Y1.7907 I-0.0293 J0.1237
G2 X4.5531 Y1.7899 I-0.0123 J0.0972
G2 X4.5408 Y1.7911 I0 J0.0634
G2 X4.5295 Y1.7947 I0.01 J0.0502
G2 X4.5192 Y1.8011 I0.0203 J0.0446
G2 X4.5106 Y1.8098 I0.0325 J0.0406
G2 X4.5018 Y1.8257 I0.0473 J0.0369
G2 X4.4952 Y1.8492 I0.1298 J0.0485
G2 X4.4923 Y1.8724 I0.2114 J0.0387
G2 X4.4911 Y1.9058 I0.4612 J0.0334
G1 X4.4911 Y1.9058
G1 X4.4911 Y1.9058
G2 X4.4925 Y1.9531 I0.7843 J0
G2 X4.4975 Y2.012 I1.2327 J-0.0745
G2 X4.505 Y2.0705 I1.5135 J-0.1645
G2 X4.5165 Y2.1407 I2.2118 J-0.3274
G3 X4.5176 Y2.1469 I-0.585 J0.1009
G2 X4.473 Y2.1335 I-0.262 J0.792
G0 Z0.25
G0 X0.5237 Y2.1414
G1 Z-0.05 F6
G1 X0.5027 Y2.2113 F6
G2 X0.4992 Y2.2212 I0.1378 J0.0547
G2 X0.4965 Y2.2313 I0.1113 J0.0352
G2 X0.4947 Y2.2418 I0.102 J0.0225
G2 X0.4942 Y2.2517 I0.0856 J0.0099
G1 X0.4942 Y2.2517
G1 X0.4942 Y2.2517
G2 X0.4972 Y2.2729 I0.0764 J0
G2 X0.5058 Y2.2915 I0.0636 J-0.0184
G2 X0.5193 Y2.3064 I0.0584 J-0.0393
G2 X0.5382 Y2.3187 I0.0632 J-0.0762
G2 X0.5551 Y2.3257 I0.0556 J-0.1111
G1 X0.5555 Y2.3258
G3 X0.5511 Y2.3254 I0.0553 J-0.5878
G3 X0.5042 Y2.3176 I0.0385 J-0.3783
G3 X0.4596 Y2.3037 I0.0687 J-0.2981
G3 X0.4254 Y2.2863 I0.0784 J-0.1966
G3 X0.4 Y2.2672 I0.0995 J-0.1586
G3 X0.3812 Y2.2468 I0.0981 J-0.1096
G3 X0.3667 Y2.2234 I0.1113 J-0.085
G3 X0.3566 Y2.1964 I0.1359 J-0.0666
G3 X0.3509 Y2.1739 I0.4557 J-0.1264
G3 X0.3473 Y2.1553 I0.3106 J-0.0699
G3 X0.345 Y2.1369 I0.2535 J-0.0414
G3 X0.3443 Y2.1224 I0.1613 J-0.0145
G1 X0.3443 Y2.1224
G1 X0.3443 Y2.1224
G3 X0.3521 Y2.0832 I0.1029 J0
G3 X0.3686 Y2.061 I0.0517 J0.0213
G3 X0.3958 Y2.0471 I0.0464 J0.0574
G3 X0.4513 Y2.0398 I0.0554 J0.2058
G3 X0.4596 Y2.04 I0 J0.1788
G3 X0.4741 Y2.0409 I-0.0238 J0.5126
G3 X0.4888 Y2.0421 I-0.0577 J0.7703
G3 X0.5095 Y2.0442 I-0.142 J1.5086
G2 X0.5307 Y2.0464 I0.1769 J-1.6382
G2 X0.5458 Y2.0476 I0.0782 J-0.8242
G2 X0.5612 Y2.0486 I0.0418 J-0.5465
G2 X0.5708 Y2.0488 I0.0096 J-0.1992
G2 X0.6071 Y2.0451 I0 J-0.1773
G2 X0.6354 Y2.035 I-0.0228 J-0.1087
G2 X0.66 Y2.0168 I-0.0446 J-0.0863
G2 X0.6783 Y1.9913 I-0.0729 J-0.0716
G2 X0.6841 Y1.9767 I-0.0872 J-0.0428
G2 X0.6937 Y1.9417 I-0.6131 J-0.1867
G2 X0.7017 Y1.9067 I-1.2118 J-0.2951
G2 X0.7134 Y1.8491 I-3.3135 J-0.7068
G2 X0.7137 Y1.8474 I-0.0196 J-0.0038
G1 X0.7153 Y1.8329
G2 X0.7154 Y1.8307 I-0.0199 J-0.0021
G1 X0.7154 Y1.8307
G2 X0.7106 Y1.8036 I-0.0799 J0
G2 X0.697 Y1.7798 I-0.0745 J0.0269
G2 X0.6773 Y1.762 I-0.0728 J0.0607
G2 X0.648 Y1.7462 I-0.0924 J0.1367
G2 X0.6231 Y1.7376 I-0.0841 J0.2022
G2 X0.5944 Y1.7311 I-0.0759 J0.2701
G2 X0.5654 Y1.7275 I-0.0541 J0.3178
G2 X0.5319 Y1.7262 I-0.0335 J0.4289
G2 X0.4898 Y1.7279 I0 J0.5348
G2 X0.4662 Y1.7316 I0.0122 J0.1548
G2 X0.4424 Y1.7423 I0.0157 J0.0664
G2 X0.4305 Y1.7655 I0.0164 J0.0231
G1 X0.4305 Y1.7655
G2 X0.4361 Y1.7809 I0.0241 J0
G2 X0.4454 Y1.789 I0.0301 J-0.0251
G2 X0.4537 Y1.7934 I0.0336 J-0.0538
G2 X0.4659 Y1.7981 I0.0637 J-0.1466
G3 X0.4936 Y1.8084 I-0.3084 J0.8768
G3 X0.5131 Y1.8164 I-0.1748 J0.4508
G3 X0.5318 Y1.8253 I-0.1312 J0.2988
G3 X0.5423 Y1.8314 I-0.0557 J0.1078
G3 X0.562 Y1.847 I-0.0713 J0.1109
G3 X0.5733 Y1.8608 I-0.0506 J0.053
G3 X0.5802 Y1.8761 I-0.0505 J0.032
G3 X0.5826 Y1.8928 I-0.0577 J0.0167
G3 X0.5813 Y1.901 I-0.0254 J0
G3 X0.5774 Y1.9083 I-0.0246 J-0.0083
G3 X0.5705 Y1.9153 I-0.0294 J-0.0224
G3 X0.5563 Y1.9241 I-0.0516 J-0.0671
G3 X0.5394 Y1.9309 I-0.0523 J-0.1045
G3 X0.5162 Y1.9367 I-0.0577 J-0.1816
G3 X0.4918 Y1.94 I-0.0441 J-0.2402
G3 X0.4603 Y1.9412 I-0.0315 J-0.3887
G3 X0.4448 Y1.941 I0 J-0.5022
G3 X0.4297 Y1.9403 I0.0148 J-0.4788
G3 X0.4147 Y1.9391 I0.0292 J-0.4677
G3 X0.4001 Y1.9375 I0.0426 J-0.4483
G3 X0.372 Y1.932 I0.0327 J-0.2442
G3 X0.3506 Y1.925 I0.0391 J-0.1537
G3 X0.3312 Y1.915 I0.0491 J-0.1191
G3 X0.3167 Y1.9038 I0.0502 J-0.0799
G3 X0.3064 Y1.8921 I0.0563 J-0.0604
G3 X0.2998 Y1.8808 I0.05 J-0.0366
G3 X0.2959 Y1.8685 I0.0544 J-0.0244
G3 X0.2944 Y1.8543 I0.0688 J-0.0142
G3 X0.2977 Y1.8324 I0.0736 J0
G3 X0.3082 Y1.8104 I0.0826 J0.0257
G3 X0.3249 Y1.7906 I0.0943 J0.0624
G3 X0.3539 Y1.7676 I0.1471 J0.1558
G3 X0.3934 Y1.7462 I0.1333 J0.1995
G3 X0.444 Y1.7294 I0.13 J0.3058
G3 X0.4973 Y1.72 I0.0974 J0.396
G3 X0.5649 Y1.7163 I0.0675 J0.6215
G3 X0.6344 Y1.7193 I0 J0.795
G3 X0.691 Y1.7273 I-0.0474 J0.5407
G3 X0.7457 Y1.7416 I-0.0861 J0.4407
G3 X0.7894 Y1.7598 I-0.1001 J0.3032
G3 X0.8274 Y1.7831 I-0.1187 J0.2363
G3 X0.8534 Y1.8067 I-0.1008 J0.137
G3 X0.8731 Y1.8348 I-0.1085 J0.097
G3 X0.8851 Y1.8656 I-0.1204 J0.0648
G3 X0.8916 Y1.893 I-0.6182 J0.1599
G3 X0.8956 Y1.9151 I-0.4051 J0.086
G3 X0.8983 Y1.9371 I-0.322 J0.0503
G3 X0.899 Y1.9538 I-0.1916 J0.0167
G3 X0.8961 Y1.9846 I-0.1642 J0
G3 X0.8894 Y2.0054 I-0.0868 J-0.0166
G3 X0.8781 Y2.0225 I-0.0637 J-0.0297
G3 X0.8628 Y2.0353 I-0.0508 J-0.0454
G3 X0.8476 Y2.0424 I-0.0432 J-0.0723
G3 X0.8233 Y2.049 I-0.0568 J-0.161
G3 X0.7974 Y2.0526 I-0.0456 J-0.2352
G3 X0.7614 Y2.054 I-0.0359 J-0.4366
G3 X0.7539 Y2.054 I0 J-0.4298
G3 X0.7423 Y2.0537 I0.0174 J-0.9927
G3 X0.7307 Y2.0533 I0.0408 J-1.3982
G3 X0.7151 Y2.0527 I0.0938 J-2.5031
G2 X0.6994 Y2.052 I-0.267 J6.0987
G2 X0.6899 Y2.0516 I-0.0893 J2.169
G2 X0.6804 Y2.0513 I-0.0396 J1.0743
G2 X0.6769 Y2.0513 I-0.0035 J0.1251
G2 X0.642 Y2.0529 I0 J0.3742
G2 X0.6149 Y2.0572 I0.0206 J0.2203
G2 X0.5881 Y2.0655 I0.0365 J0.1652
G2 X0.5677 Y2.0764 I0.0397 J0.0983
G2 X0.5537 Y2.0883 I0.0519 J0.0754
G2 X0.5414 Y2.1036 I0.0792 J0.0763
G2 X0.532 Y2.1204 I0.1056 J0.0704
G2 X0.5237 Y2.1414 I0.1618 J0.0755
G1 Z-0.1 F6
G1 X0.5027 Y2.2113 F6
G2 X0.4992 Y2.2212 I0.1378 J0.0547
G2 X0.4965 Y2.2313 I0.1113 J0.0352
G2 X0.4947 Y2.2418 I0.102 J0.0225
G2 X0.4942 Y2.2517 I0.0856 J0.0099
G1 X0.4942 Y2.2517
G1 X0.4942 Y2.2517
G2 X0.4972 Y2.2729 I0.0764 J0
G2 X0.5058 Y2.2915 I0.0636 J-0.0184
G2 X0.5193 Y2.3064 I0.0584 J-0.0393
G2 X0.5382 Y2.3187 I0.0632 J-0.0762
G2 X0.5551 Y2.3257 I0.0556 J-0.1111
G1 X0.5555 Y2.3258
G3 X0.5511 Y2.3254 I0.0553 J-0.5878
G3 X0.5042 Y2.3176 I0.0385 J-0.3783
G3 X0.4596 Y2.3037 I0.0687 J-0.2981
G3 X0.4254 Y2.2863 I0.0784 J-0.1966
G3 X0.4 Y2.2672 I0.0995 J-0.1586
G3 X0.3812 Y2.2468 I0.0981 J-0.1096
G3 X0.3667 Y2.2234 I0.1113 J-0.085
G3 X0.3566 Y2.1964 I0.1359 J-0.0666
G3 X0.3509 Y2.1739 I0.4557 J-0.1264
G3 X0.3473 Y2.1553 I0.3106 J-0.0699
G3 X0.345 Y2.1369 I0.2535 J-0.0414
G3 X0.3443 Y2.1224 I0.1613 J-0.0145
G1 X0.3443 Y2.1224
G1 X0.3443 Y2.1224
G3 X0.3521 Y2.0832 I0.1029 J0
G3 X0.3686 Y2.061 I0.0517 J0.0213
G3 X0.3958 Y2.0471 I0.0464 J0.0574
G3 X0.4513 Y2.0398 I0.0554 J0.2058
G3 X0.4596 Y2.04 I0 J0.1788
G3 X0.4741 Y2.0409 I-0.0238 J0.5126
G3 X0.4888 Y2.0421 I-0.0577 J0.7703
G3 X0.5095 Y2.0442 I-0.142 J1.5086
G2 X0.5307 Y2.0464 I0.1769 J-1.6382
G2 X0.5458 Y2.0476 I0.0782 J-0.8242
G2 X0.5612 Y2.0486 I0.0418 J-0.5465
G2 X0.5708 Y2.0488 I0.0096 J-0.1992
G2 X0.6071 Y2.0451 I0 J-0.1773
G2 X0.6354 Y2.035 I-0.0228 J-0.1087
G2 X0.66 Y2.0168 I-0.0446 J-0.0863
G2 X0.6783 Y1.9913 I-0.0729 J-0.0716
G2 X0.6841 Y1.9767 I-0.0872 J-0.0428
G2 X0.6937 Y1.9417 I-0.6131 J-0.1867
G2 X0.7017 Y1.9067 I-1.2118 J-0.2951
G2 X0.7134 Y1.8491 I-3.3135 J-0.7068
G2 X0.7137 Y1.8474 I-0.0196 J-0.0038
G1 X0.7153 Y1.8329
G2 X0.7154 Y1.8307 I-0.0199 J-0.0021
G1 X0.7154 Y1.8307
G2 X0.7106 Y1.8036 I-0.0799 J0
G2 X0.697 Y1.7798 I-0.0745 J0.0269
G2 X0.6773 Y1.762 I-0.0728 J0.0607
G2 X0.648 Y1.7462 I-0.0924 J0.1367
G2 X0.6231 Y1.7376 I-0.0841 J0.2022
G2 X0.5944 Y1.7311 I-0.0759 J0.2701
G2 X0.5654 Y1.7275 I-0.0541 J0.3178
G2 X0.5319 Y1.7262 I-0.0335 J0.4289
G2 X0.4898 Y1.7279 I0 J0.5348
G2 X0.4662 Y1.7316 I0.0122 J0.1548
G2 X0.4424 Y1.7423 I0.0157 J0.0664
G2 X0.4305 Y1.7655 I0.0164 J0.0231
G1 X0.4305 Y1.7655
G2 X0.4361 Y1.7809 I0.0241 J0
G2 X0.4454 Y1.789 I0.0301 J-0.0251
G2 X0.4537 Y1.7934 I0.0336 J-0.0538
G2 X0.4659 Y1.7981 I0.0637 J-0.1466
G3 X0.4936 Y1.8084 I-0.3084 J0.8768
G3 X0.5131 Y1.8164 I-0.1748 J0.4508
G3 X0.5318 Y1.8253 I-0.1312 J0.2988
G3 X0.5423 Y1.8314 I-0.0557 J0.1078
G3 X0.562 Y1.847 I-0.0713 J0.1109
G3 X0.5733 Y1.8608 I-0.0506 J0.053
G3 X0.5802 Y1.8761 I-0.0505 J0.032
G3 X0.5826 Y1.8928 I-0.0577 J0.0167
G3 X0.5813 Y1.901 I-0.0254 J0
G3 X0.5774 Y1.9083 I-0.0246 J-0.0083
G3 X0.5705 Y1.9153 I-0.0294 J-0.0224
G3 X0.5563 Y1.9241 I-0.0516 J-0.0671
G3 X0.5394 Y1.9309 I-0.0523 J-0.1045
G3 X0.5162 Y1.9367 I-0.0577 J-0.1816
G3 X0.4918 Y1.94 I-0.0441 J-0.2402
G3 X0.4603 Y1.9412 I-0.0315 J-0.3887
G3 X0.4448 Y1.941 I0 J-0.5022
G3 X0.4297 Y1.9403 I0.0148 J-0.4788
G3 X0.4147 Y1.9391 I0.0292 J-0.4677
G3 X0.4001 Y1.9375 I0.0426 J-0.4483
G3 X0.372 Y1.932 I0.0327 J-0.2442
G3 X0.3506 Y1.925 I0.0391 J-0.1537
G3 X0.3312 Y1.915 I0.0491 J-0.1191
G3 X0.3167 Y1.9038 I0.0502 J-0.0799
G3 X0.3064 Y1.8921 I0.0563 J-0.0604
G3 X0.2998 Y1.8808 I0.05 J-0.0366
G3 X0.2959 Y1.8685 I0.0544 J-0.0244
G3 X0.2944 Y1.8543 I0.0688 J-0.0142
G3 X0.2977 Y1.8324 I0.0736 J0
G3 X0.3082 Y1.8104 I0.0826 J0.0257
G3 X0.3249 Y1.7906 I0.0943 J0.0624
G3 X0.3539 Y1.7676 I0.1471 J0.1558
G3 X0.3934 Y1.7462 I0.1333 J0.1995
G3 X0.444 Y1.7294 I0.13 J0.3058
G3 X0.4973 Y1.72 I0.0974 J0.396
G3 X0.5649 Y1.7163 I0.0675 J0.6215
G3 X0.6344 Y1.7193 I0 J0.795
G3 X0.691 Y1.7273 I-0.0474 J0.5407
G3 X0.7457 Y1.7416 I-0.0861 J0.4407
G3 X0.7894 Y1.7598 I-0.1001 J0.3032
G3 X0.8274 Y1.7831 I-0.1187 J0.2363
G3 X0.8534 Y1.8067 I-0.1008 J0.137
G3 X0.8731 Y1.8348 I-0.1085 J0.097
G3 X0.8851 Y1.8656 I-0.1204 J0.0648
G3 X0.8916 Y1.893 I-0.6182 J0.1599
G3 X0.8956 Y1.9151 I-0.4051 J0.086
G3 X0.8983 Y1.9371 I-0.322 J0.0503
G3 X0.899 Y1.9538 I-0.1916 J0.0167
G3 X0.8961 Y1.9846 I-0.1642 J0
G3 X0.8894 Y2.0054 I-0.0868 J-0.0166
G3 X0.8781 Y2.0225 I-0.0637 J-0.0297
G3 X0.8628 Y2.0353 I-0.0508 J-0.0454
G3 X0.8476 Y2.0424 I-0.0432 J-0.0723
G3 X0.8233 Y2.049 I-0.0568 J-0.161
G3 X0.7974 Y2.0526 I-0.0456 J-0.2352
G3 X0.7614 Y2.054 I-0.0359 J-0.4366
G3 X0.7539 Y2.054 I0 J-0.4298
G3 X0.7423 Y2.0537 I0.0174 J-0.9927
G3 X0.7307 Y2.0533 I0.0408 J-1.3982
G3 X0.7151 Y2.0527 I0.0938 J-2.5031
G2 X0.6994 Y2.052 I-0.267 J6.0987
G2 X0.6899 Y2.0516 I-0.0893 J2.169
G2 X0.6804 Y2.0513 I-0.0396 J1.0743
G2 X0.6769 Y2.0513 I-0.0035 J0.1251
G2 X0.642 Y2.0529 I0 J0.3742
G2 X0.6149 Y2.0572 I0.0206 J0.2203
G2 X0.5881 Y2.0655 I0.0365 J0.1652
G2 X0.5677 Y2.0764 I0.0397 J0.0983
G2 X0.5537 Y2.0883 I0.0519 J0.0754
G2 X0.5414 Y2.1036 I0.0792 J0.0763
G2 X0.532 Y2.1204 I0.1056 J0.0704
G2 X0.5237 Y2.1414 I0.1618 J0.0755
G0 Z0.25
G0 X1.8807 Y2.0026
G1 Z-0.05 F6
G3 X1.8433 Y1.9972 I0.0371 J-0.3888 F6
G3 X1.8065 Y1.9882 I0.0745 J-0.383
G3 X1.7702 Y1.9754 I0.115 J-0.3867
G3 X1.7361 Y1.9591 I0.1269 J-0.3093
G3 X1.7154 Y1.9451 I0.0639 J-0.1162
G3 X1.6979 Y1.9248 I0.0509 J-0.0616
G3 X1.6917 Y1.9023 I0.0373 J-0.0225
G1 X1.6917 Y1.9023
G1 X1.6917 Y1.9023
G3 X1.6971 Y1.8824 I0.0391 J0
G3 X1.7113 Y1.8665 I0.0474 J0.0279
G3 X1.7277 Y1.8568 I0.0499 J0.066
G3 X1.7529 Y1.8477 I0.0786 J0.1775
G3 X1.7759 Y1.8423 I0.0761 J0.2709
G3 X1.8021 Y1.8382 I0.0692 J0.3598
G3 X1.8283 Y1.8359 I0.0492 J0.4163
G3 X1.8583 Y1.8351 I0.0299 J0.5468
G3 X1.8933 Y1.8372 I0 J0.2895
G3 X1.9276 Y1.8436 I-0.0348 J0.2854
G3 X1.961 Y1.8539 I-0.0708 J0.2859
G3 X1.9944 Y1.8688 I-0.1149 J0.304
G3 X2.0244 Y1.8867 I-0.1353 J0.2603
G3 X2.0431 Y1.9022 I-0.072 J0.1055
G3 X2.0582 Y1.9232 I-0.0586 J0.0583
G3 X2.0634 Y1.9451 I-0.0434 J0.0219
G3 X2.0591 Y1.9621 I-0.0354 J0
G3 X2.048 Y1.9756 I-0.0411 J-0.0224
G3 X2.0352 Y1.9839 I-0.0422 J-0.0506
G3 X2.0167 Y1.9916 I-0.0632 J-0.1265
G3 X1.997 Y1.9971 I-0.0602 J-0.1789
G3 X1.9727 Y2.0013 I-0.0605 J-0.2754
G3 X1.9484 Y2.0036 I-0.0442 J-0.3416
G3 X1.9192 Y2.0044 I-0.0292 J-0.5044
G3 X1.8807 Y2.0026 I0 J-0.4054
G1 Z-0.1 F6
G3 X1.8433 Y1.9972 I0.0371 J-0.3888 F6
G3 X1.8065 Y1.9882 I0.0745 J-0.383
G3 X1.7702 Y1.9754 I0.115 J-0.3867
G3 X1.7361 Y1.9591 I0.1269 J-0.3093
G3 X1.7154 Y1.9451 I0.0639 J-0.1162
G3 X1.6979 Y1.9248 I0.0509 J-0.0616
G3 X1.6917 Y1.9023 I0.0373 J-0.0225
G1 X1.6917 Y1.9023
G1 X1.6917 Y1.9023
G3 X1.6971 Y1.8824 I0.0391 J0
G3 X1.7113 Y1.8665 I0.0474 J0.0279
G3 X1.7277 Y1.8568 I0.0499 J0.066
G3 X1.7529 Y1.8477 I0.0786 J0.1775
G3 X1.7759 Y1.8423 I0.0761 J0.2709
G3 X1.8021 Y1.8382 I0.0692 J0.3598
G3 X1.8283 Y1.8359 I0.0492 J0.4163
G3 X1.8583 Y1.8351 I0.0299 J0.5468
G3 X1.8933 Y1.8372 I0 J0.2895
G3 X1.9276 Y1.8436 I-0.0348 J0.2854
G3 X1.961 Y1.8539 I-0.0708 J0.2859
G3 X1.9944 Y1.8688 I-0.1149 J0.304
G3 X2.0244 Y1.8867 I-0.1353 J0.2603
G3 X2.0431 Y1.9022 I-0.072 J0.1055
G3 X2.0582 Y1.9232 I-0.0586 J0.0583
G3 X2.0634 Y1.9451 I-0.0434 J0.0219
G3 X2.0591 Y1.9621 I-0.0354 J0
G3 X2.048 Y1.9756 I-0.0411 J-0.0224
G3 X2.0352 Y1.9839 I-0.0422 J-0.0506
G3 X2.0167 Y1.9916 I-0.0632 J-0.1265
G3 X1.997 Y1.9971 I-0.0602 J-0.1789
G3 X1.9727 Y2.0013 I-0.0605 J-0.2754
G3 X1.9484 Y2.0036 I-0.0442 J-0.3416
G3 X1.9192 Y2.0044 I-0.0292 J-0.5044
G3 X1.8807 Y2.0026 I0 J-0.4054
G0 Z0.25
G0 X2.0821 Y2.1642
G1 Z-0.05 F6
G2 X2.0131 Y2.1526 I-0.7243 J4.0992 F6
G2 X2.0149 Y2.1486 I-0.2405 J-0.1114
G2 X2.0218 Y2.1318 I-0.2845 J-0.126
G2 X2.0287 Y2.1118 I-0.3975 J-0.1491
G2 X2.0341 Y2.0929 I-0.4247 J-0.1307
G2 X2.0375 Y2.078 I-0.2533 J-0.0659
G2 X2.0399 Y2.0625 I-0.1916 J-0.038
G2 X2.0406 Y2.0505 I-0.104 J-0.0121
G1 X2.0406 Y2.0505
G2 X2.0067 Y2.0361 I-0.02 J0
G3 X1.9596 Y2.0755 I-0.2895 J-0.2983
G3 X1.9176 Y2.1002 I-0.1568 J-0.2184
G3 X1.8725 Y2.1159 I-0.0962 J-0.2038
G3 X1.8292 Y2.1209 I-0.0434 J-0.1861
G3 X1.7888 Y2.1168 I0 J-0.2004
G3 X1.7548 Y2.1057 I0.032 J-0.1556
G3 X1.7243 Y2.0873 I0.0653 J-0.143
G3 X1.6955 Y2.06 I0.1171 J-0.1523
G3 X1.6755 Y2.0322 I0.1747 J-0.1471
G3 X1.6587 Y1.9999 I0.2191 J-0.1344
G3 X1.6463 Y1.9652 I0.2609 J-0.1128
G3 X1.6371 Y1.9243 I0.3523 J-0.1008
G3 X1.634 Y1.9027 I0.6352 J-0.1012
G3 X1.6319 Y1.8831 I0.5226 J-0.0652
G3 X1.6306 Y1.8636 I0.4735 J-0.0412
G3 X1.6302 Y1.8461 I0.385 J-0.0175
G3 X1.6325 Y1.8139 I0.2289 J0
G3 X1.638 Y1.7908 I0.1303 J0.0185
G3 X1.6475 Y1.7702 I0.0967 J0.0322
G3 X1.6592 Y1.7554 I0.0642 J0.0389
G3 X1.6762 Y1.7427 I0.0554 J0.0565
G3 X1.7025 Y1.7317 I0.0635 J0.1146
G3 X1.7318 Y1.7256 I0.0516 J0.174
G3 X1.7738 Y1.723 I0.042 J0.3387
G3 X1.7881 Y1.7233 I0 J0.3497
G3 X1.8059 Y1.7243 I-0.0218 J0.5337
G3 X1.8238 Y1.7259 I-0.0481 J0.6456
G3 X1.8451 Y1.7283 I-0.0938 J0.9154
G3 X1.8876 Y1.7366 I-0.0428 J0.3328
G3 X1.9251 Y1.7493 I-0.0723 J0.2749
G3 X1.9603 Y1.7672 I-0.105 J0.2505
G3 X1.9926 Y1.79 I-0.1402 J0.2327
G2 X1.9948 Y1.7916 I0.0127 J-0.0155
G1 X1.9999 Y1.7947
G2 X2.0071 Y1.7974 I0.0105 J-0.017
G2 X2.0236 Y1.7932 I0.0035 J-0.0209
G2 X2.0309 Y1.7833 I-0.0139 J-0.0178
G2 X2.0324 Y1.7771 I-0.0252 J-0.0095
G2 X2.0327 Y1.7714 I-0.0474 J-0.0057
G2 X2.0321 Y1.7583 I-0.1258 J0
G2 X2.0291 Y1.7353 I-0.452 J0.0471
G2 X2.0264 Y1.7194 I-0.745 J0.1164
G2 X2.0344 Y1.7226 I0.1356 J-0.3251
G2 X2.0606 Y1.7319 I0.1579 J-0.406
G2 X2.093 Y1.7412 I0.1964 J-0.6195
G2 X2.1258 Y1.7489 I0.1642 J-0.6294
G2 X2.1552 Y1.754 I0.1021 J-0.495
G2 X2.185 Y1.7573 I0.064 J-0.4404
G2 X2.2116 Y1.7584 I0.0266 J-0.3455
G2 X2.2342 Y1.7573 I0 J-0.2502
G2 X2.2486 Y1.7553 I-0.0131 J-0.1447
G1 X2.2424 Y1.8164
G1 X2.2415 Y1.8165
G3 X2.234 Y1.8172 I-0.0145 J-0.1175
G3 X2.2258 Y1.8174 I-0.0082 J-0.1384
G3 X2.2104 Y1.8165 I0 J-0.1278
G3 X2.1975 Y1.814 I0.0117 J-0.0967
G3 X2.1853 Y1.8099 I0.0222 J-0.0849
G3 X2.1746 Y1.8043 I0.0308 J-0.0724
G2 X2.1441 Y1.8213 I-0.0106 J0.017
G2 X2.1455 Y1.8286 I0.02 J0
G3 X2.1583 Y1.8681 I-0.3223 J0.1264
G3 X2.1685 Y1.9175 I-0.4868 J0.1263
G3 X2.1742 Y1.9681 I-0.6016 J0.0931
G3 X2.1763 Y2.0296 I-0.8794 J0.0615
G3 X2.1763 Y2.0368 I-0.4414 J0
G3 X2.176 Y2.0473 I-0.9303 J-0.0151
G3 X2.1757 Y2.0578 I-1.2703 J-0.035
G3 X2.1751 Y2.0716 I-2.1735 J-0.0779
G2 X2.1746 Y2.0858 I2.437 J0.103
G2 X2.1743 Y2.0962 I1.2956 J0.0472
G2 X2.174 Y2.1068 I0.9212 J0.0262
G2 X2.174 Y2.1141 I0.4336 J0.0073
G1 X2.174 Y2.1141
G1 X2.174 Y2.1141
G2 X2.1812 Y2.1337 I0.0299 J0
G2 X2.198 Y2.1479 I0.0539 J-0.0466
G2 X2.2154 Y2.157 I0.0722 J-0.1179
G2 X2.2361 Y2.1652 I0.1604 J-0.3722
G1 X2.2361 Y2.1659
G3 X2.2364 Y2.1747 I-0.1227 J0.0088
G3 X2.2361 Y2.1858 I-0.1582 J0
G3 X2.2349 Y2.1969 I-0.1586 J-0.0112
G3 X2.2346 Y2.1985 I-0.1596 J-0.0226
G2 X2.2171 Y2.1934 I-0.1343 J0.4322
G2 X2.1497 Y2.1773 I-0.3418 J1.2799
G2 X2.0821 Y2.1642 I-0.4226 J1.9956
G1 Z-0.1 F6
G2 X2.0131 Y2.1526 I-0.7243 J4.0992 F6
G2 X2.0149 Y2.1486 I-0.2405 J-0.1114
G2 X2.0218 Y2.1318 I-0.2845 J-0.126
G2 X2.0287 Y2.1118 I-0.3975 J-0.1491
G2 X2.0341 Y2.0929 I-0.4247 J-0.1307
G2 X2.0375 Y2.078 I-0.2533 J-0.0659
G2 X2.0399 Y2.0625 I-0.1916 J-0.038
G2 X2.0406 Y2.0505 I-0.104 J-0.0121
G1 X2.0406 Y2.0505
G2 X2.0067 Y2.0361 I-0.02 J0
G3 X1.9596 Y2.0755 I-0.2895 J-0.2983
G3 X1.9176 Y2.1002 I-0.1568 J-0.2184
G3 X1.8725 Y2.1159 I-0.0962 J-0.2038
G3 X1.8292 Y2.1209 I-0.0434 J-0.1861
G3 X1.7888 Y2.1168 I0 J-0.2004
G3 X1.7548 Y2.1057 I0.032 J-0.1556
G3 X1.7243 Y2.0873 I0.0653 J-0.143
G3 X1.6955 Y2.06 I0.1171 J-0.1523
G3 X1.6755 Y2.0322 I0.1747 J-0.1471
G3 X1.6587 Y1.9999 I0.2191 J-0.1344
G3 X1.6463 Y1.9652 I0.2609 J-0.1128
G3 X1.6371 Y1.9243 I0.3523 J-0.1008
G3 X1.634 Y1.9027 I0.6352 J-0.1012
G3 X1.6319 Y1.8831 I0.5226 J-0.0652
G3 X1.6306 Y1.8636 I0.4735 J-0.0412
G3 X1.6302 Y1.8461 I0.385 J-0.0175
G3 X1.6325 Y1.8139 I0.2289 J0
G3 X1.638 Y1.7908 I0.1303 J0.0185
G3 X1.6475 Y1.7702 I0.0967 J0.0322
G3 X1.6592 Y1.7554 I0.0642 J0.0389
G3 X1.6762 Y1.7427 I0.0554 J0.0565
G3 X1.7025 Y1.7317 I0.0635 J0.1146
G3 X1.7318 Y1.7256 I0.0516 J0.174
G3 X1.7738 Y1.723 I0.042 J0.3387
G3 X1.7881 Y1.7233 I0 J0.3497
G3 X1.8059 Y1.7243 I-0.0218 J0.5337
G3 X1.8238 Y1.7259 I-0.0481 J0.6456
G3 X1.8451 Y1.7283 I-0.0938 J0.9154
G3 X1.8876 Y1.7366 I-0.0428 J0.3328
G3 X1.9251 Y1.7493 I-0.0723 J0.2749
G3 X1.9603 Y1.7672 I-0.105 J0.2505
G3 X1.9926 Y1.79 I-0.1402 J0.2327
G2 X1.9948 Y1.7916 I0.0127 J-0.0155
G1 X1.9999 Y1.7947
G2 X2.0071 Y1.7974 I0.0105 J-0.017
G2 X2.0236 Y1.7932 I0.0035 J-0.0209
G2 X2.0309 Y1.7833 I-0.0139 J-0.0178
G2 X2.0324 Y1.7771 I-0.0252 J-0.0095
G2 X2.0327 Y1.7714 I-0.0474 J-0.0057
G2 X2.0321 Y1.7583 I-0.1258 J0
G2 X2.0291 Y1.7353 I-0.452 J0.0471
G2 X2.0264 Y1.7194 I-0.745 J0.1164
G2 X2.0344 Y1.7226 I0.1356 J-0.3251
G2 X2.0606 Y1.7319 I0.1579 J-0.406
G2 X2.093 Y1.7412 I0.1964 J-0.6195
G2 X2.1258 Y1.7489 I0.1642 J-0.6294
G2 X2.1552 Y1.754 I0.1021 J-0.495
G2 X2.185 Y1.7573 I0.064 J-0.4404
G2 X2.2116 Y1.7584 I0.0266 J-0.3455
G2 X2.2342 Y1.7573 I0 J-0.2502
G2 X2.2486 Y1.7553 I-0.0131 J-0.1447
G1 X2.2424 Y1.8164
G1 X2.2415 Y1.8165
G3 X2.234 Y1.8172 I-0.0145 J-0.1175
G3 X2.2258 Y1.8174 I-0.0082 J-0.1384
G3 X2.2104 Y1.8165 I0 J-0.1278
G3 X2.1975 Y1.814 I0.0117 J-0.0967
G3 X2.1853 Y1.8099 I0.0222 J-0.0849
G3 X2.1746 Y1.8043 I0.0308 J-0.0724
G2 X2.1441 Y1.8213 I-0.0106 J0.017
G2 X2.1455 Y1.8286 I0.02 J0
G3 X2.1583 Y1.8681 I-0.3223 J0.1264
G3 X2.1685 Y1.9175 I-0.4868 J0.1263
G3 X2.1742 Y1.9681 I-0.6016 J0.0931
G3 X2.1763 Y2.0296 I-0.8794 J0.0615
G3 X2.1763 Y2.0368 I-0.4414 J0
G3 X2.176 Y2.0473 I-0.9303 J-0.0151
G3 X2.1757 Y2.0578 I-1.2703 J-0.035
G3 X2.1751 Y2.0716 I-2.1735 J-0.0779
G2 X2.1746 Y2.0858 I2.437 J0.103
G2 X2.1743 Y2.0962 I1.2956 J0.0472
G2 X2.174 Y2.1068 I0.9212 J0.0262
G2 X2.174 Y2.1141 I0.4336 J0.0073
G1 X2.174 Y2.1141
G1 X2.174 Y2.1141
G2 X2.1812 Y2.1337 I0.0299 J0
G2 X2.198 Y2.1479 I0.0539 J-0.0466
G2 X2.2154 Y2.157 I0.0722 J-0.1179
G2 X2.2361 Y2.1652 I0.1604 J-0.3722
G1 X2.2361 Y2.1659
G3 X2.2364 Y2.1747 I-0.1227 J0.0088
G3 X2.2361 Y2.1858 I-0.1582 J0
G3 X2.2349 Y2.1969 I-0.1586 J-0.0112
G3 X2.2346 Y2.1985 I-0.1596 J-0.0226
G2 X2.2171 Y2.1934 I-0.1343 J0.4322
G2 X2.1497 Y2.1773 I-0.3418 J1.2799
G2 X2.0821 Y2.1642 I-0.4226 J1.9956
G0 Z0.25
G0 X5.9603 Y2.0026
G1 Z-0.05 F6
G3 X5.9229 Y1.9972 I0.0371 J-0.3888 F6
G3 X5.8861 Y1.9882 I0.0745 J-0.383
G3 X5.8498 Y1.9754 I0.115 J-0.3867
G3 X5.8157 Y1.9591 I0.1269 J-0.3093
G3 X5.795 Y1.9451 I0.0639 J-0.1162
G3 X5.7775 Y1.9248 I0.0509 J-0.0616
G3 X5.7713 Y1.9023 I0.0373 J-0.0225
G1 X5.7713 Y1.9023
G1 X5.7713 Y1.9023
G3 X5.7767 Y1.8824 I0.0391 J0
G3 X5.7909 Y1.8665 I0.0474 J0.0279
G3 X5.8073 Y1.8568 I0.0499 J0.066
G3 X5.8325 Y1.8477 I0.0786 J0.1775
G3 X5.8555 Y1.8423 I0.0761 J0.2709
G3 X5.8817 Y1.8382 I0.0692 J0.3598
G3 X5.9079 Y1.8359 I0.0492 J0.4163
G3 X5.9379 Y1.8351 I0.0299 J0.5469
G3 X5.9729 Y1.8372 I0 J0.2895
G3 X6.0073 Y1.8436 I-0.0348 J0.2854
G3 X6.0406 Y1.8539 I-0.0708 J0.2859
G3 X6.074 Y1.8688 I-0.1149 J0.304
G3 X6.104 Y1.8867 I-0.1353 J0.2603
G3 X6.1227 Y1.9022 I-0.072 J0.1055
G3 X6.1378 Y1.9232 I-0.0586 J0.0583
G3 X6.143 Y1.9451 I-0.0434 J0.0219
G3 X6.1387 Y1.9621 I-0.0354 J0
G3 X6.1276 Y1.9756 I-0.0411 J-0.0224
G3 X6.1148 Y1.9839 I-0.0422 J-0.0506
G3 X6.0963 Y1.9916 I-0.0632 J-0.1265
G3 X6.0766 Y1.9971 I-0.0602 J-0.1789
G3 X6.0523 Y2.0013 I-0.0605 J-0.2754
G3 X6.028 Y2.0036 I-0.0442 J-0.3416
G3 X5.9988 Y2.0044 I-0.0292 J-0.5044
G3 X5.9603 Y2.0026 I0 J-0.4054
G1 Z-0.1 F6
G3 X5.9229 Y1.9972 I0.0371 J-0.3888 F6
G3 X5.8861 Y1.9882 I0.0745 J-0.383
G3 X5.8498 Y1.9754 I0.115 J-0.3867
G3 X5.8157 Y1.9591 I0.1269 J-0.3093
G3 X5.795 Y1.9451 I0.0639 J-0.1162
G3 X5.7775 Y1.9248 I0.0509 J-0.0616
G3 X5.7713 Y1.9023 I0.0373 J-0.0225
G1 X5.7713 Y1.9023
G1 X5.7713 Y1.9023
G3 X5.7767 Y1.8824 I0.0391 J0
G3 X5.7909 Y1.8665 I0.0474 J0.0279
G3 X5.8073 Y1.8568 I0.0499 J0.066
G3 X5.8325 Y1.8477 I0.0786 J0.1775
G3 X5.8555 Y1.8423 I0.0761 J0.2709
G3 X5.8817 Y1.8382 I0.0692 J0.3598
G3 X5.9079 Y1.8359 I0.0492 J0.4163
G3 X5.9379 Y1.8351 I0.0299 J0.5469
G3 X5.9729 Y1.8372 I0 J0.2895
G3 X6.0073 Y1.8436 I-0.0348 J0.2854
G3 X6.0406 Y1.8539 I-0.0708 J0.2859
G3 X6.074 Y1.8688 I-0.1149 J0.304
G3 X6.104 Y1.8867 I-0.1353 J0.2603
G3 X6.1227 Y1.9022 I-0.072 J0.1055
G3 X6.1378 Y1.9232 I-0.0586 J0.0583
G3 X6.143 Y1.9451 I-0.0434 J0.0219
G3 X6.1387 Y1.9621 I-0.0354 J0
G3 X6.1276 Y1.9756 I-0.0411 J-0.0224
G3 X6.1148 Y1.9839 I-0.0422 J-0.0506
G3 X6.0963 Y1.9916 I-0.0632 J-0.1265
G3 X6.0766 Y1.9971 I-0.0602 J-0.1789
G3 X6.0523 Y2.0013 I-0.0605 J-0.2754
G3 X6.028 Y2.0036 I-0.0442 J-0.3416
G3 X5.9988 Y2.0044 I-0.0292 J-0.5044
G3 X5.9603 Y2.0026 I0 J-0.4054
G0 Z0.25
G0 X6.1617 Y2.1642
G1 Z-0.05 F6
G2 X6.0927 Y2.1526 I-0.7243 J4.0992 F6
G2 X6.0945 Y2.1486 I-0.2405 J-0.1114
G2 X6.1014 Y2.1318 I-0.2845 J-0.126
G2 X6.1083 Y2.1118 I-0.3975 J-0.1491
G2 X6.1137 Y2.0929 I-0.4247 J-0.1307
G2 X6.1171 Y2.078 I-0.2533 J-0.0659
G2 X6.1195 Y2.0625 I-0.1916 J-0.038
G2 X6.1202 Y2.0505 I-0.104 J-0.0121
G1 X6.1202 Y2.0505
G2 X6.0863 Y2.0361 I-0.02 J0
G3 X6.0392 Y2.0755 I-0.2895 J-0.2983
G3 X5.9972 Y2.1002 I-0.1568 J-0.2184
G3 X5.9522 Y2.1159 I-0.0962 J-0.2038
G3 X5.9088 Y2.1209 I-0.0434 J-0.1861
G3 X5.8684 Y2.1168 I0 J-0.2004
G3 X5.8345 Y2.1057 I0.032 J-0.1556
G3 X5.8039 Y2.0873 I0.0653 J-0.143
G3 X5.7751 Y2.06 I0.1171 J-0.1523
G3 X5.7551 Y2.0322 I0.1747 J-0.1471
G3 X5.7383 Y1.9999 I0.2191 J-0.1344
G3 X5.7259 Y1.9652 I0.2609 J-0.1128
G3 X5.7167 Y1.9243 I0.3523 J-0.1008
G3 X5.7136 Y1.9027 I0.6352 J-0.1012
G3 X5.7116 Y1.8831 I0.5226 J-0.0652
G3 X5.7103 Y1.8636 I0.4735 J-0.0412
G3 X5.7099 Y1.8461 I0.385 J-0.0175
G3 X5.7121 Y1.8139 I0.2289 J0
G3 X5.7176 Y1.7908 I0.1303 J0.0185
G3 X5.7271 Y1.7702 I0.0967 J0.0322
G3 X5.7388 Y1.7554 I0.0642 J0.0389
G3 X5.7559 Y1.7427 I0.0554 J0.0565
G3 X5.7821 Y1.7317 I0.0635 J0.1146
G3 X5.8114 Y1.7256 I0.0516 J0.174
G3 X5.8534 Y1.723 I0.042 J0.3387
G3 X5.8677 Y1.7233 I0 J0.3497
G3 X5.8855 Y1.7243 I-0.0218 J0.5337
G3 X5.9034 Y1.7259 I-0.0481 J0.6456
G3 X5.9247 Y1.7283 I-0.0938 J0.9154
G3 X5.9672 Y1.7366 I-0.0428 J0.3328
G3 X6.0047 Y1.7493 I-0.0723 J0.2749
G3 X6.0399 Y1.7672 I-0.105 J0.2505
G3 X6.0722 Y1.79 I-0.1402 J0.2327
G2 X6.0744 Y1.7916 I0.0127 J-0.0155
G1 X6.0795 Y1.7947
G2 X6.0867 Y1.7974 I0.0105 J-0.017
G2 X6.1032 Y1.7932 I0.0035 J-0.0209
G2 X6.1105 Y1.7833 I-0.0139 J-0.0178
G2 X6.112 Y1.7771 I-0.0252 J-0.0095
G2 X6.1124 Y1.7714 I-0.0474 J-0.0057
G2 X6.1117 Y1.7583 I-0.1258 J0
G2 X6.1087 Y1.7353 I-0.4521 J0.0471
G2 X6.106 Y1.7194 I-0.745 J0.1164
G2 X6.114 Y1.7226 I0.1356 J-0.3251
G2 X6.1402 Y1.7319 I0.1579 J-0.406
G2 X6.1726 Y1.7412 I0.1964 J-0.6195
G2 X6.2054 Y1.7489 I0.1642 J-0.6294
G2 X6.2348 Y1.754 I0.1021 J-0.495
G2 X6.2646 Y1.7573 I0.064 J-0.4404
G2 X6.2912 Y1.7584 I0.0266 J-0.3455
G2 X6.3138 Y1.7573 I0 J-0.2502
G2 X6.3282 Y1.7553 I-0.0131 J-0.1447
G1 X6.322 Y1.8164
G1 X6.3211 Y1.8165
G3 X6.3136 Y1.8172 I-0.0145 J-0.1175
G3 X6.3054 Y1.8174 I-0.0082 J-0.1384
G3 X6.2901 Y1.8165 I0 J-0.1278
G3 X6.2771 Y1.814 I0.0117 J-0.0967
G3 X6.265 Y1.8099 I0.0222 J-0.0849
G3 X6.2542 Y1.8043 I0.0308 J-0.0724
G2 X6.2237 Y1.8213 I-0.0106 J0.017
G2 X6.2251 Y1.8286 I0.02 J0
G3 X6.2379 Y1.8681 I-0.3223 J0.1264
G3 X6.2481 Y1.9175 I-0.4868 J0.1263
G3 X6.2538 Y1.9681 I-0.6016 J0.0931
G3 X6.2559 Y2.0296 I-0.8794 J0.0615
G3 X6.2559 Y2.0368 I-0.4415 J0
G3 X6.2556 Y2.0473 I-0.9303 J-0.0151
G3 X6.2553 Y2.0578 I-1.2701 J-0.035
G3 X6.2548 Y2.0716 I-2.1728 J-0.0779
G2 X6.2542 Y2.0858 I2.4378 J0.1031
G2 X6.2539 Y2.0962 I1.2955 J0.0472
G2 X6.2536 Y2.1068 I0.9209 J0.0262
G2 X6.2536 Y2.1141 I0.4334 J0.0073
G1 X6.2536 Y2.1141
G1 X6.2536 Y2.1141
G2 X6.2609 Y2.1337 I0.0299 J0
G2 X6.2776 Y2.1479 I0.0539 J-0.0466
G2 X6.2951 Y2.157 I0.0722 J-0.1179
G2 X6.3157 Y2.1652 I0.1604 J-0.3722
G1 X6.3157 Y2.1659
G3 X6.3161 Y2.1747 I-0.1227 J0.0088
G3 X6.3157 Y2.1858 I-0.1582 J0
G3 X6.3145 Y2.1969 I-0.1586 J-0.0112
G3 X6.3143 Y2.1985 I-0.1596 J-0.0226
G2 X6.2967 Y2.1934 I-0.1343 J0.4322
G2 X6.2294 Y2.1773 I-0.3418 J1.2799
G2 X6.1617 Y2.1642 I-0.4226 J1.9956
G1 Z-0.1 F6
G2 X6.0927 Y2.1526 I-0.7243 J4.0992 F6
G2 X6.0945 Y2.1486 I-0.2405 J-0.1114
G2 X6.1014 Y2.1318 I-0.2845 J-0.126
G2 X6.1083 Y2.1118 I-0.3975 J-0.1491
G2 X6.1137 Y2.0929 I-0.4247 J-0.1307
G2 X6.1171 Y2.078 I-0.2533 J-0.0659
G2 X6.1195 Y2.0625 I-0.1916 J-0.038
G2 X6.1202 Y2.0505 I-0.104 J-0.0121
G1 X6.1202 Y2.0505
G2 X6.0863 Y2.0361 I-0.02 J0
G3 X6.0392 Y2.0755 I-0.2895 J-0.2983
G3 X5.9972 Y2.1002 I-0.1568 J-0.2184
G3 X5.9522 Y2.1159 I-0.0962 J-0.2038
G3 X5.9088 Y2.1209 I-0.0434 J-0.1861
G3 X5.8684 Y2.1168 I0 J-0.2004
G3 X5.8345 Y2.1057 I0.032 J-0.1556
G3 X5.8039 Y2.0873 I0.0653 J-0.143
G3 X5.7751 Y2.06 I0.1171 J-0.1523
G3 X5.7551 Y2.0322 I0.1747 J-0.1471
G3 X5.7383 Y1.9999 I0.2191 J-0.1344
G3 X5.7259 Y1.9652 I0.2609 J-0.1128
G3 X5.7167 Y1.9243 I0.3523 J-0.1008
G3 X5.7136 Y1.9027 I0.6352 J-0.1012
G3 X5.7116 Y1.8831 I0.5226 J-0.0652
G3 X5.7103 Y1.8636 I0.4735 J-0.0412
G3 X5.7099 Y1.8461 I0.385 J-0.0175
G3 X5.7121 Y1.8139 I0.2289 J0
G3 X5.7176 Y1.7908 I0.1303 J0.0185
G3 X5.7271 Y1.7702 I0.0967 J0.0322
G3 X5.7388 Y1.7554 I0.0642 J0.0389
G3 X5.7559 Y1.7427 I0.0554 J0.0565
G3 X5.7821 Y1.7317 I0.0635 J0.1146
G3 X5.8114 Y1.7256 I0.0516 J0.174
G3 X5.8534 Y1.723 I0.042 J0.3387
G3 X5.8677 Y1.7233 I0 J0.3497
G3 X5.8855 Y1.7243 I-0.0218 J0.5337
G3 X5.9034 Y1.7259 I-0.0481 J0.6456
G3 X5.9247 Y1.7283 I-0.0938 J0.9154
G3 X5.9672 Y1.7366 I-0.0428 J0.3328
G3 X6.0047 Y1.7493 I-0.0723 J0.2749
G3 X6.0399 Y1.7672 I-0.105 J0.2505
G3 X6.0722 Y1.79 I-0.1402 J0.2327
G2 X6.0744 Y1.7916 I0.0127 J-0.0155
G1 X6.0795 Y1.7947
G2 X6.0867 Y1.7974 I0.0105 J-0.017
G2 X6.1032 Y1.7932 I0.0035 J-0.0209
G2 X6.1105 Y1.7833 I-0.0139 J-0.0178
G2 X6.112 Y1.7771 I-0.0252 J-0.0095
G2 X6.1124 Y1.7714 I-0.0474 J-0.0057
G2 X6.1117 Y1.7583 I-0.1258 J0
G2 X6.1087 Y1.7353 I-0.4521 J0.0471
G2 X6.106 Y1.7194 I-0.745 J0.1164
G2 X6.114 Y1.7226 I0.1356 J-0.3251
G2 X6.1402 Y1.7319 I0.1579 J-0.406
G2 X6.1726 Y1.7412 I0.1964 J-0.6195
G2 X6.2054 Y1.7489 I0.1642 J-0.6294
G2 X6.2348 Y1.754 I0.1021 J-0.495
G2 X6.2646 Y1.7573 I0.064 J-0.4404
G2 X6.2912 Y1.7584 I0.0266 J-0.3455
G2 X6.3138 Y1.7573 I0 J-0.2502
G2 X6.3282 Y1.7553 I-0.0131 J-0.1447
G1 X6.322 Y1.8164
G1 X6.3211 Y1.8165
G3 X6.3136 Y1.8172 I-0.0145 J-0.1175
G3 X6.3054 Y1.8174 I-0.0082 J-0.1384
G3 X6.2901 Y1.8165 I0 J-0.1278
G3 X6.2771 Y1.814 I0.0117 J-0.0967
G3 X6.265 Y1.8099 I0.0222 J-0.0849
G3 X6.2542 Y1.8043 I0.0308 J-0.0724
G2 X6.2237 Y1.8213 I-0.0106 J0.017
G2 X6.2251 Y1.8286 I0.02 J0
G3 X6.2379 Y1.8681 I-0.3223 J0.1264
G3 X6.2481 Y1.9175 I-0.4868 J0.1263
G3 X6.2538 Y1.9681 I-0.6016 J0.0931
G3 X6.2559 Y2.0296 I-0.8794 J0.0615
G3 X6.2559 Y2.0368 I-0.4415 J0
G3 X6.2556 Y2.0473 I-0.9303 J-0.0151
G3 X6.2553 Y2.0578 I-1.2701 J-0.035
G3 X6.2548 Y2.0716 I-2.1728 J-0.0779
G2 X6.2542 Y2.0858 I2.4378 J0.1031
G2 X6.2539 Y2.0962 I1.2955 J0.0472
G2 X6.2536 Y2.1068 I0.9209 J0.0262
G2 X6.2536 Y2.1141 I0.4334 J0.0073
G1 X6.2536 Y2.1141
G1 X6.2536 Y2.1141
G2 X6.2609 Y2.1337 I0.0299 J0
G2 X6.2776 Y2.1479 I0.0539 J-0.0466
G2 X6.2951 Y2.157 I0.0722 J-0.1179
G2 X6.3157 Y2.1652 I0.1604 J-0.3722
G1 X6.3157 Y2.1659
G3 X6.3161 Y2.1747 I-0.1227 J0.0088
G3 X6.3157 Y2.1858 I-0.1582 J0
G3 X6.3145 Y2.1969 I-0.1586 J-0.0112
G3 X6.3143 Y2.1985 I-0.1596 J-0.0226
G2 X6.2967 Y2.1934 I-0.1343 J0.4322
G2 X6.2294 Y2.1773 I-0.3418 J1.2799
G2 X6.1617 Y2.1642 I-0.4226 J1.9956
G0 Z0.25
G0 X4.438 Y2.3437
G1 Z-0.05 F6
G3 X4.3738 Y2.3391 I0 J-0.4485 F6
G3 X4.3439 Y2.3306 I0.0168 J-0.1162
G3 X4.326 Y2.3167 I0.018 J-0.0416
G3 X4.322 Y2.3048 I0.0155 J-0.0119
G1 X4.322 Y2.3048
G1 X4.322 Y2.3048
G3 X4.3241 Y2.2877 I0.0688 J0
G3 X4.3295 Y2.2746 I0.0486 J0.0125
G3 X4.3384 Y2.2634 I0.0453 J0.0267
G3 X4.3533 Y2.2521 I0.0565 J0.0589
G3 X4.3689 Y2.2446 I0.0539 J0.0926
G3 X4.3885 Y2.2387 I0.0515 J0.1343
G3 X4.4091 Y2.2353 I0.0382 J0.1681
G3 X4.4348 Y2.234 I0.0257 J0.2508
G3 X4.4632 Y2.235 I0 J0.401
G3 X4.4901 Y2.2379 I-0.0259 J0.3649
G3 X4.5167 Y2.2428 I-0.051 J0.3494
G3 X4.5422 Y2.2496 I-0.074 J0.3287
G3 X4.5692 Y2.2598 I-0.0664 J0.2176
G3 X4.5815 Y2.267 I-0.0275 J0.0611
G3 X4.5883 Y2.2743 I-0.0158 J0.0213
G3 X4.5886 Y2.2753 I-0.0016 J0.001
G3 X4.5869 Y2.285 I-0.0289 J0
G3 X4.5811 Y2.2956 I-0.0371 J-0.0132
G3 X4.5715 Y2.3056 I-0.0469 J-0.0356
G3 X4.5527 Y2.3184 I-0.0842 J-0.1033
G3 X4.5302 Y2.329 I-0.0782 J-0.1377
G3 X4.5025 Y2.3372 I-0.0732 J-0.1947
G3 X4.4735 Y2.3419 I-0.0538 J-0.2403
G3 X4.438 Y2.3437 I-0.0355 J-0.3506
G1 Z-0.1 F6
G3 X4.3738 Y2.3391 I0 J-0.4485 F6
G3 X4.3439 Y2.3306 I0.0168 J-0.1162
G3 X4.326 Y2.3167 I0.018 J-0.0416
G3 X4.322 Y2.3048 I0.0155 J-0.0119
G1 X4.322 Y2.3048
G1 X4.322 Y2.3048
G3 X4.3241 Y2.2877 I0.0688 J0
G3 X4.3295 Y2.2746 I0.0486 J0.0125
G3 X4.3384 Y2.2634 I0.0453 J0.0267
G3 X4.3533 Y2.2521 I0.0565 J0.0589
G3 X4.3689 Y2.2446 I0.0539 J0.0926
G3 X4.3885 Y2.2387 I0.0515 J0.1343
G3 X4.4091 Y2.2353 I0.0382 J0.1681
G3 X4.4348 Y2.234 I0.0257 J0.2508
G3 X4.4632 Y2.235 I0 J0.401
G3 X4.4901 Y2.2379 I-0.0259 J0.3649
G3 X4.5167 Y2.2428 I-0.051 J0.3494
G3 X4.5422 Y2.2496 I-0.074 J0.3287
G3 X4.5692 Y2.2598 I-0.0664 J0.2176
G3 X4.5815 Y2.267 I-0.0275 J0.0611
G3 X4.5883 Y2.2743 I-0.0158 J0.0213
G3 X4.5886 Y2.2753 I-0.0016 J0.001
G3 X4.5869 Y2.285 I-0.0289 J0
G3 X4.5811 Y2.2956 I-0.0371 J-0.0132
G3 X4.5715 Y2.3056 I-0.0469 J-0.0356
G3 X4.5527 Y2.3184 I-0.0842 J-0.1033
G3 X4.5302 Y2.329 I-0.0782 J-0.1377
G3 X4.5025 Y2.3372 I-0.0732 J-0.1947
G3 X4.4735 Y2.3419 I-0.0538 J-0.2403
G3 X4.438 Y2.3437 I-0.0355 J-0.3506
G0 Z0.25
G0 X1.4892 Y1.8941
G1 Z-0.05 F6
G2 X1.4953 Y1.955 I5.3536 J-0.5101 F6
G3 X1.4962 Y1.9659 I-0.3048 J0.031
G3 X1.497 Y1.9807 I-0.5441 J0.0357
G3 X1.4974 Y1.9956 I-0.7001 J0.0269
G3 X1.4976 Y2.0143 I-1.0921 J0.0187
G3 X1.4964 Y2.053 I-0.6146 J0
G3 X1.4932 Y2.0846 I-0.4178 J-0.0264
G3 X1.4874 Y2.1155 I-0.3386 J-0.0474
G3 X1.4802 Y2.1397 I-0.2207 J-0.0519
G3 X1.4679 Y2.1664 I-0.1455 J-0.0512
G3 X1.4574 Y2.1796 I-0.0523 J-0.0306
G3 X1.4453 Y2.1875 I-0.0268 J-0.0281
G3 X1.4323 Y2.19 I-0.013 J-0.0318
G3 X1.4236 Y2.1892 I0 J-0.0472
G3 X1.4122 Y2.1862 I0.014 J-0.0746
G3 X1.4008 Y2.1813 I0.033 J-0.093
G3 X1.3865 Y2.1732 I0.0735 J-0.1459
G3 X1.3661 Y2.1583 I0.1241 J-0.1927
G3 X1.3435 Y2.1382 I0.2023 J-0.2489
G3 X1.3226 Y2.1159 I0.2672 J-0.2719
G3 X1.2997 Y2.0876 I0.4039 J-0.3498
G3 X1.2739 Y2.0495 I0.4144 J-0.3087
G3 X1.2515 Y2.0091 I0.4411 J-0.2711
G3 X1.2327 Y1.9669 I0.4717 J-0.2348
G3 X1.2231 Y1.9405 I0.5237 J-0.2056
G2 X1.2255 Y1.9445 I0.2302 J-0.1337
G2 X1.2433 Y1.9702 I0.2122 J-0.1282
G2 X1.2641 Y1.9926 I0.1669 J-0.1338
G2 X1.2833 Y2.0074 I0.0854 J-0.0912
G2 X1.3062 Y2.0179 I0.0522 J-0.0838
G2 X1.3289 Y2.0213 I0.0227 J-0.0729
G2 X1.345 Y2.0188 I0 J-0.0518
G2 X1.3589 Y2.0112 I-0.0136 J-0.0419
G2 X1.3691 Y1.9998 I-0.0294 J-0.0365
G2 X1.3762 Y1.9849 I-0.0569 J-0.036
G2 X1.3801 Y1.9696 I-0.0983 J-0.0333
G2 X1.3833 Y1.945 I-0.2886 J-0.0506
G2 X1.3848 Y1.9208 I-0.4554 J-0.0407
G2 X1.3855 Y1.8862 I-0.96 J-0.0347
G2 X1.3829 Y1.8294 I-0.6267 J0
G2 X1.3759 Y1.7818 I-0.4408 J0.0401
G2 X1.3633 Y1.7351 I-0.3672 J0.0742
G2 X1.3574 Y1.7194 I-0.2666 J0.0909
G2 X1.4113 Y1.7073 I-15.5896 J-69.4268
G2 X1.4689 Y1.6943 I-8.5334 J-37.8653
G2 X1.5266 Y1.6811 I-6.0078 J-26.4703
G2 X1.5462 Y1.6766 I-2.5329 J-11.0485
G2 X1.5467 Y1.6779 I2.8693 J-0.9975
G2 X1.5371 Y1.6806 I0.0863 J0.3266
G2 X1.5213 Y1.6856 I0.0961 J0.3247
G2 X1.5057 Y1.6915 I0.1134 J0.3241
G2 X1.4953 Y1.7012 I0.0075 J0.0185
G2 X1.4896 Y1.7164 I0.0755 J0.0371
G2 X1.4852 Y1.7378 I0.1721 J0.0465
G2 X1.4831 Y1.7589 I0.2539 J0.0361
G2 X1.4822 Y1.7875 I0.4877 J0.0286
G1 X1.4822 Y1.7875
G1 X1.4822 Y1.7875
G2 X1.4828 Y1.8105 I0.4503 J0
G2 X1.4856 Y1.8524 I1.5479 J-0.0792
G2 X1.4892 Y1.8941 I2.4858 J-0.1948
G1 Z-0.1 F6
G2 X1.4953 Y1.955 I5.3536 J-0.5101 F6
G3 X1.4962 Y1.9659 I-0.3048 J0.031
G3 X1.497 Y1.9807 I-0.5441 J0.0357
G3 X1.4974 Y1.9956 I-0.7001 J0.0269
G3 X1.4976 Y2.0143 I-1.0921 J0.0187
G3 X1.4964 Y2.053 I-0.6146 J0
G3 X1.4932 Y2.0846 I-0.4178 J-0.0264
G3 X1.4874 Y2.1155 I-0.3386 J-0.0474
G3 X1.4802 Y2.1397 I-0.2207 J-0.0519
G3 X1.4679 Y2.1664 I-0.1455 J-0.0512
G3 X1.4574 Y2.1796 I-0.0523 J-0.0306
G3 X1.4453 Y2.1875 I-0.0268 J-0.0281
G3 X1.4323 Y2.19 I-0.013 J-0.0318
G3 X1.4236 Y2.1892 I0 J-0.0472
G3 X1.4122 Y2.1862 I0.014 J-0.0746
G3 X1.4008 Y2.1813 I0.033 J-0.093
G3 X1.3865 Y2.1732 I0.0735 J-0.1459
G3 X1.3661 Y2.1583 I0.1241 J-0.1927
G3 X1.3435 Y2.1382 I0.2023 J-0.2489
G3 X1.3226 Y2.1159 I0.2672 J-0.2719
G3 X1.2997 Y2.0876 I0.4039 J-0.3498
G3 X1.2739 Y2.0495 I0.4144 J-0.3087
G3 X1.2515 Y2.0091 I0.4411 J-0.2711
G3 X1.2327 Y1.9669 I0.4717 J-0.2348
G3 X1.2231 Y1.9405 I0.5237 J-0.2056
G2 X1.2255 Y1.9445 I0.2302 J-0.1337
G2 X1.2433 Y1.9702 I0.2122 J-0.1282
G2 X1.2641 Y1.9926 I0.1669 J-0.1338
G2 X1.2833 Y2.0074 I0.0854 J-0.0912
G2 X1.3062 Y2.0179 I0.0522 J-0.0838
G2 X1.3289 Y2.0213 I0.0227 J-0.0729
G2 X1.345 Y2.0188 I0 J-0.0518
G2 X1.3589 Y2.0112 I-0.0136 J-0.0419
G2 X1.3691 Y1.9998 I-0.0294 J-0.0365
G2 X1.3762 Y1.9849 I-0.0569 J-0.036
G2 X1.3801 Y1.9696 I-0.0983 J-0.0333
G2 X1.3833 Y1.945 I-0.2886 J-0.0506
G2 X1.3848 Y1.9208 I-0.4554 J-0.0407
G2 X1.3855 Y1.8862 I-0.96 J-0.0347
G2 X1.3829 Y1.8294 I-0.6267 J0
G2 X1.3759 Y1.7818 I-0.4408 J0.0401
G2 X1.3633 Y1.7351 I-0.3672 J0.0742
G2 X1.3574 Y1.7194 I-0.2666 J0.0909
G2 X1.4113 Y1.7073 I-15.5896 J-69.4268
G2 X1.4689 Y1.6943 I-8.5334 J-37.8653
G2 X1.5266 Y1.6811 I-6.0078 J-26.4703
G2 X1.5462 Y1.6766 I-2.5329 J-11.0485
G2 X1.5467 Y1.6779 I2.8693 J-0.9975
G2 X1.5371 Y1.6806 I0.0863 J0.3266
G2 X1.5213 Y1.6856 I0.0961 J0.3247
G2 X1.5057 Y1.6915 I0.1134 J0.3241
G2 X1.4953 Y1.7012 I0.0075 J0.0185
G2 X1.4896 Y1.7164 I0.0755 J0.0371
G2 X1.4852 Y1.7378 I0.1721 J0.0465
G2 X1.4831 Y1.7589 I0.2539 J0.0361
G2 X1.4822 Y1.7875 I0.4877 J0.0286
G1 X1.4822 Y1.7875
G1 X1.4822 Y1.7875
G2 X1.4828 Y1.8105 I0.4503 J0
G2 X1.4856 Y1.8524 I1.5479 J-0.0792
G2 X1.4892 Y1.8941 I2.4858 J-0.1948
G0 Z0.25
G0 X0.7414 Y2.1518
G1 Z-0.05 F6
G3 X0.8022 Y2.1581 I0 J0.2975 F6
G3 X0.831 Y2.1697 I-0.018 J0.0864
G3 X0.8482 Y2.1882 I-0.0259 J0.0414
G3 X0.855 Y2.2155 I-0.0515 J0.0274
G3 X0.8518 Y2.2363 I-0.0689 J0
G3 X0.8424 Y2.2554 I-0.0669 J-0.0212
G3 X0.8272 Y2.2721 I-0.0731 J-0.0511
G3 X0.8004 Y2.2909 I-0.1104 J-0.1295
G3 X0.7665 Y2.3062 I-0.1051 J-0.1876
G3 X0.7206 Y2.3188 I-0.1134 J-0.3227
G3 X0.6939 Y2.3233 I-0.0864 J-0.4293
G2 X0.7019 Y2.3202 I-0.0485 J-0.1382
G2 X0.7126 Y2.3144 I-0.024 J-0.0573
G2 X0.7234 Y2.3038 I-0.0229 J-0.034
G2 X0.7284 Y2.2879 I-0.023 J-0.016
G1 X0.7284 Y2.2879
G2 X0.7241 Y2.2736 I-0.0263 J0
G2 X0.7155 Y2.2642 I-0.0312 J0.0202
G2 X0.707 Y2.2589 I-0.0325 J0.0425
G2 X0.6953 Y2.2538 I-0.0526 J0.1045
G1 X0.6945 Y2.2535
G1 X0.6513 Y2.2395
G3 X0.6279 Y2.2282 I0.0538 J-0.1406
G3 X0.6163 Y2.2189 I0.0289 J-0.0484
G3 X0.6096 Y2.2088 I0.024 J-0.0232
G3 X0.6077 Y2.1994 I0.022 J-0.0094
G1 X0.6077 Y2.1994
G1 X0.6077 Y2.1994
G3 X0.6085 Y2.1955 I0.0099 J0
G3 X0.613 Y2.1886 I0.0224 J0.0098
G3 X0.6213 Y2.1815 I0.0345 J0.0322
G3 X0.6391 Y2.1715 I0.0742 J0.1109
G3 X0.66 Y2.1633 I0.0728 J0.1535
G3 X0.6849 Y2.1569 I0.0666 J0.2076
G3 X0.7107 Y2.1532 I0.0483 J0.2478
G3 X0.7414 Y2.1518 I0.0307 J0.3427
G1 Z-0.1 F6
G3 X0.8022 Y2.1581 I0 J0.2975 F6
G3 X0.831 Y2.1697 I-0.018 J0.0864
G3 X0.8482 Y2.1882 I-0.0259 J0.0414
G3 X0.855 Y2.2155 I-0.0515 J0.0274
G3 X0.8518 Y2.2363 I-0.0689 J0
G3 X0.8424 Y2.2554 I-0.0669 J-0.0212
G3 X0.8272 Y2.2721 I-0.0731 J-0.0511
G3 X0.8004 Y2.2909 I-0.1104 J-0.1295
G3 X0.7665 Y2.3062 I-0.1051 J-0.1876
G3 X0.7206 Y2.3188 I-0.1134 J-0.3227
G3 X0.6939 Y2.3233 I-0.0864 J-0.4293
G2 X0.7019 Y2.3202 I-0.0485 J-0.1382
G2 X0.7126 Y2.3144 I-0.024 J-0.0573
G2 X0.7234 Y2.3038 I-0.0229 J-0.034
G2 X0.7284 Y2.2879 I-0.023 J-0.016
G1 X0.7284 Y2.2879
G2 X0.7241 Y2.2736 I-0.0263 J0
G2 X0.7155 Y2.2642 I-0.0312 J0.0202
G2 X0.707 Y2.2589 I-0.0325 J0.0425
G2 X0.6953 Y2.2538 I-0.0526 J0.1045
G1 X0.6945 Y2.2535
G1 X0.6513 Y2.2395
G3 X0.6279 Y2.2282 I0.0538 J-0.1406
G3 X0.6163 Y2.2189 I0.0289 J-0.0484
G3 X0.6096 Y2.2088 I0.024 J-0.0232
G3 X0.6077 Y2.1994 I0.022 J-0.0094
G1 X0.6077 Y2.1994
G1 X0.6077 Y2.1994
G3 X0.6085 Y2.1955 I0.0099 J0
G3 X0.613 Y2.1886 I0.0224 J0.0098
G3 X0.6213 Y2.1815 I0.0345 J0.0322
G3 X0.6391 Y2.1715 I0.0742 J0.1109
G3 X0.66 Y2.1633 I0.0728 J0.1535
G3 X0.6849 Y2.1569 I0.0666 J0.2076
G3 X0.7107 Y2.1532 I0.0483 J0.2478
G3 X0.7414 Y2.1518 I0.0307 J0.3427
G0 Z0.25
M5
M30
